; generated by PrusaSlicer 2.2.0+win64 on 2020-12-04 at 12:51:48 UTC

; 

; external perimeters extrusion width = 0.45mm
; perimeters extrusion width = 0.45mm
; infill extrusion width = 0.45mm
; solid infill extrusion width = 0.45mm
; top infill extrusion width = 0.40mm
; support material extrusion width = 0.35mm
; first layer extrusion width = 0.42mm

M201 X9000 Y9000 Z500 E10000 ; sets maximum accelerations, mm/sec^2
M203 X500 Y500 Z12 E120 ; sets maximum feedrates, mm/sec
M204 P1500 R1500 T1500 ; sets acceleration (P, T) and retract acceleration (R), mm/sec^2
M205 X10.00 Y10.00 Z0.20 E2.50 ; sets the jerk limits, mm/sec
M205 S0 T0 ; sets the minimum extruding and travel feed rate, mm/sec
;;; Copy from Cura output
M140 S60 ; set bed temp
M105 ; Read current temp
M190 S60 ; set bed temp and wait
M104 S180 ; set extruder temp
M105 ; Read current temp
M109 S180 ; wait for extruder temp and wait
M82        ; Set E codes absolute (default) - absolute extrusion mode

;;; Copy from Cura config
G21 ;metric values
G90 ;absolute positioning
M82 ;set extruder to absolute mode
M107 ;start with the fan off
G28 X0 Y0 ;move X/Y to min endstops
G28 Z0 ;move Z to min endstops
G1 Z15.0 F200 ;move the platform down 15mm
G92 E0 ;zero the extruded length
G1 F200 E3 ;extrude 3mm of feed stock
G92 E0 ;zero the extruded length again
G1 F200
G0 Y20 F200
M117 Printing...
G5
G21 ; set units to millimeters
G90 ; use absolute coordinates
M82 ; use absolute distances for extrusion
G92 E0
; Filament gcode
M106 S127.5
G1 E-6.00000 F3000.00000
G92 E0
G1 Z0.350 F12000.000
G1 X68.712 Y89.769
G1 E6.00000 F3000.00000
G1 F2160.000
G1 X71.190 Y88.442 E6.14816
G1 X73.593 Y87.705 E6.28060
G1 X107.328 Y79.497 E8.11012
G1 X108.672 Y79.273 E8.18192
G1 X113.348 Y79.272 E8.42834
G1 X114.921 Y79.549 E8.51252
G1 X119.324 Y81.152 E8.75940
G1 X120.603 Y81.889 E8.83722
G1 X124.220 Y84.922 E9.08594
G1 X143.772 Y102.077 E10.45660
G1 X144.152 Y102.552 E10.48866
G1 X144.322 Y102.900 E10.50908
G1 X144.481 Y103.571 E10.54539
G1 X147.408 Y123.709 E11.61771
G1 X147.412 Y124.935 E11.68233
G1 X147.294 Y126.046 E11.74123
G1 X146.964 Y127.120 E11.80040
G1 X146.401 Y128.161 E11.86275
G1 X145.604 Y129.097 E11.92752
G1 X144.808 Y129.741 E11.98149
G1 X143.916 Y130.226 E12.03501
G1 X142.719 Y130.611 E12.10129
G1 X141.584 Y130.728 E12.16137
G1 X80.494 Y130.728 E15.38052
G1 X79.382 Y130.618 E15.43943
G1 X78.391 Y130.325 E15.49386
G1 X77.222 Y129.715 E15.56334
G1 X76.360 Y129.001 E15.62235
G1 X75.599 Y128.054 E15.68637
G1 X64.897 Y108.930 E16.84116
G1 X63.596 Y106.459 E16.98835
G1 X62.846 Y103.896 E17.12903
G1 X62.590 Y101.234 E17.26996
G1 X62.828 Y98.744 E17.40179
G1 X63.660 Y95.932 E17.55631
G1 X64.928 Y93.570 E17.69759
G1 X66.687 Y91.432 E17.84346
G1 X68.665 Y89.807 E17.97839
G1 E14.97839 F3000.00000
G1 F9600.000
G1 X71.190 Y88.442 E14.12620
G1 X73.593 Y87.705 E13.38006
G1 X77.690 Y86.708 E12.12839
G1 E11.97839 F3000.00000
G92 E0
G1 X68.409 Y89.219 F12000.000
G1 X65.306 Y84.708
G1 X66.237 Y82.921
G1 X70.398 Y82.098
G1 X72.561 Y81.838
G1 X74.677 Y81.658
G1 X78.184 Y81.668
G1 X82.449 Y82.072
G1 X85.918 Y82.773
G1 X89.296 Y83.680
G1 X90.965 Y82.731
G1 X94.853 Y80.918
G1 X97.003 Y80.278
G1 X98.756 Y79.489
G1 X102.483 Y78.490
G1 X104.304 Y78.510
G1 X105.806 Y77.901
G1 X109.461 Y77.581
G1 X111.042 Y78.064
G1 X112.626 Y77.582
G1 X116.262 Y77.901
G1 X117.764 Y78.510
G1 X119.585 Y78.490
G1 X143.865 Y102.743
G1 E6.00000 F3000.00000
G1 F2160.000
G1 X144.140 Y103.623 E6.04859
G1 X147.065 Y123.738 E7.11968
G1 X147.068 Y124.918 E7.18188
G1 X146.958 Y125.968 E7.23747
G1 X146.646 Y126.985 E7.29352
G1 X146.118 Y127.962 E7.35208
G1 X145.382 Y128.833 E7.41218
G1 X144.618 Y129.453 E7.46400
G1 X143.754 Y129.921 E7.51582
G1 X142.643 Y130.275 E7.57725
G1 X141.575 Y130.383 E7.63382
G1 X80.500 Y130.383 E10.85218
G1 X79.445 Y130.279 E10.90805
G1 X78.495 Y129.996 E10.96026
G1 X77.420 Y129.433 E11.02419
G1 X76.608 Y128.762 E11.07971
G1 X75.896 Y127.880 E11.13944
G1 X65.198 Y108.762 E12.29385
G1 X63.924 Y106.351 E12.43754
G1 X63.189 Y103.863 E12.57429
G1 X62.935 Y101.233 E12.71351
G1 X63.171 Y98.778 E12.84344
G1 X63.981 Y96.060 E12.99291
G1 X65.210 Y93.768 E13.12998
G1 X66.929 Y91.677 E13.27261
G1 X68.905 Y90.055 E13.40731
G1 X71.327 Y88.759 E13.55206
G1 X73.692 Y88.035 E13.68240
G1 X107.399 Y79.835 E15.51043
G1 X108.685 Y79.617 E15.57912
G1 X113.348 Y79.617 E15.82486
G1 X114.805 Y79.873 E15.90281
G1 X119.191 Y81.471 E16.14882
G1 X120.398 Y82.166 E16.22218
G1 X123.996 Y85.184 E16.46966
G1 X143.546 Y102.338 E17.84022
G1 X143.828 Y102.696 E17.86423
G1 X143.580 Y102.937 F12000.000
G1 F2160.000
G1 X143.800 Y103.678 E17.90494
G1 X146.721 Y123.766 E18.97461
G1 X146.723 Y124.901 E19.03443
G1 X146.622 Y125.891 E19.08687
G1 X146.329 Y126.849 E19.13963
G1 X145.837 Y127.763 E19.19433
G1 X145.161 Y128.568 E19.24977
G1 X144.426 Y129.167 E19.29972
G1 X143.593 Y129.616 E19.34957
G1 X142.568 Y129.938 E19.40619
G1 X141.568 Y130.038 E19.45917
G1 X80.504 Y130.039 E22.67692
G1 X79.508 Y129.940 E22.72968
G1 X78.598 Y129.667 E22.77975
G1 X77.620 Y129.152 E22.83798
G1 X76.856 Y128.521 E22.89020
G1 X76.194 Y127.706 E22.94554
G1 X65.499 Y108.594 E24.09959
G1 X64.250 Y106.239 E24.24006
G1 X63.532 Y103.829 E24.37259
G1 X63.280 Y101.231 E24.51011
G1 X63.514 Y98.815 E24.63803
G1 X64.300 Y96.190 E24.78243
G1 X65.491 Y93.968 E24.91530
G1 X67.174 Y91.920 E25.05498
G1 X69.100 Y90.339 E25.18625
G1 X71.460 Y89.077 E25.32733
G1 X73.788 Y88.367 E25.45557
G1 X107.471 Y80.172 E27.28229
G1 X108.698 Y79.962 E27.34785
G1 X113.348 Y79.961 E27.59287
G1 X114.690 Y80.198 E27.66469
G1 X119.058 Y81.789 E27.90969
G1 X120.190 Y82.441 E27.97850
G1 X123.768 Y85.443 E28.22465
G1 X143.319 Y102.597 E29.59519
G1 X143.544 Y102.890 E29.61464
G1 X143.294 Y103.130 F12000.000
G1 F2160.000
G1 X143.459 Y103.730 E29.64740
G1 X146.377 Y123.797 E30.71597
G1 X146.379 Y124.884 E30.77325
G1 X146.285 Y125.816 E30.82262
G1 X146.011 Y126.716 E30.87216
G1 X145.558 Y127.561 E30.92269
G1 X144.941 Y128.302 E30.97352
G1 X144.235 Y128.880 E31.02161
G1 X143.431 Y129.312 E31.06970
G1 X142.497 Y129.601 E31.12121
G1 X141.560 Y129.694 E31.17083
G1 X80.510 Y129.694 E34.38785
G1 X79.574 Y129.601 E34.43744
G1 X78.698 Y129.337 E34.48561
G1 X77.821 Y128.872 E34.53795
G1 X77.102 Y128.280 E34.58704
G1 X76.491 Y127.531 E34.63795
G1 X64.577 Y106.129 E35.92870
G1 X63.876 Y103.795 E36.05713
G1 X63.625 Y101.231 E36.19287
G1 X63.857 Y98.851 E36.31890
G1 X64.620 Y96.320 E36.45818
G1 X65.772 Y94.168 E36.58680
G1 X67.419 Y92.163 E36.72358
G1 X69.291 Y90.626 E36.85121
G1 X71.594 Y89.394 E36.98884
G1 X73.887 Y88.697 E37.11509
G1 X107.543 Y80.509 E38.94034
G1 X108.710 Y80.307 E39.00276
G1 X113.347 Y80.306 E39.24711
G1 X114.572 Y80.522 E39.31264
G1 X118.928 Y82.108 E39.55693
G1 X119.982 Y82.716 E39.62105
G1 X123.541 Y85.703 E39.86587
G1 X143.091 Y102.856 E41.23638
G1 X143.259 Y103.082 E41.25123
G1 E38.25123 F3000.00000
G1 F9600.000
G1 X143.459 Y103.730 E38.04994
G1 X144.743 Y112.559 E35.40123
G1 E35.25123 F3000.00000
G92 E0
G1 X75.581 Y125.542 F12000.000
G1 E6.00000 F3000.00000
G1 F2160.000
G1 X75.517 Y124.877 E6.03521
G1 X75.518 Y123.804 E6.09174
G1 X75.614 Y122.854 E6.14207
G1 X75.898 Y121.916 E6.19370
G1 X76.360 Y121.052 E6.24532
G1 X76.982 Y120.295 E6.29694
G1 X77.739 Y119.674 E6.34856
G1 X78.603 Y119.212 E6.40017
G1 X79.573 Y118.922 E6.45353
G1 X80.506 Y118.831 E6.50292
G1 X141.579 Y118.832 E9.72115
G1 X142.561 Y118.935 E9.77320
G1 X143.465 Y119.212 E9.82301
G1 X144.329 Y119.674 E9.87463
G1 X145.086 Y120.295 E9.92625
G1 X145.708 Y121.052 E9.97787
G1 X145.840 Y121.299 E9.99263
G1 X146.038 Y122.661 F12000.000
G1 F2160.000
G1 X145.845 Y122.034 E10.02720
G1 X145.413 Y121.231 E10.07526
G1 X144.832 Y120.528 E10.12331
G1 X144.125 Y119.952 E10.17137
G1 X143.318 Y119.525 E10.21945
G1 X142.477 Y119.270 E10.26576
G1 X141.570 Y119.177 E10.31382
G1 X80.515 Y119.176 E13.53115
G1 X79.623 Y119.263 E13.57834
G1 X78.749 Y119.525 E13.62641
G1 X77.944 Y119.952 E13.67447
G1 X77.237 Y120.528 E13.72253
G1 X76.656 Y121.231 E13.77058
G1 X76.223 Y122.034 E13.81864
G1 X75.955 Y122.906 E13.86670
G1 X75.862 Y123.813 E13.91475
G1 X75.862 Y124.868 E13.97037
G1 X75.949 Y125.760 E14.01755
G1 X76.210 Y126.633 E14.06562
G1 X76.635 Y127.434 E14.11339
G1 X76.857 Y127.706 F12000.000
G1 F2160.000
G1 X77.231 Y128.163 E14.14452
G1 X77.499 Y128.384 F12000.000
G1 F2160.000
G1 X77.929 Y128.734 E14.17374
G1 X78.750 Y129.170 F12000.000
G1 F2160.000
G1 X79.309 Y129.341 E14.20453
G1 X79.599 Y129.429 F12000.000
G1 F2160.000
G1 X80.108 Y129.481 E14.23147
G1 X80.511 Y129.520 F12000.000
G1 F2160.000
G1 X141.559 Y129.520 E17.44843
G1 X141.967 Y129.480 F12000.000
G1 F2160.000
G1 X142.469 Y129.429 E17.47504
G1 X143.363 Y129.152 F12000.000
G1 F2160.000
G1 X144.145 Y128.731 E17.52182
G1 X144.370 Y128.547 F12000.000
G1 F2160.000
G1 X144.830 Y128.167 E17.55323
G1 X145.248 Y127.663 F12000.000
G1 F2160.000
G1 X145.420 Y127.452 E17.56755
G1 X145.848 Y126.656 F12000.000
G1 F2160.000
G1 X146.005 Y126.145 E17.59573
G1 X146.114 Y125.787 F12000.000
G1 F2160.000
G1 X146.174 Y125.199 E17.62682
G1 X146.206 Y124.880 F12000.000
G1 F2160.000
G1 X146.206 Y124.636 E17.63966
G1 X146.205 Y123.815 F12000.000
G1 F2160.000
G1 X146.203 Y123.798 E17.64055
G1 E14.64055 F3000.00000
G1 F9600.000
G1 X146.205 Y123.815 E14.63553
G1 E11.64055 F3000.00000
G92 E0
G1 X142.266 Y102.362 F12000.000
G1 E6.00000 F3000.00000
G1 F2160.000
G1 X133.192 Y102.358 E6.47819
G1 X133.128 Y102.385 E6.48181
G1 X132.878 Y102.635 E6.50048
G1 X132.852 Y102.698 E6.50409
G1 X132.852 Y111.999 E6.99420
G1 X132.878 Y112.063 E6.99781
G1 X133.128 Y112.313 E7.01648
G1 X133.192 Y112.339 E7.02010
G1 X142.373 Y112.339 E7.50390
G1 X142.516 Y112.308 E7.51162
G1 X143.120 Y112.034 E7.54659
G1 X143.229 Y111.950 E7.55384
G1 X143.505 Y111.523 E7.58062
G1 X143.635 Y110.938 E7.61222
G1 X143.635 Y106.139 E7.86510
G1 E4.86510 F3000.00000
G1 F9600.000
G1 X143.635 Y110.938 E3.44042
G1 X143.505 Y111.523 E3.26240
G1 X143.229 Y111.950 E3.11155
G1 X143.120 Y112.034 E3.07071
G1 X142.516 Y112.308 E2.87370
G1 X142.373 Y112.339 E2.83016
G1 X139.627 Y112.339 E2.01510
G1 E1.86510 F3000.00000
G92 E0
G1 X143.272 Y103.702 F12000.000
G1 E6.00000 F3000.00000
G1 F2160.000
G1 X143.290 Y103.780 E6.00421
G1 X143.290 Y110.918 E6.38036
G1 X143.176 Y111.416 E6.40727
G1 X142.954 Y111.731 E6.42758
G1 X142.354 Y111.994 E6.46211
G1 X133.297 Y111.994 E6.93937
G1 X133.196 Y111.893 E6.94690
G1 X133.196 Y102.804 E7.42586
G1 X133.297 Y102.703 E7.43339
G1 X142.354 Y102.703 E7.91065
G1 X142.964 Y102.975 E7.94582
G1 X143.057 Y103.099 F12000.000
G1 F2160.000
G1 X143.143 Y103.232 E7.95416
G1 E4.95416 F3000.00000
G1 F9600.000
G1 X143.057 Y103.099 E4.90720
G1 E1.95416 F3000.00000
G92 E0
G1 X125.481 Y85.426 F12000.000
G1 X124.559 Y86.826
G1 E6.00000 F3000.00000
G1 F2160.000
G1 X124.559 Y86.915 E6.00471
G1 X124.177 Y87.831 E6.05704
G1 X123.827 Y88.473 E6.09553
G1 X123.491 Y88.963 E6.12683
G1 X123.207 Y89.298 E6.15000
G1 X123.002 Y89.495 E6.16497
G1 X122.624 Y89.764 E6.18942
G1 X122.362 Y90.010 E6.20837
G1 X122.752 Y90.685 E6.24946
G1 X123.095 Y90.581 E6.26839
G1 X123.502 Y90.393 E6.29200
G1 X123.791 Y90.309 E6.30784
G1 X124.223 Y90.230 E6.33099
G1 X124.797 Y90.185 E6.36136
G1 X125.564 Y90.204 E6.40176
G1 X126.531 Y90.329 E6.45314
G1 X126.759 Y90.492 E6.46790
G1 X126.788 Y90.531 E6.47047
G1 X127.260 Y91.829 E6.54327
G1 X127.264 Y91.878 E6.54583
G1 X127.193 Y92.149 E6.56060
G1 X126.520 Y92.879 E6.61292
G1 X125.958 Y93.374 E6.65237
G1 X125.489 Y93.708 E6.68275
G1 X125.107 Y93.926 E6.70590
G1 X124.832 Y94.047 E6.72174
G1 X124.400 Y94.165 E6.74534
G1 X124.069 Y94.305 E6.76426
G1 X124.209 Y95.075 E6.80545
G1 X124.564 Y95.093 E6.82419
G1 X125.010 Y95.056 E6.84778
G1 X125.310 Y95.076 E6.86362
G1 X125.743 Y95.149 E6.88678
G1 X126.298 Y95.303 E6.91715
G1 X126.996 Y95.576 E6.95660
G1 X127.878 Y96.032 E7.00892
G1 X128.037 Y96.262 E7.02369
G1 X128.050 Y96.309 E7.02625
G1 X128.050 Y97.691 E7.09905
G1 X128.037 Y97.738 E7.10162
G1 X127.878 Y97.968 E7.11638
G1 X127.012 Y98.417 E7.16776
G1 X126.298 Y98.697 E7.20816
G1 X125.743 Y98.851 E7.23853
G1 X125.310 Y98.924 E7.26168
G1 X125.010 Y98.944 E7.27753
G1 X124.563 Y98.907 E7.30113
G1 X124.205 Y98.926 E7.32006
G1 X124.069 Y99.694 E7.36115
G1 X124.400 Y99.835 E7.38010
G1 X124.847 Y99.959 E7.40456
G1 X125.107 Y100.074 E7.41952
G1 X125.489 Y100.292 E7.44269
G1 X125.972 Y100.637 E7.47399
G1 X126.520 Y101.121 E7.51248
G1 X127.193 Y101.851 E7.56481
G1 X127.264 Y102.122 E7.57959
G1 X127.260 Y102.171 E7.58215
G1 X126.788 Y103.469 E7.65495
G1 X126.759 Y103.508 E7.65751
G1 X126.531 Y103.671 E7.67228
G1 X125.546 Y103.797 E7.72460
G1 X124.798 Y103.815 E7.76406
G1 X124.223 Y103.770 E7.79443
G1 X123.791 Y103.691 E7.81758
G1 X123.502 Y103.607 E7.83342
G1 X123.095 Y103.419 E7.85703
G1 X122.751 Y103.315 E7.87596
G1 X122.362 Y103.990 E7.91705
G1 X122.624 Y104.236 E7.93598
G1 X122.990 Y104.494 E7.95958
G1 X123.207 Y104.702 E7.97542
G1 X123.491 Y105.037 E7.99859
G1 X123.827 Y105.527 E8.02990
G1 X124.184 Y106.185 E8.06934
G1 X124.559 Y107.085 E8.12072
G1 X124.516 Y107.403 E8.13763
G1 X123.624 Y108.468 E8.21084
G1 X123.585 Y108.494 E8.21332
G1 X123.315 Y108.569 E8.22807
G1 X122.346 Y108.351 E8.28039
G1 X121.637 Y108.112 E8.31985
G1 X121.112 Y107.872 E8.35022
G1 X120.733 Y107.650 E8.37337
G1 X120.491 Y107.473 E8.38921
G1 X120.172 Y107.157 E8.41282
G1 X119.885 Y106.942 E8.43175
G1 X119.288 Y107.443 E8.47284
G1 X119.450 Y107.764 E8.49179
G1 X119.713 Y108.146 E8.51625
G1 X119.838 Y108.401 E8.53121
G1 X119.991 Y108.813 E8.55438
G1 X120.139 Y109.389 E8.58569
G1 X120.246 Y110.093 E8.62324
G1 X120.294 Y111.103 E8.67651
G1 X120.174 Y111.356 E8.69128
G1 X120.140 Y111.391 E8.69384
G1 X118.944 Y112.082 E8.76664
G1 X118.897 Y112.094 E8.76921
G1 X118.617 Y112.071 E8.78397
G1 X117.796 Y111.546 E8.83535
G1 X117.197 Y111.068 E8.87575
G1 X116.786 Y110.664 E8.90612
G1 X116.505 Y110.325 E8.92927
G1 X116.339 Y110.075 E8.94511
G1 X116.147 Y109.670 E8.96872
G1 X115.951 Y109.369 E8.98765
G1 X115.218 Y109.636 E9.02874
G1 X115.262 Y109.993 E9.04769
G1 X115.378 Y110.442 E9.07215
G1 X115.408 Y110.724 E9.08709
G1 X115.411 Y111.146 E9.10932
G1 X115.353 Y111.756 E9.14159
G1 X115.204 Y112.489 E9.18103
G1 X114.912 Y113.420 E9.23241
G1 X114.713 Y113.616 E9.24713
G1 X114.671 Y113.637 E9.24961
G1 X113.987 Y113.771 E9.28636
G1 X113.306 Y113.878 E9.32267
G1 X113.259 Y113.872 E9.32515
G1 X113.006 Y113.756 E9.33987
G1 X112.404 Y112.967 E9.39218
G1 X112.022 Y112.343 E9.43069
G1 X111.759 Y111.790 E9.46297
G1 X111.618 Y111.393 E9.48520
G1 X111.550 Y111.117 E9.50014
G1 X111.505 Y110.655 E9.52460
G1 X111.424 Y110.305 E9.54355
G1 X110.644 Y110.305 E9.58464
G1 X110.563 Y110.655 E9.60357
G1 X110.521 Y111.101 E9.62717
G1 X110.450 Y111.393 E9.64301
G1 X110.302 Y111.807 E9.66617
G1 X110.054 Y112.327 E9.69654
G1 X109.665 Y112.966 E9.73599
G1 X109.063 Y113.756 E9.78832
G1 X108.808 Y113.873 E9.80308
G1 X108.759 Y113.878 E9.80564
G1 X107.399 Y113.638 E9.87844
G1 X107.355 Y113.617 E9.88101
G1 X107.156 Y113.420 E9.89578
G1 X106.865 Y112.489 E9.94715
G1 X106.712 Y111.738 E9.98755
G1 X106.657 Y111.164 E10.01792
G1 X106.660 Y110.725 E10.04107
G1 X106.693 Y110.426 E10.05691
G1 X106.807 Y109.993 E10.08052
G1 X106.850 Y109.636 E10.09945
G1 X106.117 Y109.369 E10.14054
G1 X105.921 Y109.671 E10.15949
G1 X105.721 Y110.090 E10.18395
G1 X105.563 Y110.325 E10.19891
G1 X105.282 Y110.664 E10.22208
G1 X104.858 Y111.080 E10.25338
G1 X104.287 Y111.535 E10.29187
G1 X103.451 Y112.071 E10.34420
G1 X103.171 Y112.094 E10.35898
G1 X103.124 Y112.082 E10.36154
G1 X101.928 Y111.391 E10.43434
G1 X101.894 Y111.356 E10.43691
G1 X101.774 Y111.103 E10.45167
G1 X101.820 Y110.111 E10.50399
G1 X101.932 Y109.371 E10.54345
G1 X102.077 Y108.813 E10.57382
G1 X102.230 Y108.401 E10.59697
G1 X102.363 Y108.131 E10.61281
G1 X102.618 Y107.763 E10.63641
G1 X102.779 Y107.447 E10.65514
G1 X102.183 Y106.942 E10.69633
G1 X101.896 Y107.157 E10.71525
G1 X101.577 Y107.473 E10.73886
G1 X101.335 Y107.650 E10.75469
G1 X100.956 Y107.872 E10.77785
G1 X100.432 Y108.112 E10.80822
G1 X99.722 Y108.351 E10.84768
G1 X98.753 Y108.569 E10.90000
