; generated by PrusaSlicer 2.2.0+win64 on 2020-12-12 at 10:29:33 UTC

; 

; external perimeters extrusion width = 0.45mm
; perimeters extrusion width = 0.45mm
; infill extrusion width = 0.45mm
; solid infill extrusion width = 0.45mm
; top infill extrusion width = 0.40mm
; first layer extrusion width = 0.42mm

M201 X9000 Y9000 Z500 E10000 ; sets maximum accelerations, mm/sec^2
M203 X500 Y500 Z12 E120 ; sets maximum feedrates, mm/sec
M204 P1500 R1500 T1500 ; sets acceleration (P, T) and retract acceleration (R), mm/sec^2
M205 X10.00 Y10.00 Z0.20 E2.50 ; sets the jerk limits, mm/sec
M205 S0 T0 ; sets the minimum extruding and travel feed rate, mm/sec
;;; Copy from Cura output
M140 S60 ; set bed temp
M105 ; Read current temp
M190 S60 ; set bed temp and wait
M104 S175 ; set extruder temp
M105 ; Read current temp
M109 S175 ; wait for extruder temp and wait
M82        ; Set E codes absolute (default) - absolute extrusion mode

;;; Copy from Cura config
G21 ;metric values
G90 ;absolute positioning
M82 ;set extruder to absolute mode
M107 ;start with the fan off
G28 X0 Y0 ;move X/Y to min endstops
G28 Z0 ;move Z to min endstops
G1 Z15.0 F200 ;move the platform down 15mm
G92 E0 ;zero the extruded length
G1 F200 E3 ;extrude 3mm of feed stock
G92 E0 ;zero the extruded length again
G1 F200
G0 Y20 F200
M117 Printing...
G5
G21 ; set units to millimeters
G90 ; use absolute coordinates
M82 ; use absolute distances for extrusion
G92 E0
; Filament gcode
M106 S127.5
G1 E-6.00000 F3000.00000
G92 E0
G1 Z0.308 F12000.000
G1 X59.286 Y73.272
G1 E6.00000 F3000.00000
G1 F2160.000
G1 X59.822 Y72.757 E6.03539
G1 X60.496 Y72.584 E6.06847
G1 X149.503 Y72.584 E10.30377
G1 X150.036 Y72.690 E10.32962
G1 X150.488 Y72.986 E10.35534
G1 X150.797 Y73.433 E10.38119
G1 X150.915 Y73.960 E10.40691
G1 X150.916 Y121.003 E12.64537
G1 X150.821 Y121.509 E12.66985
G1 X150.585 Y121.909 E12.69198
G1 X150.231 Y122.212 E12.71412
G1 X124.677 Y137.243 E14.12486
G1 X124.006 Y137.416 E14.15781
G1 X85.671 Y137.377 E15.98194
G1 X85.285 Y137.222 E16.00173
G1 X59.777 Y122.217 E17.40991
G1 X59.481 Y121.982 E17.42790
G1 X59.257 Y121.678 E17.44589
G1 X59.084 Y121.004 E17.47897
G1 X59.084 Y73.985 E19.71630
G1 X59.269 Y73.330 E19.74870
G1 X59.590 Y73.452 F12000.000
G1 F2160.000
G1 X59.996 Y73.065 E19.77539
G1 X60.497 Y72.938 E19.79997
G1 X149.503 Y72.938 E24.03518
G1 X149.902 Y73.017 E24.05456
G1 X150.244 Y73.243 E24.07406
G1 X150.475 Y73.579 E24.09344
G1 X150.562 Y73.979 E24.11294
G1 X150.562 Y121.003 E26.35048
G1 X150.489 Y121.386 E26.36902
G1 X150.312 Y121.684 E26.38554
G1 X150.046 Y121.911 E26.40218
G1 X124.505 Y136.934 E27.81215
G1 X124.002 Y137.062 E27.83685
G1 X85.755 Y137.033 E29.65677
G1 X59.959 Y121.914 E31.07953
G1 X59.566 Y121.504 E31.10657
G1 X59.438 Y121.003 E31.13115
G1 X59.438 Y73.990 E33.36823
G1 X59.574 Y73.510 E33.39195
G1 X59.893 Y73.636 F12000.000
G1 F2160.000
G1 X60.165 Y73.377 E33.40983
G1 X60.500 Y73.292 E33.42627
G1 X149.502 Y73.292 E37.66132
G1 X149.771 Y73.346 E37.67439
G1 X149.998 Y73.497 E37.68736
G1 X150.151 Y73.723 E37.70034
G1 X150.208 Y73.990 E37.71331
G1 X150.158 Y121.262 E39.96268
G1 X149.862 Y121.608 E39.98435
G1 X124.335 Y136.623 E41.39356
G1 X124.000 Y136.708 E41.41001
G1 X85.837 Y136.689 E43.22594
G1 X60.139 Y121.609 E44.64373
G1 X59.876 Y121.335 E44.66180
G1 X59.792 Y121.002 E44.67815
G1 X59.792 Y73.996 E46.91486
G1 X59.877 Y73.694 E46.92979
G1 X60.333 Y73.688 F12000.000
G1 F2160.000
G1 X149.501 Y73.646 E51.17275
G1 X149.750 Y73.750 E51.18557
G1 X149.854 Y73.998 E51.19838
G1 X149.828 Y121.132 E53.44118
G1 X149.679 Y121.305 E53.45205
G1 X124.167 Y136.312 E54.86049
G1 X85.918 Y136.344 E56.68048
G1 X60.321 Y121.305 E58.09319
G1 X60.188 Y121.167 E58.10230
G1 X60.146 Y73.999 E60.34675
G1 X60.302 Y73.739 E60.36114
G1 E57.36114 F3000.00000
G1 F9600.000
G1 X69.902 Y73.729 E54.51114
G1 E54.36114 F3000.00000
G92 E0
G1 X61.054 Y121.531 F12000.000
G1 E6.00000 F3000.00000
G1 F2160.000
G1 X85.469 Y121.531 E7.16175
G1 X85.469 Y135.875 E7.84431
G1 E4.84431 F3000.00000
G1 F9600.000
G1 X85.469 Y126.275 E1.99431
G1 E1.84431 F3000.00000
G92 E0
G1 X97.800 Y138.000 F12000.000
G1 X96.331 Y136.159
G1 E6.00000 F3000.00000
G1 F2160.000
G1 X96.331 Y122.531 E6.64846
G1 X113.669 Y122.531 E7.47348
G1 X113.669 Y136.144 E8.12125
G1 E5.12125 F3000.00000
G1 F9600.000
G1 X113.669 Y126.544 E2.27125
G1 E2.12125 F3000.00000
G92 E0
G1 X126.000 Y138.000 F12000.000
G1 X124.531 Y135.893
G1 E6.00000 F3000.00000
G1 F2160.000
G1 X124.531 Y121.531 E6.68339
G1 X148.947 Y121.531 E7.84518
G1 X149.548 Y121.177 F12000.000
G1 F2160.000
G1 X124.177 Y121.177 E9.05243
G1 X124.177 Y136.073 E9.76125
G1 X124.115 Y136.135 E9.76543
G1 E6.76543 F3000.00000
G1 F9600.000
G1 X124.177 Y136.073 E6.73939
G1 X124.177 Y126.561 E3.91543
G1 E3.76543 F3000.00000
G92 E0
G1 X112.200 Y138.000 F12000.000
G1 X114.093 Y136.144
G1 E6.00000 F3000.00000
G1 F2160.000
G1 X114.023 Y136.073 E6.00474
G1 X114.023 Y122.177 E6.66598
G1 X95.977 Y122.177 E7.52468
G1 X95.977 Y136.073 E8.18592
G1 X95.891 Y136.159 E8.19169
G1 E5.19169 F3000.00000
G1 F9600.000
G1 X95.977 Y136.073 E5.15569
G1 X95.977 Y126.595 E2.34169
G1 E2.19169 F3000.00000
G92 E0
G1 X84.000 Y138.000 F12000.000
G1 X85.847 Y136.097
G1 E6.00000 F3000.00000
G1 F2160.000
G1 X85.823 Y136.073 E6.00160
G1 X85.823 Y121.177 E6.71042
G1 X60.452 Y121.177 E7.91768
G1 E4.91768 F3000.00000
G1 F9600.000
G1 X70.052 Y121.177 E2.06768
G1 E1.91768 F3000.00000
G92 E0
G1 X123.790 Y135.790 F12000.000
G1 E6.00000 F3000.00000
G1 F2160.000
G1 X114.410 Y135.790 E6.44633
G1 X114.410 Y121.790 E7.11251
G1 X95.590 Y121.790 E8.00803
G1 X95.590 Y135.790 E8.67420
G1 X86.210 Y135.790 E9.12054
G1 X86.210 Y120.790 E9.83429
G1 X60.710 Y120.790 E11.04767
G1 X60.710 Y74.210 E13.26412
G1 X149.290 Y74.210 E17.47908
G1 X149.290 Y120.790 E19.69553
G1 X123.790 Y120.790 E20.90891
G1 X123.790 Y135.730 E21.61981
G1 X123.532 Y135.484 F12000.000
G1 X123.436 Y135.436
G1 F2700.000
G1 X114.764 Y135.436 E22.03247
G1 X114.764 Y121.436 E22.69864
G1 X95.236 Y121.436 E23.62784
G1 X95.236 Y135.436 E24.29401
G1 X86.564 Y135.436 E24.70667
G1 X86.564 Y120.436 E25.42042
G1 X61.064 Y120.436 E26.63381
G1 X61.064 Y74.564 E28.81657
G1 X148.936 Y74.564 E32.99785
G1 X148.936 Y120.436 E35.18062
G1 X123.436 Y120.436 E36.39400
G1 X123.436 Y135.376 E37.10490
G1 E34.10490 F3000.00000
G1 F9600.000
G1 X114.764 Y135.436 E31.53028
G1 X114.764 Y134.508 E31.25490
G1 E31.10490 F3000.00000
G92 E0
G1 X122.264 Y134.264 F12000.000
G1 X122.718 Y132.821
G1 X122.850 Y131.564
G1 X122.850 Y125.445
G1 X122.728 Y124.233
G1 X121.975 Y122.126
G1 X120.955 Y120.545
G1 X121.500 Y120.000
G1 X123.000 Y119.250
G1 X135.000 Y119.250
G1 X135.000 Y118.500
G1 X135.790 Y117.710
G1 E6.00000 F3000.00000
G1 F2160.000
G1 X135.790 Y100.290 E6.82891
G1 X146.210 Y100.290 E7.32473
G1 X146.210 Y117.710 E8.15364
G1 X135.850 Y117.710 E8.64660
G1 X135.413 Y117.845 F12000.000
G1 E5.64660 F3000.00000
G1 F9600.000
G1 X135.817 Y108.110 E2.79660
G1 E2.64660 F3000.00000
G92 E0
G1 X135.436 Y99.936 F12000.000
G1 E6.00000 F3000.00000
G1 F2700.000
G1 X146.564 Y99.936 E6.52950
G1 X146.564 Y118.064 E7.39209
G1 X135.436 Y118.064 E7.92159
G1 X135.436 Y99.996 E8.78132
G1 X134.210 Y100.290 F12000.000
G1 F2160.000
G1 X134.210 Y117.710 E9.61023
G1 X123.790 Y117.710 E10.10605
G1 X123.790 Y100.290 E10.93496
G1 X134.150 Y100.290 E11.42793
G1 X134.587 Y100.155 F12000.000
G1 E8.42793 F3000.00000
G1 F9600.000
G1 X134.183 Y109.890 E5.57793
G1 E5.42793 F3000.00000
G92 E0
G1 X123.436 Y99.936 F12000.000
G1 E6.00000 F3000.00000
G1 F2700.000
G1 X134.564 Y99.936 E6.52950
G1 X134.564 Y118.064 E7.39209
G1 X123.436 Y118.064 E7.92159
G1 X123.436 Y99.996 E8.78132
G1 X122.210 Y100.290 F12000.000
G1 F2160.000
G1 X122.210 Y117.710 E9.61023
G1 X111.790 Y117.710 E10.10605
G1 X111.790 Y100.290 E10.93496
G1 X122.150 Y100.290 E11.42793
G1 X122.587 Y100.155 F12000.000
G1 E8.42793 F3000.00000
G1 F9600.000
G1 X122.183 Y109.890 E5.57793
G1 E5.42793 F3000.00000
G92 E0
G1 X111.436 Y99.936 F12000.000
G1 E6.00000 F3000.00000
G1 F2700.000
G1 X122.564 Y99.936 E6.52950
G1 X122.564 Y118.064 E7.39209
G1 X111.436 Y118.064 E7.92159
G1 X111.436 Y99.996 E8.78132
G1 E5.78132 F3000.00000
G1 F9600.000
G1 X121.036 Y99.944 E2.93132
G1 E2.78132 F3000.00000
G92 E0
G1 X111.000 Y99.500 F12000.000
G1 X111.000 Y119.750
G1 X115.200 Y119.750
G1 X117.377 Y120.695
G1 X118.717 Y123.364
G1 E6.00000 F3000.00000
G1 F540.000
G1 X119.176 Y123.231 E6.02274
G1 X119.600 Y123.189 E6.04304
G1 X120.051 Y123.233 E6.06459
G1 X120.484 Y123.365 E6.08615
G1 X120.884 Y123.578 E6.10771
G1 X121.234 Y123.866 E6.12926
G1 X121.522 Y124.216 E6.15082
G1 X121.735 Y124.616 E6.17238
G1 X121.867 Y125.049 E6.19393
G1 X121.910 Y125.485 E6.21476
G1 X121.910 Y131.510 E6.50148
G1 X121.867 Y131.951 E6.52255
G1 X121.735 Y132.384 E6.54411
G1 X121.522 Y132.784 E6.56566
G1 X121.234 Y133.134 E6.58722
G1 X120.884 Y133.422 E6.60878
G1 X120.484 Y133.635 E6.63033
G1 X120.051 Y133.767 E6.65189
G1 X119.600 Y133.811 E6.67345
G1 X119.149 Y133.767 E6.69501
G1 X118.716 Y133.635 E6.71656
G1 X118.316 Y133.422 E6.73812
G1 X117.966 Y133.134 E6.75968
G1 X117.678 Y132.784 E6.78124
G1 X117.465 Y132.384 E6.80279
G1 X117.333 Y131.951 E6.82435
G1 X117.290 Y131.510 E6.84541
G1 X117.290 Y125.485 E7.13213
G1 X117.333 Y125.049 E7.15297
G1 X117.465 Y124.616 E7.17452
G1 X117.678 Y124.216 E7.19608
G1 X117.966 Y123.866 E7.21763
G1 X118.316 Y123.578 E7.23919
G1 X118.664 Y123.393 E7.25795
G1 X118.772 Y122.968 F12000.000
G1 X118.550 Y123.052
G1 F540.000
G1 X119.108 Y122.882 E7.28573
G1 X119.600 Y122.833 E7.30924
G1 X120.120 Y122.885 E7.33412
G1 X120.620 Y123.036 E7.35899
G1 X121.082 Y123.283 E7.38387
G1 X121.486 Y123.614 E7.40874
G1 X121.817 Y124.019 E7.43362
G1 X122.064 Y124.480 E7.45849
G1 X122.215 Y124.979 E7.48335
G1 X122.264 Y125.467 E7.50667
G1 X122.264 Y131.528 E7.79505
G1 X122.215 Y132.020 E7.81860
G1 X122.064 Y132.520 E7.84348
G1 X121.817 Y132.981 E7.86835
G1 X121.486 Y133.386 E7.89323
G1 X121.082 Y133.717 E7.91810
G1 X120.620 Y133.964 E7.94298
G1 X120.120 Y134.115 E7.96785
G1 X119.600 Y134.167 E7.99272
G1 X119.080 Y134.115 E8.01760
G1 X118.580 Y133.964 E8.04247
G1 X118.118 Y133.717 E8.06735
G1 X117.714 Y133.386 E8.09222
G1 X117.383 Y132.981 E8.11710
G1 X117.136 Y132.520 E8.14197
G1 X116.985 Y132.020 E8.16685
G1 X116.936 Y131.528 E8.19039
G1 X116.936 Y125.467 E8.47878
G1 X116.985 Y124.979 E8.50210
G1 X117.136 Y124.480 E8.52696
G1 X117.383 Y124.018 E8.55183
G1 X117.714 Y123.614 E8.57671
G1 X118.119 Y123.283 E8.60158
G1 X118.497 Y123.081 E8.62200
G1 E5.62200 F3000.00000
G1 F9600.000
G1 X119.108 Y122.882 E5.43118
G1 X119.600 Y122.833 E5.28447
G1 X120.120 Y122.885 E5.12928
G1 X120.620 Y123.036 E4.97409
G1 X121.082 Y123.283 E4.81890
G1 X121.486 Y123.614 E4.66371
G1 X121.817 Y124.019 E4.50852
G1 X122.064 Y124.480 E4.35332
G1 X122.215 Y124.979 E4.19823
G1 X122.264 Y125.467 E4.05274
G1 X122.264 Y129.781 E2.77200
G1 E2.62200 F3000.00000
G92 E0
G1 X118.412 Y122.632 F12000.000
G1 X117.377 Y120.695
G1 X115.200 Y119.750
G1 X94.800 Y119.750
G1 X92.625 Y120.696
G1 X93.557 Y122.516
G1 X94.108 Y124.693
G1 X92.667 Y125.049
G1 E6.00000 F3000.00000
G1 F540.000
G1 X92.710 Y125.485 E6.02083
G1 X92.710 Y131.510 E6.30755
G1 X92.667 Y131.951 E6.32862
G1 X92.535 Y132.384 E6.35018
G1 X92.321 Y132.785 E6.37179
G1 X92.014 Y133.151 E6.39453
G1 X91.684 Y133.422 E6.41483
G1 X91.284 Y133.635 E6.43638
G1 X90.851 Y133.767 E6.45794
G1 X90.400 Y133.811 E6.47950
G1 X89.949 Y133.767 E6.50105
G1 X89.516 Y133.635 E6.52261
G1 X89.116 Y133.422 E6.54417
G1 X88.766 Y133.134 E6.56573
G1 X88.478 Y132.784 E6.58728
G1 X88.265 Y132.384 E6.60884
G1 X88.133 Y131.951 E6.63040
G1 X88.090 Y131.510 E6.65146
G1 X88.090 Y125.485 E6.93818
G1 X88.133 Y125.049 E6.95902
G1 X88.265 Y124.616 E6.98057
G1 X88.478 Y124.216 E7.00212
G1 X88.766 Y123.866 E7.02368
G1 X89.116 Y123.578 E7.04524
G1 X89.517 Y123.364 E7.06685
G1 X89.976 Y123.231 E7.08960
G1 X90.400 Y123.189 E7.10989
G1 X90.851 Y123.233 E7.13145
G1 X91.284 Y123.365 E7.15300
G1 X91.684 Y123.578 E7.17456
G1 X92.034 Y123.866 E7.19612
G1 X92.322 Y124.216 E7.21768
G1 X92.535 Y124.616 E7.23923
G1 X92.649 Y124.992 E7.25793
G1 X93.045 Y125.177 F12000.000
G1 X93.019 Y125.014
G1 F540.000
G1 X93.064 Y125.467 E7.27960
G1 X93.064 Y131.528 E7.56799
G1 X93.015 Y132.020 E7.59153
G1 X92.864 Y132.520 E7.61641
G1 X92.616 Y132.984 E7.64144
G1 X92.263 Y133.404 E7.66750
G1 X91.881 Y133.717 E7.69101
G1 X91.420 Y133.964 E7.71589
G1 X90.920 Y134.115 E7.74076
G1 X90.400 Y134.167 E7.76563
G1 X89.880 Y134.115 E7.79051
G1 X89.380 Y133.964 E7.81538
G1 X88.918 Y133.717 E7.84026
G1 X88.514 Y133.386 E7.86513
G1 X88.183 Y132.981 E7.89001
G1 X87.936 Y132.520 E7.91488
G1 X87.785 Y132.020 E7.93975
G1 X87.736 Y131.528 E7.96330
G1 X87.736 Y125.467 E8.25169
G1 X87.785 Y124.979 E8.27501
G1 X87.936 Y124.480 E8.29987
G1 X88.183 Y124.018 E8.32474
G1 X88.514 Y123.614 E8.34962
G1 X88.918 Y123.283 E8.37449
G1 X89.382 Y123.035 E8.39952
G1 X89.908 Y122.882 E8.42558
G1 X90.400 Y122.833 E8.44909
G1 X90.920 Y122.885 E8.47397
G1 X91.420 Y123.036 E8.49884
G1 X91.881 Y123.283 E8.52372
G1 X92.286 Y123.614 E8.54859
G1 X92.617 Y124.018 E8.57347
G1 X92.864 Y124.480 E8.59834
G1 X93.008 Y124.955 E8.62199
G1 E5.62199 F3000.00000
G1 F9600.000
G1 X93.064 Y125.467 E5.46911
G1 X93.064 Y131.528 E3.66987
G1 X93.015 Y132.020 E3.52294
G1 X92.864 Y132.520 E3.36775
G1 X92.616 Y132.984 E3.21160
G1 X92.263 Y133.404 E3.04902
G1 X91.881 Y133.717 E2.90231
G1 X91.494 Y133.924 E2.77199
G1 E2.62199 F3000.00000
G92 E0
G1 X94.108 Y124.693 F12000.000
G1 X93.557 Y122.516
G1 X92.625 Y120.696
G1 X90.591 Y120.452
G1 X89.045 Y120.545
G1 X88.500 Y120.000
G1 X87.000 Y119.250
G1 X75.000 Y119.250
G1 X75.000 Y99.000
G1 X64.000 Y99.000
G1 X62.750 Y98.275
G1 X62.750 Y89.000
G1 X62.872 Y88.220
G1 X62.500 Y87.000
G1 X62.500 Y77.000
G1 X63.500 Y77.000
G1 X64.290 Y77.790
G1 E6.00000 F3000.00000
G1 F2160.000
G1 X145.710 Y77.790 E9.87426
G1 X145.710 Y86.210 E10.27492
G1 X64.290 Y86.210 E14.14918
G1 X64.290 Y77.850 E14.54698
G1 X64.102 Y77.437 F12000.000
G1 X63.936 Y77.436
G1 F2700.000
G1 X146.064 Y77.436 E18.45492
G1 X146.064 Y86.564 E18.88925
G1 X63.936 Y86.564 E22.79719
G1 X63.936 Y77.496 E23.22867
G1 E20.22867 F3000.00000
G1 F9600.000
G1 X73.536 Y77.489 E17.37867
G1 E17.22867 F3000.00000
G92 E0
G1 X63.500 Y77.000 F12000.000
G1 X62.500 Y77.000
G1 X62.500 Y87.000
G1 X62.872 Y88.220
G1 X62.750 Y89.000
G1 X64.000 Y89.000
G1 X64.790 Y89.790
G1 E6.00000 F3000.00000
G1 F2160.000
G1 X145.210 Y89.790 E9.82668
G1 X145.210 Y97.710 E10.20354
G1 X64.790 Y97.710 E14.03022
G1 X64.790 Y89.850 E14.40423
G1 X64.601 Y89.437 F12000.000
G1 X64.436 Y89.436
G1 F2700.000
G1 X145.564 Y89.436 E18.26458
G1 X145.564 Y98.064 E18.67513
G1 X64.436 Y98.064 E22.53548
G1 X64.436 Y89.496 E22.94317
G1 E19.94317 F3000.00000
G1 F9600.000
G1 X74.036 Y89.489 E17.09317
G1 E16.94317 F3000.00000
G92 E0
G1 X63.790 Y100.290 F12000.000
G1 E6.00000 F3000.00000
G1 F2160.000
G1 X74.210 Y100.290 E6.49582
G1 X74.210 Y117.710 E7.32473
G1 X63.790 Y117.710 E7.82055
G1 X63.790 Y100.350 E8.64660
G1 X63.719 Y99.896 F12000.000
G1 X63.436 Y99.936
G1 F2700.000
G1 X74.564 Y99.936 E9.17610
G1 X74.564 Y118.064 E10.03869
G1 X63.436 Y118.064 E10.56819
G1 X63.436 Y99.996 E11.42793
G1 E8.42793 F3000.00000
G1 F9600.000
G1 X73.036 Y99.944 E5.57793
G1 E5.42793 F3000.00000
G92 E0
G1 X75.790 Y100.290 F12000.000
G1 E6.00000 F3000.00000
G1 F2160.000
G1 X86.210 Y100.290 E6.49582
G1 X86.210 Y117.710 E7.32473
G1 X75.790 Y117.710 E7.82055
G1 X75.790 Y100.350 E8.64660
G1 X75.719 Y99.896 F12000.000
G1 X75.436 Y99.936
G1 F2700.000
G1 X86.564 Y99.936 E9.17610
G1 X86.564 Y118.064 E10.03869
G1 X75.436 Y118.064 E10.56819
G1 X75.436 Y99.996 E11.42793
G1 E8.42793 F3000.00000
G1 F9600.000
G1 X85.036 Y99.944 E5.57793
G1 E5.42793 F3000.00000
G92 E0
G1 X87.790 Y100.290 F12000.000
G1 E6.00000 F3000.00000
G1 F2160.000
G1 X98.210 Y100.290 E6.49582
G1 X98.210 Y117.710 E7.32473
G1 X87.790 Y117.710 E7.82055
G1 X87.790 Y100.350 E8.64660
G1 X87.719 Y99.896 F12000.000
G1 X87.436 Y99.936
G1 F2700.000
G1 X98.564 Y99.936 E9.17610
G1 X98.564 Y118.064 E10.03869
G1 X87.436 Y118.064 E10.56819
