; generated by PrusaSlicer 2.2.0+win64 on 2021-06-16 at 11:49:53 UTC

; 

; external perimeters extrusion width = 0.45mm
; perimeters extrusion width = 0.45mm
; infill extrusion width = 0.45mm
; solid infill extrusion width = 0.45mm
; top infill extrusion width = 0.40mm
; first layer extrusion width = 0.42mm

M201 X9000 Y9000 Z500 E10000 ; sets maximum accelerations, mm/sec^2
M203 X500 Y500 Z12 E120 ; sets maximum feedrates, mm/sec
M204 P1500 R1500 T1500 ; sets acceleration (P, T) and retract acceleration (R), mm/sec^2
M205 X10.00 Y10.00 Z0.20 E2.50 ; sets the jerk limits, mm/sec
M205 S0 T0 ; sets the minimum extruding and travel feed rate, mm/sec
;;; Copy from Cura output
M140 S60 ; set bed temp
M105 ; Read current temp
M190 S60 ; set bed temp and wait
M104 S180 ; set extruder temp
M105 ; Read current temp
M109 S180 ; wait for extruder temp and wait
M82        ; Set E codes absolute (default) - absolute extrusion mode

;;; Copy from Cura config
G21 ;metric values
G90 ;absolute positioning
M82 ;set extruder to absolute mode
M107 ;start with the fan off
G28 X0 Y0 ;move X/Y to min endstops
G28 Z0 ;move Z to min endstops
G1 Z15.0 F200 ;move the platform down 15mm
G92 E0 ;zero the extruded length
G1 F200 E3 ;extrude 3mm of feed stock
G92 E0 ;zero the extruded length again
G1 F200
G0 Y20 F200
M117 Printing...
G5
G21 ; set units to millimeters
G90 ; use absolute coordinates
M82 ; use absolute distances for extrusion
G92 E0
; Filament gcode
M106 S127.5
G1 E-6.00000 F3000.00000
G92 E0
G1 Z0.210 F12000.000
G1 X79.925 Y78.105
G1 E6.00000 F3000.00000
G1 F2160.000
G1 X80.615 Y77.917 E6.02461
G1 X116.272 Y77.933 E7.25017
G1 X137.114 Y78.223 E7.96661
G1 X137.521 Y78.295 E7.98081
G1 X137.893 Y78.475 E7.99501
G1 X138.199 Y78.747 E8.00911
G1 X138.422 Y79.095 E8.02331
G1 X138.559 Y79.717 E8.04519
G1 X138.530 Y111.217 E9.12788
G1 X138.345 Y111.694 E9.14548
G1 X128.696 Y127.623 E9.78560
G1 X128.301 Y128.105 E9.80703
G1 X127.814 Y128.503 E9.82864
G1 X127.266 Y128.791 E9.84993
G1 X126.624 Y128.974 E9.87288
G1 X99.585 Y132.041 E10.80819
G1 X98.298 Y132.074 E10.85243
G1 X97.748 Y132.023 E10.87141
G1 X75.012 Y127.653 E11.66719
G1 X74.199 Y127.405 E11.69641
G1 X73.450 Y127.006 E11.72557
G1 X72.780 Y126.456 E11.75536
G1 X72.224 Y125.776 E11.78556
G1 X71.822 Y125.012 E11.81525
G1 X71.565 Y124.097 E11.84792
G1 X71.499 Y123.372 E11.87293
G1 X71.499 Y111.496 E12.28111
G1 X71.566 Y110.752 E12.30678
G1 X79.196 Y79.062 E13.42714
G1 X79.401 Y78.590 E13.44484
G1 X79.880 Y78.146 E13.46729
G1 X80.111 Y78.431 F12000.000
G1 F2160.000
G1 X80.630 Y78.292 E13.48575
G1 X116.270 Y78.308 E14.71074
G1 X137.094 Y78.598 E15.42656
G1 X137.683 Y78.785 E15.44780
G1 X138.082 Y79.254 E15.46897
G1 X138.184 Y79.718 E15.48532
G1 X138.162 Y111.143 E16.56544
G1 X138.024 Y111.501 E16.57861
G1 X128.381 Y127.420 E17.21833
G1 X128.035 Y127.841 E17.23707
G1 X127.608 Y128.189 E17.25599
G1 X127.129 Y128.442 E17.27464
G1 X126.564 Y128.604 E17.29480
G1 X99.544 Y131.668 E18.22950
G1 X98.298 Y131.699 E18.27234
G1 X75.088 Y127.286 E19.08438
G1 X74.344 Y127.059 E19.11112
G1 X73.654 Y126.691 E19.13798
G1 X73.044 Y126.190 E19.16511
G1 X72.540 Y125.573 E19.19251
G1 X72.172 Y124.878 E19.21955
G1 X71.936 Y124.046 E19.24926
G1 X71.874 Y123.369 E19.27262
G1 X71.874 Y111.496 E19.68071
G1 X71.938 Y110.794 E19.70496
G1 X79.560 Y79.150 E20.82369
G1 X79.716 Y78.794 E20.83704
G1 X80.067 Y78.471 E20.85344
G1 X80.030 Y78.999 F12000.000
G1 F2160.000
G1 X80.296 Y78.757 E20.86582
G1 X80.643 Y78.667 E20.87813
G1 X116.265 Y78.682 E22.10251
G1 X137.077 Y78.972 E22.81790
G1 X137.472 Y79.095 E22.83212
G1 X137.741 Y79.409 E22.84635
G1 X137.810 Y79.721 E22.85729
G1 X137.795 Y111.071 E23.93484
G1 X128.067 Y127.214 E24.58268
G1 X127.404 Y127.874 E24.61482
G1 X126.509 Y128.233 E24.64795
G1 X99.504 Y131.295 E25.58210
G1 X98.303 Y131.324 E25.62342
G1 X75.165 Y126.919 E26.43297
G1 X74.486 Y126.712 E26.45738
G1 X73.859 Y126.377 E26.48181
G1 X73.310 Y125.926 E26.50623
G1 X72.856 Y125.371 E26.53087
G1 X72.521 Y124.742 E26.55537
G1 X72.308 Y123.998 E26.58196
G1 X72.249 Y123.367 E26.60376
G1 X72.249 Y111.496 E27.01177
G1 X72.311 Y110.838 E27.03447
G1 X80.016 Y79.057 E28.15848
G1 X80.343 Y79.206 F12000.000
G1 F2160.000
G1 X80.650 Y79.042 E28.17047
G1 X116.261 Y79.057 E29.39446
G1 X137.066 Y79.347 E30.10964
G1 X137.266 Y79.409 E30.11683
G1 X137.401 Y79.567 E30.12396
G1 X137.427 Y110.997 E31.20427
G1 X127.755 Y127.007 E31.84717
G1 X127.200 Y127.560 E31.87409
G1 X126.456 Y127.862 E31.90168
G1 X99.463 Y130.922 E32.83543
G1 X98.307 Y130.950 E32.87516
G1 X75.239 Y126.551 E33.68231
G1 X74.631 Y126.366 E33.70417
G1 X74.066 Y126.065 E33.72618
G1 X73.574 Y125.660 E33.74807
G1 X73.153 Y125.139 E33.77110
G1 X72.872 Y124.608 E33.79176
G1 X72.696 Y124.033 E33.81241
G1 X72.626 Y123.397 E33.83440
G1 X72.624 Y111.495 E34.24351
G1 X72.683 Y110.885 E34.26457
G1 X80.328 Y79.264 E35.38273
G1 E32.38273 F3000.00000
G1 F9600.000
G1 X80.650 Y79.042 E32.26649
G1 X89.859 Y79.046 E29.53273
G1 E29.38273 F3000.00000
G92 E0
G1 X87.107 Y119.986 F12000.000
G1 E6.00000 F3000.00000
G1 F2160.000
G1 X87.779 Y119.927 E6.02316
G1 X88.448 Y120.001 E6.04631
G1 X89.091 Y120.203 E6.06947
G1 X89.682 Y120.527 E6.09262
G1 X90.198 Y120.960 E6.11578
G1 X90.619 Y121.485 E6.13893
G1 X90.931 Y122.083 E6.16209
G1 X91.119 Y122.730 E6.18525
G1 X91.178 Y123.401 E6.20840
G1 X91.105 Y124.070 E6.23156
G1 X90.902 Y124.713 E6.25471
G1 X90.578 Y125.304 E6.27787
G1 X90.145 Y125.820 E6.30102
G1 X89.620 Y126.242 E6.32418
G1 X89.023 Y126.553 E6.34733
G1 X88.376 Y126.741 E6.37049
G1 X87.705 Y126.800 E6.39365
G1 X87.035 Y126.727 E6.41680
G1 X86.392 Y126.524 E6.43996
G1 X85.802 Y126.200 E6.46311
G1 X85.286 Y125.768 E6.48627
G1 X84.864 Y125.242 E6.50942
G1 X84.553 Y124.645 E6.53258
G1 X84.364 Y123.998 E6.55574
G1 X84.305 Y123.327 E6.57889
G1 X84.378 Y122.657 E6.60205
G1 X84.581 Y122.015 E6.62520
G1 X84.905 Y121.424 E6.64836
G1 X85.338 Y120.908 E6.67151
G1 X85.863 Y120.486 E6.69467
G1 X86.461 Y120.175 E6.71783
G1 X87.050 Y120.003 E6.73892
G1 X87.161 Y120.358 F12000.000
G1 F2160.000
G1 X87.759 Y120.302 E6.75955
G1 X88.356 Y120.364 E6.78018
G1 X88.929 Y120.542 E6.80081
G1 X89.457 Y120.828 E6.82143
G1 X89.919 Y121.211 E6.84206
G1 X90.297 Y121.677 E6.86269
G1 X90.577 Y122.208 E6.88332
G1 X90.748 Y122.783 E6.90395
G1 X90.803 Y123.381 E6.92458
G1 X90.741 Y123.978 E6.94521
G1 X90.564 Y124.551 E6.96584
G1 X90.278 Y125.079 E6.98647
G1 X89.894 Y125.541 E7.00710
G1 X89.428 Y125.919 E7.02772
G1 X88.897 Y126.199 E7.04835
G1 X88.322 Y126.370 E7.06898
G1 X87.724 Y126.425 E7.08961
G1 X87.127 Y126.363 E7.11024
G1 X86.554 Y126.186 E7.13087
G1 X86.026 Y125.900 E7.15150
G1 X85.565 Y125.516 E7.17213
G1 X85.186 Y125.050 E7.19276
G1 X84.907 Y124.519 E7.21339
G1 X84.736 Y123.944 E7.23402
G1 X84.680 Y123.346 E7.25464
G1 X84.742 Y122.749 E7.27527
G1 X84.920 Y122.176 E7.29590
G1 X85.206 Y121.648 E7.31653
G1 X85.589 Y121.187 E7.33716
G1 X86.055 Y120.808 E7.35779
G1 X86.586 Y120.529 E7.37842
G1 X87.104 Y120.375 E7.39699
G1 E4.39699 F3000.00000
G1 F9600.000
G1 X87.759 Y120.302 E4.20130
G1 X88.356 Y120.364 E4.02313
G1 X88.929 Y120.542 E3.84495
G1 X89.457 Y120.828 E3.66677
G1 X89.919 Y121.211 E3.48859
G1 X90.297 Y121.677 E3.31041
G1 X90.577 Y122.208 E3.13223
G1 X90.748 Y122.783 E2.95405
G1 X90.803 Y123.381 E2.77588
G1 X90.741 Y123.978 E2.59770
G1 X90.564 Y124.551 E2.41952
G1 X90.278 Y125.079 E2.24134
G1 X89.894 Y125.541 E2.06316
G1 X89.428 Y125.919 E1.88498
G1 X88.897 Y126.199 E1.70680
G1 X88.381 Y126.352 E1.54699
G1 E1.39699 F3000.00000
G92 E0
G1 X76.581 Y120.001 F12000.000
G1 E6.00000 F3000.00000
G1 F2160.000
G1 X77.223 Y120.203 E6.02316
G1 X77.814 Y120.527 E6.04631
G1 X78.330 Y120.960 E6.06947
G1 X78.752 Y121.485 E6.09262
G1 X79.063 Y122.083 E6.11578
G1 X79.252 Y122.730 E6.13893
G1 X79.311 Y123.401 E6.16209
G1 X79.237 Y124.070 E6.18525
G1 X79.035 Y124.713 E6.20840
G1 X78.711 Y125.304 E6.23156
G1 X78.278 Y125.820 E6.25471
G1 X77.753 Y126.242 E6.27787
G1 X77.155 Y126.553 E6.30102
G1 X76.797 Y126.657 E6.31385
G1 E3.31385 F3000.00000
G1 F9600.000
G1 X77.155 Y126.553 E3.20305
G1 X77.753 Y126.242 E3.00305
G1 X78.278 Y125.820 E2.80304
G1 X78.711 Y125.304 E2.60304
G1 X79.035 Y124.713 E2.40304
G1 X79.237 Y124.070 E2.20304
G1 X79.311 Y123.401 E2.00304
G1 X79.252 Y122.730 E1.80304
G1 X79.063 Y122.083 E1.60303
G1 X78.752 Y121.485 E1.40303
G1 X78.330 Y120.960 E1.20303
G1 X77.814 Y120.527 E1.00303
G1 X77.223 Y120.203 E0.80303
G1 X76.581 Y120.001 E0.60303
G1 E0.31385 F3000.00000
G92 E0
G1 X71.361 Y121.494 F12000.000
G1 X72.813 Y121.833
G1 E6.00000 F3000.00000
G1 F2160.000
G1 X73.037 Y121.424 E6.01604
G1 X73.470 Y120.908 E6.03920
G1 X73.996 Y120.486 E6.06235
G1 X74.593 Y120.175 E6.08551
G1 X75.240 Y119.986 E6.10866
G1 X75.911 Y119.927 E6.13182
G1 X76.581 Y120.001 E6.15497
G1 X75.891 Y120.302 F12000.000
G1 F2160.000
G1 X76.488 Y120.364 E6.17560
G1 X77.062 Y120.542 E6.19623
G1 X77.589 Y120.828 E6.21686
G1 X78.051 Y121.211 E6.23749
G1 X78.429 Y121.677 E6.25812
G1 X78.709 Y122.208 E6.27875
G1 X78.880 Y122.783 E6.29938
G1 X78.936 Y123.381 E6.32001
G1 X78.873 Y123.978 E6.34064
G1 X78.696 Y124.551 E6.36127
G1 X78.410 Y125.079 E6.38189
G1 X78.027 Y125.541 E6.40252
G1 X77.561 Y125.919 E6.42315
G1 X77.030 Y126.199 E6.44378
G1 X76.454 Y126.370 E6.46441
G1 X75.857 Y126.425 E6.48504
G1 X75.268 Y126.364 E6.50537
G1 X74.982 Y126.277 F12000.000
G1 F2160.000
G1 X74.695 Y126.188 E6.51567
G1 X74.396 Y126.028 F12000.000
G1 F2160.000
G1 X74.166 Y125.903 E6.52469
G1 X73.924 Y125.705 F12000.000
G1 F2160.000
G1 X73.704 Y125.522 E6.53454
G1 X73.311 Y125.035 F12000.000
G1 F2160.000
G1 X73.043 Y124.527 E6.55429
G1 X72.986 Y124.339 F12000.000
G1 F2160.000
G1 X72.878 Y123.978 E6.56726
G1 X72.834 Y123.573 F12000.000
G1 F2160.000
G1 X72.813 Y123.353 E6.57485
G1 X72.813 Y123.341 F12000.000
G1 F2160.000
G1 X72.875 Y122.749 E6.59528
G1 X73.052 Y122.176 E6.61591
G1 X73.338 Y121.648 E6.63654
G1 X73.722 Y121.187 E6.65716
G1 X74.188 Y120.808 E6.67779
G1 X74.719 Y120.529 E6.69842
G1 X75.294 Y120.358 E6.71905
G1 X75.891 Y120.302 E6.73968
G1 E3.73968 F3000.00000
G1 F9600.000
G1 X75.294 Y120.358 E3.56150
G1 X74.719 Y120.529 E3.38332
G1 X74.188 Y120.808 E3.20514
G1 X73.722 Y121.187 E3.02697
G1 X73.338 Y121.648 E2.84879
G1 X73.052 Y122.176 E2.67061
G1 X72.875 Y122.749 E2.49243
G1 X72.813 Y123.341 E2.31599
G1 E0.73968 F3000.00000
G92 E0
G1 X72.812 Y113.020 F12000.000
G1 E6.00000 F3000.00000
G1 F2160.000
G1 X72.996 Y113.375 E6.01373
G1 X73.418 Y113.900 E6.03688
G1 X73.934 Y114.333 E6.06004
G1 X74.525 Y114.657 E6.08320
G1 X75.167 Y114.859 E6.10635
G1 X75.837 Y114.933 E6.12951
G1 X76.508 Y114.874 E6.15266
G1 X77.155 Y114.685 E6.17582
G1 X77.753 Y114.374 E6.19897
G1 X78.278 Y113.952 E6.22213
G1 X78.711 Y113.436 E6.24529
G1 X79.035 Y112.845 E6.26844
G1 X79.237 Y112.203 E6.29160
G1 X79.311 Y111.533 E6.31475
G1 X79.252 Y110.862 E6.33791
G1 X79.063 Y110.215 E6.36106
G1 X78.752 Y109.618 E6.38422
G1 X78.330 Y109.092 E6.40737
G1 X77.814 Y108.659 E6.43053
G1 X77.223 Y108.336 E6.45369
G1 X76.581 Y108.133 E6.47684
G1 X75.911 Y108.060 E6.50000
G1 X75.240 Y108.119 E6.52315
G1 X74.593 Y108.307 E6.54631
G1 X73.996 Y108.618 E6.56946
G1 X73.470 Y109.040 E6.59262
G1 X73.262 Y109.289 E6.60379
G1 X72.882 Y110.857 F12000.000
G1 F2160.000
G1 X73.052 Y110.309 E6.62353
G1 X73.338 Y109.781 E6.64415
G1 X73.722 Y109.319 E6.66478
G1 X74.188 Y108.941 E6.68541
G1 X74.719 Y108.661 E6.70604
G1 X75.294 Y108.490 E6.72667
G1 X75.891 Y108.435 E6.74730
G1 X76.488 Y108.497 E6.76793
G1 X77.062 Y108.674 E6.78856
G1 X77.589 Y108.960 E6.80919
G1 X78.051 Y109.344 E6.82982
G1 X78.429 Y109.810 E6.85045
G1 X78.709 Y110.341 E6.87107
G1 X78.880 Y110.916 E6.89170
G1 X78.936 Y111.514 E6.91233
G1 X78.873 Y112.110 E6.93296
G1 X78.696 Y112.684 E6.95359
G1 X78.410 Y113.212 E6.97422
G1 X78.027 Y113.673 E6.99485
G1 X77.561 Y114.051 E7.01548
G1 X77.030 Y114.331 E7.03611
G1 X76.454 Y114.502 E7.05674
G1 X75.857 Y114.558 E7.07736
G1 X75.260 Y114.496 E7.09799
G1 X74.686 Y114.318 E7.11862
G1 X74.159 Y114.032 E7.13925
G1 X73.697 Y113.649 E7.15988
G1 X73.319 Y113.183 E7.18051
G1 X73.039 Y112.652 E7.20114
G1 X72.868 Y112.076 E7.22177
G1 X72.813 Y111.487 E7.24213
G1 X72.832 Y111.294 F12000.000
G1 F2160.000
G1 X72.873 Y110.894 E7.25596
G1 E4.25596 F3000.00000
G1 F9600.000
G1 X72.832 Y111.294 E4.13650
G1 E1.25596 F3000.00000
G92 E0
G1 X87.705 Y114.933 F12000.000
G1 E6.00000 F3000.00000
G1 F2160.000
G1 X87.035 Y114.859 E6.02316
G1 X86.392 Y114.657 E6.04631
G1 X85.802 Y114.333 E6.06947
G1 X85.286 Y113.900 E6.09262
G1 X84.864 Y113.375 E6.11578
G1 X84.553 Y112.777 E6.13893
G1 X84.364 Y112.130 E6.16209
G1 X84.305 Y111.459 E6.18525
G1 X84.378 Y110.790 E6.20840
G1 X84.581 Y110.147 E6.23156
G1 X84.905 Y109.556 E6.25471
G1 X85.338 Y109.040 E6.27787
G1 X85.863 Y108.618 E6.30102
G1 X86.461 Y108.307 E6.32418
G1 X87.107 Y108.119 E6.34733
G1 X87.779 Y108.060 E6.37049
G1 X88.448 Y108.133 E6.39365
G1 X89.091 Y108.336 E6.41680
G1 X89.682 Y108.659 E6.43996
G1 X90.198 Y109.092 E6.46311
G1 X90.619 Y109.618 E6.48627
G1 X90.931 Y110.215 E6.50942
G1 X91.119 Y110.862 E6.53258
G1 X91.178 Y111.533 E6.55574
G1 X91.105 Y112.203 E6.57889
G1 X90.902 Y112.845 E6.60205
G1 X90.578 Y113.436 E6.62520
G1 X90.145 Y113.952 E6.64836
G1 X89.620 Y114.374 E6.67151
G1 X89.023 Y114.685 E6.69467
G1 X88.376 Y114.874 E6.71782
G1 X87.764 Y114.927 E6.73892
G1 X87.724 Y114.558 F12000.000
G1 F2160.000
G1 X87.127 Y114.496 E6.75955
G1 X86.554 Y114.318 E6.78018
G1 X86.026 Y114.032 E6.80081
G1 X85.565 Y113.649 E6.82143
G1 X85.186 Y113.183 E6.84206
G1 X84.907 Y112.652 E6.86269
G1 X84.736 Y112.076 E6.88332
G1 X84.680 Y111.479 E6.90395
G1 X84.742 Y110.882 E6.92458
G1 X84.920 Y110.309 E6.94521
G1 X85.206 Y109.781 E6.96584
G1 X85.589 Y109.319 E6.98647
G1 X86.055 Y108.941 E7.00710
G1 X86.586 Y108.661 E7.02772
G1 X87.161 Y108.490 E7.04835
G1 X87.759 Y108.435 E7.06898
G1 X88.356 Y108.497 E7.08961
G1 X88.929 Y108.674 E7.11024
G1 X89.457 Y108.960 E7.13087
G1 X89.919 Y109.344 E7.15150
G1 X90.297 Y109.810 E7.17213
G1 X90.577 Y110.341 E7.19276
G1 X90.748 Y110.916 E7.21339
G1 X90.803 Y111.514 E7.23402
G1 X90.741 Y112.110 E7.25464
G1 X90.564 Y112.684 E7.27527
G1 X90.278 Y113.212 E7.29590
G1 X89.894 Y113.673 E7.31653
G1 X89.428 Y114.051 E7.33716
G1 X88.897 Y114.331 E7.35779
G1 X88.322 Y114.502 E7.37842
G1 X87.784 Y114.552 E7.39699
G1 E4.39699 F3000.00000
G1 F9600.000
G1 X87.127 Y114.496 E4.20131
G1 X86.554 Y114.318 E4.02313
G1 X86.026 Y114.032 E3.84495
G1 X85.565 Y113.649 E3.66677
G1 X85.186 Y113.183 E3.48859
G1 X84.907 Y112.652 E3.31041
G1 X84.736 Y112.076 E3.13223
G1 X84.680 Y111.479 E2.95406
G1 X84.742 Y110.882 E2.77588
G1 X84.920 Y110.309 E2.59770
G1 X85.206 Y109.781 E2.41952
G1 X85.589 Y109.319 E2.24134
G1 X86.055 Y108.941 E2.06316
G1 X86.586 Y108.661 E1.88498
G1 X87.161 Y108.490 E1.70680
G1 X87.697 Y108.440 E1.54699
G1 E1.39699 F3000.00000
G92 E0
G1 X83.855 Y104.139 F12000.000
G1 E6.00000 F3000.00000
G1 F2160.000
G1 X83.208 Y104.328 E6.02316
G1 X82.537 Y104.387 E6.04631
G1 X81.868 Y104.313 E6.06947
G1 X81.225 Y104.111 E6.09262
G1 X80.634 Y103.787 E6.11578
G1 X80.118 Y103.354 E6.13893
G1 X79.696 Y102.829 E6.16209
G1 X79.385 Y102.231 E6.18525
G1 X79.197 Y101.584 E6.20840
G1 X79.138 Y100.913 E6.23156
G1 X79.211 Y100.244 E6.25471
G1 X79.414 Y99.601 E6.27787
G1 X79.737 Y99.010 E6.30102
G1 X80.170 Y98.494 E6.32418
G1 X80.696 Y98.072 E6.34733
G1 X81.293 Y97.761 E6.37049
G1 X81.940 Y97.573 E6.39365
G1 X82.611 Y97.514 E6.41680
G1 X83.281 Y97.587 E6.43996
G1 X83.923 Y97.790 E6.46311
G1 X84.514 Y98.114 E6.48627
G1 X85.030 Y98.546 E6.50942
G1 X85.452 Y99.072 E6.53258
G1 X85.763 Y99.669 E6.55574
G1 X85.952 Y100.316 E6.57889
G1 X86.011 Y100.987 E6.60205
G1 X85.937 Y101.657 E6.62520
G1 X85.735 Y102.299 E6.64836
G1 X85.411 Y102.890 E6.67151
G1 X84.978 Y103.406 E6.69467
G1 X84.453 Y103.828 E6.71782
G1 X83.908 Y104.111 E6.73892
G1 X83.730 Y103.785 F12000.000
G1 F2160.000
G1 X83.154 Y103.956 E6.75955
G1 X82.557 Y104.012 E6.78018
G1 X81.960 Y103.950 E6.80081
G1 X81.387 Y103.772 E6.82143
G1 X80.859 Y103.486 E6.84206
G1 X80.397 Y103.103 E6.86269
G1 X80.019 Y102.637 E6.88332
G1 X79.739 Y102.106 E6.90395
