; generated by PrusaSlicer 2.2.0+win64 on 2021-06-16 at 11:37:46 UTC

; 

; external perimeters extrusion width = 0.45mm
; perimeters extrusion width = 0.45mm
; infill extrusion width = 0.45mm
; solid infill extrusion width = 0.45mm
; top infill extrusion width = 0.40mm
; first layer extrusion width = 0.42mm

M201 X9000 Y9000 Z500 E10000 ; sets maximum accelerations, mm/sec^2
M203 X500 Y500 Z12 E120 ; sets maximum feedrates, mm/sec
M204 P1500 R1500 T1500 ; sets acceleration (P, T) and retract acceleration (R), mm/sec^2
M205 X10.00 Y10.00 Z0.20 E2.50 ; sets the jerk limits, mm/sec
M205 S0 T0 ; sets the minimum extruding and travel feed rate, mm/sec
;;; Copy from Cura output
M140 S60 ; set bed temp
M105 ; Read current temp
M190 S60 ; set bed temp and wait
M104 S180 ; set extruder temp
M105 ; Read current temp
M109 S180 ; wait for extruder temp and wait
M82        ; Set E codes absolute (default) - absolute extrusion mode

;;; Copy from Cura config
G21 ;metric values
G90 ;absolute positioning
M82 ;set extruder to absolute mode
M107 ;start with the fan off
G28 X0 Y0 ;move X/Y to min endstops
G28 Z0 ;move Z to min endstops
G1 Z15.0 F200 ;move the platform down 15mm
G92 E0 ;zero the extruded length
G1 F200 E3 ;extrude 3mm of feed stock
G92 E0 ;zero the extruded length again
G1 F200
G0 Y20 F200
M117 Printing...
G5
G21 ; set units to millimeters
G90 ; use absolute coordinates
M82 ; use absolute distances for extrusion
G92 E0
; Filament gcode
M106 S127.5
G1 E-6.00000 F3000.00000
G92 E0
G1 Z0.210 F12000.000
G1 X50.634 Y58.631
G1 E6.00000 F3000.00000
G1 F2160.000
G1 X51.012 Y58.122 E6.02178
G1 X51.471 Y57.847 E6.04019
G1 X51.995 Y57.750 E6.05850
G1 X158.003 Y57.750 E9.70214
G1 X158.572 Y57.864 E9.72208
G1 X159.058 Y58.187 E9.74213
G1 X159.382 Y58.668 E9.76207
G1 X159.500 Y59.236 E9.78201
G1 X159.500 Y150.759 E12.92779
G1 X159.365 Y151.372 E12.94936
G1 X158.988 Y151.878 E12.97104
G1 X158.529 Y152.153 E12.98945
G1 X158.005 Y152.250 E13.00776
G1 X51.997 Y152.250 E16.65140
G1 X51.381 Y152.116 E16.67307
G1 X50.872 Y151.738 E16.69485
G1 X50.597 Y151.279 E16.71326
G1 X50.500 Y150.755 E16.73157
G1 X50.500 Y59.247 E19.87683
G1 X50.621 Y58.689 E19.89644
G1 X50.976 Y58.785 F12000.000
G1 F2160.000
G1 X51.260 Y58.403 E19.91279
G1 X51.604 Y58.197 E19.92659
G1 X51.997 Y58.125 E19.94030
G1 X158.003 Y58.125 E23.58387
G1 X158.431 Y58.211 E23.59890
G1 X158.793 Y58.452 E23.61385
G1 X159.036 Y58.813 E23.62879
G1 X159.125 Y59.241 E23.64383
G1 X159.125 Y150.755 E26.78929
G1 X159.023 Y151.217 E26.80556
G1 X158.740 Y151.597 E26.82183
G1 X158.396 Y151.803 E26.83562
G1 X158.003 Y151.875 E26.84933
G1 X52.000 Y151.875 E30.49281
G1 X51.535 Y151.774 E30.50917
G1 X51.153 Y151.490 E30.52552
G1 X50.947 Y151.146 E30.53932
G1 X50.875 Y150.753 E30.55302
G1 X50.875 Y59.247 E33.69821
G1 X50.963 Y58.844 E33.71242
G1 X51.508 Y58.684 F12000.000
G1 F2160.000
G1 X51.999 Y58.500 E33.73042
G1 X158.002 Y58.500 E37.37390
G1 X158.288 Y58.558 E37.38391
G1 X158.530 Y58.719 E37.39392
G1 X158.692 Y58.961 E37.40393
G1 X158.750 Y59.247 E37.41394
G1 X158.750 Y150.752 E40.55911
G1 X158.682 Y151.061 E40.56998
G1 X158.492 Y151.316 E40.58093
G1 X158.001 Y151.500 E40.59893
G1 X52.000 Y151.500 E44.24233
G1 X51.689 Y151.432 E44.25328
G1 X51.434 Y151.242 E44.26423
G1 X51.250 Y150.751 E44.28222
G1 X51.250 Y59.250 E47.42725
G1 X51.318 Y58.939 E47.43819
G1 X51.473 Y58.732 E47.44708
G1 X51.754 Y58.967 F12000.000
G1 F2160.000
G1 X52.000 Y58.875 E47.45610
G1 X158.002 Y58.875 E51.09952
G1 X158.264 Y58.984 E51.10930
G1 X158.375 Y59.248 E51.11913
G1 X158.375 Y150.750 E54.26418
G1 X158.246 Y151.033 E54.27487
G1 X158.000 Y151.125 E54.28390
G1 X52.000 Y151.125 E57.92726
G1 X51.717 Y150.996 E57.93795
G1 X51.625 Y150.750 E57.94698
G1 X51.625 Y59.250 E61.09196
G1 X51.729 Y59.022 E61.10059
G1 E58.10059 F3000.00000
G1 F9600.000
G1 X52.000 Y58.875 E58.00917
G1 X61.292 Y58.875 E55.25059
G1 E55.10059 F3000.00000
G92 E0
G1 X102.562 Y150.937 F12000.000
G1 E6.00000 F3000.00000
G1 F2160.000
G1 X102.562 Y59.063 E9.15787
G1 E6.15787 F3000.00000
G1 F9600.000
G1 X102.562 Y68.663 E3.30787
G1 E3.15787 F3000.00000
G92 E0
G1 X104.000 Y152.750 F12000.000
G1 X102.078 Y150.937
G1 E6.00000 F3000.00000
G1 F2160.000
G1 X102.187 Y150.828 E6.00534
G1 X102.187 Y59.172 E9.15566
G1 X102.078 Y59.063 E9.16099
G1 E6.16099 F3000.00000
G1 F9600.000
G1 X102.187 Y59.172 E6.11489
G1 X102.187 Y68.617 E3.31099
G1 E3.16099 F3000.00000
G92 E0
G1 X107.438 Y150.937 F12000.000
G1 E6.00000 F3000.00000
G1 F2160.000
G1 X107.438 Y59.063 E9.15787
G1 E6.15787 F3000.00000
G1 F9600.000
G1 X107.438 Y68.663 E3.30787
G1 E3.15787 F3000.00000
G92 E0
G1 X106.000 Y152.750 F12000.000
G1 X107.922 Y150.937
G1 E6.00000 F3000.00000
G1 F2160.000
G1 X107.813 Y150.828 E6.00534
G1 X107.813 Y59.172 E9.15566
G1 X107.922 Y59.063 E9.16099
G1 E6.16099 F3000.00000
G1 F9600.000
G1 X107.813 Y59.172 E6.11489
G1 X107.813 Y68.617 E3.31099
G1 E3.16099 F3000.00000
G92 E0
G1 X101.790 Y59.460 F12000.000
G1 E6.00000 F3000.00000
G1 F1620.000
G1 X101.790 Y150.540 E9.13055
G1 X52.210 Y150.540 E10.83468
G1 X52.210 Y59.460 E13.96522
G1 X101.730 Y59.460 E15.66729
G1 X101.724 Y59.854 F12000.000
G1 X101.415 Y59.835
G1 F2700.000
G1 X101.415 Y150.165 E18.77207
G1 X100.336 Y150.165 E18.80915
G1 X100.601 Y149.948 E18.82093
G1 X100.783 Y149.726 E18.83079
G1 X100.918 Y149.473 E18.84064
G1 X101.002 Y149.199 E18.85050
G1 X101.030 Y148.913 E18.86036
G1 X101.002 Y148.628 E18.87021
G1 X100.918 Y148.353 E18.88007
G1 X100.783 Y148.101 E18.88992
G1 X100.601 Y147.879 E18.89978
G1 X100.380 Y147.697 E18.90964
G1 X100.127 Y147.562 E18.91949
G1 X99.852 Y147.479 E18.92935
G1 X99.567 Y147.450 E18.93920
G1 X99.293 Y147.477 E18.94865
G1 X99.010 Y147.560 E18.95881
G1 X98.754 Y147.697 E18.96877
G1 X98.533 Y147.879 E18.97862
G1 X98.351 Y148.101 E18.98848
G1 X98.215 Y148.353 E18.99834
G1 X98.132 Y148.628 E19.00819
G1 X98.104 Y148.913 E19.01805
G1 X98.132 Y149.199 E19.02790
G1 X98.215 Y149.473 E19.03776
G1 X98.351 Y149.726 E19.04762
G1 X98.533 Y149.948 E19.05747
G1 X98.798 Y150.165 E19.06926
G1 X83.995 Y150.165 E19.57805
G1 X84.260 Y149.948 E19.58983
G1 X84.442 Y149.726 E19.59969
G1 X84.577 Y149.473 E19.60954
G1 X84.660 Y149.199 E19.61940
G1 X84.688 Y148.913 E19.62926
G1 X84.660 Y148.628 E19.63911
G1 X84.577 Y148.353 E19.64897
G1 X84.442 Y148.101 E19.65882
G1 X84.260 Y147.879 E19.66868
G1 X84.038 Y147.697 E19.67854
G1 X83.785 Y147.562 E19.68839
G1 X83.511 Y147.479 E19.69825
G1 X83.226 Y147.450 E19.70810
G1 X82.952 Y147.477 E19.71755
G1 X82.668 Y147.560 E19.72771
G1 X82.413 Y147.697 E19.73767
G1 X82.191 Y147.879 E19.74752
G1 X82.009 Y148.101 E19.75738
G1 X81.874 Y148.353 E19.76724
G1 X81.791 Y148.628 E19.77709
G1 X81.763 Y148.913 E19.78695
G1 X81.791 Y149.199 E19.79680
G1 X81.874 Y149.473 E19.80666
G1 X82.009 Y149.726 E19.81652
G1 X82.191 Y149.948 E19.82637
G1 X82.456 Y150.165 E19.83816
G1 X52.585 Y150.165 E20.86487
G1 X52.585 Y59.835 E23.96964
G1 X101.355 Y59.835 E25.64594
G1 E22.64594 F3000.00000
G1 F9600.000
G1 X101.361 Y69.435 E19.79594
G1 E19.64594 F3000.00000
G92 E0
G1 X98.210 Y134.040 F12000.000
G1 E6.00000 F3000.00000
G1 F1620.000
G1 X98.210 Y146.960 E6.44408
G1 X86.790 Y146.960 E6.83660
G1 X86.790 Y134.040 E7.28068
G1 X98.150 Y134.040 E7.67114
G1 X98.594 Y133.929 F12000.000
G1 E4.67114 F3000.00000
G1 F9600.000
G1 X98.195 Y143.640 E1.82114
G1 E1.67114 F3000.00000
G92 E0
G1 X86.415 Y133.665 F12000.000
G1 E6.00000 F3000.00000
G1 F2700.000
G1 X98.585 Y133.665 E6.41830
G1 X98.585 Y147.335 E6.88815
G1 X86.415 Y147.335 E7.30644
G1 X86.415 Y133.725 E7.77423
G1 E4.77423 F3000.00000
G1 F9600.000
G1 X96.015 Y133.678 E1.92423
G1 E1.77423 F3000.00000
G92 E0
G1 X82.824 Y140.385 F12000.000
G1 E6.00000 F3000.00000
G1 F540.000
G1 X82.909 Y140.430 E6.00334
G1 X83.074 Y140.566 E6.01066
G1 X83.209 Y140.730 E6.01798
G1 X83.309 Y140.918 E6.02529
G1 X83.371 Y141.122 E6.03261
G1 X83.392 Y141.333 E6.03993
G1 X83.371 Y141.545 E6.04725
G1 X83.309 Y141.749 E6.05456
G1 X83.209 Y141.937 E6.06188
G1 X83.074 Y142.101 E6.06920
G1 X82.909 Y142.236 E6.07652
G1 X82.722 Y142.337 E6.08383
G1 X82.518 Y142.399 E6.09115
G1 X82.306 Y142.419 E6.09847
G1 X82.094 Y142.399 E6.10579
G1 X81.890 Y142.337 E6.11310
G1 X81.703 Y142.236 E6.12042
G1 X81.538 Y142.101 E6.12774
G1 X81.403 Y141.937 E6.13506
G1 X81.303 Y141.749 E6.14237
G1 X81.241 Y141.545 E6.14969
G1 X81.220 Y141.333 E6.15701
G1 X81.241 Y141.122 E6.16433
G1 X81.303 Y140.918 E6.17164
G1 X81.403 Y140.730 E6.17896
G1 X81.538 Y140.566 E6.18628
G1 X81.703 Y140.430 E6.19360
G1 X81.891 Y140.330 E6.20095
G1 X82.104 Y140.267 E6.20858
G1 X82.306 Y140.247 E6.21554
G1 X82.518 Y140.268 E6.22286
G1 X82.771 Y140.356 E6.23206
G1 X82.902 Y140.327 F12000.000
G1 X83.000 Y140.054
G1 F540.000
G1 X83.119 Y140.117 E6.23667
G1 X83.340 Y140.299 E6.24653
G1 X83.522 Y140.521 E6.25639
G1 X83.657 Y140.774 E6.26624
G1 X83.741 Y141.048 E6.27610
G1 X83.769 Y141.333 E6.28595
G1 X83.741 Y141.619 E6.29581
G1 X83.657 Y141.893 E6.30567
G1 X83.522 Y142.146 E6.31552
G1 X83.340 Y142.368 E6.32538
G1 X83.119 Y142.550 E6.33523
G1 X82.866 Y142.685 E6.34509
G1 X82.591 Y142.768 E6.35495
G1 X82.306 Y142.796 E6.36480
G1 X82.021 Y142.768 E6.37466
G1 X81.746 Y142.685 E6.38451
G1 X81.493 Y142.550 E6.39437
G1 X81.272 Y142.368 E6.40423
G1 X81.090 Y142.146 E6.41408
G1 X80.955 Y141.893 E6.42394
G1 X80.871 Y141.619 E6.43380
G1 X80.843 Y141.333 E6.44365
G1 X80.871 Y141.048 E6.45351
G1 X80.955 Y140.774 E6.46336
G1 X81.090 Y140.521 E6.47322
G1 X81.272 Y140.299 E6.48308
G1 X81.493 Y140.117 E6.49293
G1 X81.749 Y139.981 E6.50289
G1 X82.033 Y139.898 E6.51306
G1 X82.306 Y139.871 E6.52249
G1 X82.591 Y139.899 E6.53235
G1 X82.866 Y139.982 E6.54221
G1 X82.947 Y140.026 E6.54539
G1 E3.54539 F3000.00000
G1 F9600.000
G1 X83.119 Y140.117 E3.48776
G1 X83.340 Y140.299 E3.40263
G1 X83.522 Y140.521 E3.31750
G1 X83.657 Y140.774 E3.23237
G1 X83.741 Y141.048 E3.14724
G1 X83.769 Y141.333 E3.06211
G1 X83.741 Y141.619 E2.97698
G1 X83.657 Y141.893 E2.89185
G1 X83.522 Y142.146 E2.80672
G1 X83.340 Y142.368 E2.72159
G1 X83.119 Y142.550 E2.63646
G1 X82.866 Y142.685 E2.55133
G1 X82.591 Y142.768 E2.46620
G1 X82.306 Y142.796 E2.38107
G1 X82.021 Y142.768 E2.29594
G1 X81.746 Y142.685 E2.21082
G1 X81.493 Y142.550 E2.12569
G1 X81.272 Y142.368 E2.04055
G1 X81.090 Y142.146 E1.95543
G1 X80.955 Y141.893 E1.87030
G1 X80.871 Y141.619 E1.78517
G1 X80.843 Y141.333 E1.70004
G1 X80.871 Y141.048 E1.61491
G1 X80.955 Y140.774 E1.52978
G1 X81.090 Y140.521 E1.44465
G1 X81.272 Y140.299 E1.35952
G1 X81.493 Y140.117 E1.27439
G1 X81.749 Y139.981 E1.18838
G1 X82.033 Y139.898 E1.10053
G1 X82.306 Y139.871 E1.01905
G1 X82.591 Y139.899 E0.93392
G1 X82.866 Y139.982 E0.84880
G1 X82.947 Y140.026 E0.82130
G1 E0.54539 F3000.00000
G92 E0
G1 X83.695 Y137.390 F12000.000
G1 X83.503 Y137.132
G1 X83.503 Y133.747
G1 X81.006 Y132.510
G1 X55.606 Y132.510
G1 X55.606 Y133.771
G1 X56.396 Y134.561
G1 E6.00000 F3000.00000
G1 F1620.000
G1 X80.216 Y134.561 E6.81873
G1 X80.216 Y147.981 E7.27999
G1 X56.396 Y147.981 E8.09872
G1 X56.396 Y134.621 E8.55792
G1 X56.258 Y134.185 F12000.000
G1 X56.021 Y134.186
G1 F2700.000
G1 X80.591 Y134.186 E9.40242
G1 X80.591 Y148.356 E9.88946
G1 X56.021 Y148.356 E10.73396
G1 X56.021 Y134.246 E11.21893
G1 E8.21893 F3000.00000
G1 F9600.000
G1 X65.621 Y134.222 E5.36893
G1 E5.21893 F3000.00000
G92 E0
G1 X54.518 Y140.206 F12000.000
G1 E6.00000 F3000.00000
G1 F540.000
G1 X54.722 Y140.268 E6.00732
G1 X54.909 Y140.368 E6.01464
G1 X55.074 Y140.503 E6.02195
G1 X55.209 Y140.667 E6.02927
G1 X55.309 Y140.855 E6.03659
G1 X55.371 Y141.059 E6.04391
G1 X55.392 Y141.271 E6.05122
G1 X55.371 Y141.483 E6.05854
G1 X55.309 Y141.686 E6.06586
G1 X55.209 Y141.874 E6.07318
G1 X55.074 Y142.039 E6.08049
G1 X54.909 Y142.174 E6.08781
G1 X54.722 Y142.274 E6.09513
G1 X54.518 Y142.336 E6.10245
G1 X54.306 Y142.357 E6.10976
G1 X54.094 Y142.336 E6.11708
G1 X53.890 Y142.274 E6.12440
G1 X53.703 Y142.174 E6.13172
G1 X53.538 Y142.039 E6.13903
G1 X53.403 Y141.874 E6.14635
G1 X53.303 Y141.686 E6.15367
G1 X53.241 Y141.483 E6.16099
G1 X53.220 Y141.271 E6.16830
G1 X53.241 Y141.059 E6.17562
G1 X53.303 Y140.855 E6.18294
G1 X53.403 Y140.667 E6.19026
G1 X53.538 Y140.503 E6.19757
G1 X53.703 Y140.368 E6.20489
G1 X53.891 Y140.267 E6.21224
G1 X54.104 Y140.205 E6.21987
G1 X54.306 Y140.185 E6.22684
G1 X54.458 Y140.200 E6.23209
G1 X54.658 Y140.046 F12000.000
G1 X54.591 Y139.836
G1 F540.000
G1 X54.866 Y139.919 E6.24195
G1 X55.119 Y140.055 E6.25181
G1 X55.340 Y140.237 E6.26166
G1 X55.522 Y140.458 E6.27152
G1 X55.657 Y140.711 E6.28137
G1 X55.741 Y140.985 E6.29123
G1 X55.769 Y141.271 E6.30109
G1 X55.741 Y141.556 E6.31094
G1 X55.657 Y141.831 E6.32080
G1 X55.522 Y142.084 E6.33065
G1 X55.340 Y142.305 E6.34051
G1 X55.119 Y142.487 E6.35037
G1 X54.866 Y142.622 E6.36022
G1 X54.591 Y142.706 E6.37008
G1 X54.306 Y142.734 E6.37993
G1 X54.021 Y142.706 E6.38979
G1 X53.746 Y142.622 E6.39965
G1 X53.493 Y142.487 E6.40950
G1 X53.272 Y142.305 E6.41936
G1 X53.090 Y142.084 E6.42921
G1 X52.955 Y141.831 E6.43907
G1 X52.871 Y141.556 E6.44893
G1 X52.843 Y141.271 E6.45878
G1 X52.871 Y140.985 E6.46864
G1 X52.955 Y140.711 E6.47849
G1 X53.090 Y140.458 E6.48835
G1 X53.272 Y140.237 E6.49821
G1 X53.493 Y140.055 E6.50806
G1 X53.749 Y139.918 E6.51802
G1 X54.032 Y139.835 E6.52818
G1 X54.306 Y139.808 E6.53763
G1 X54.532 Y139.830 E6.54542
G1 E3.54542 F3000.00000
G1 F9600.000
G1 X54.866 Y139.919 E3.44276
G1 X55.119 Y140.055 E3.35763
G1 X55.340 Y140.237 E3.27250
G1 X55.522 Y140.458 E3.18737
G1 X55.657 Y140.711 E3.10224
G1 X55.741 Y140.985 E3.01711
G1 X55.769 Y141.271 E2.93198
G1 X55.741 Y141.556 E2.84685
G1 X55.657 Y141.831 E2.76172
G1 X55.522 Y142.084 E2.67659
G1 X55.340 Y142.305 E2.59147
G1 X55.119 Y142.487 E2.50634
G1 X54.866 Y142.622 E2.42120
G1 X54.591 Y142.706 E2.33608
G1 X54.306 Y142.734 E2.25095
G1 X54.021 Y142.706 E2.16582
G1 X53.746 Y142.622 E2.08069
G1 X53.493 Y142.487 E1.99556
G1 X53.272 Y142.305 E1.91043
G1 X53.090 Y142.084 E1.82530
G1 X52.955 Y141.831 E1.74017
G1 X52.871 Y141.556 E1.65504
G1 X52.843 Y141.271 E1.56991
G1 X52.871 Y140.985 E1.48478
G1 X52.955 Y140.711 E1.39966
G1 X53.090 Y140.458 E1.31453
G1 X53.272 Y140.237 E1.22939
G1 X53.493 Y140.055 E1.14426
G1 X53.749 Y139.918 E1.05828
G1 X54.032 Y139.835 E0.97053
G1 X54.306 Y139.808 E0.88892
G1 X54.532 Y139.830 E0.82161
G1 E0.54542 F3000.00000
G92 E0
G1 X55.790 Y87.960 F12000.000
G1 E6.00000 F3000.00000
G1 F1620.000
G1 X55.790 Y63.040 E6.85653
G1 X98.210 Y63.040 E8.31457
G1 X98.210 Y87.977 E9.17170
G1 X55.850 Y87.960 E10.62767
G1 X55.396 Y88.030 F12000.000
G1 E7.62767 F3000.00000
G1 F9600.000
G1 X55.827 Y78.360 E4.77767
G1 E4.62767 F3000.00000
G92 E0
G1 X55.415 Y62.665 F12000.000
G1 E6.00000 F3000.00000
G1 F2700.000
G1 X98.585 Y62.665 E7.48381
G1 X98.585 Y88.352 E8.36672
G1 X55.415 Y88.335 E9.85053
G1 X55.415 Y62.725 E10.73076
G1 E7.73076 F3000.00000
G1 F9600.000
G1 X65.015 Y62.712 E4.88076
G1 E4.73076 F3000.00000
G92 E0
G1 X55.790 Y91.540 F12000.000
G1 E6.00000 F3000.00000
G1 F1620.000
G1 X98.210 Y91.540 E7.45803
G1 X98.210 Y101.960 E7.81618
G1 X55.790 Y101.960 E9.27422
G1 X55.790 Y91.600 E9.63030
G1 X55.618 Y91.179 F12000.000
G1 X55.415 Y91.165
G1 F2700.000
G1 X98.585 Y91.165 E11.11411
G1 X98.585 Y102.335 E11.49804
G1 X55.415 Y102.335 E12.98184
G1 X55.415 Y91.225 E13.36371
G1 E10.36371 F3000.00000
G1 F9600.000
G1 X65.015 Y91.212 E7.51371
G1 E7.36371 F3000.00000
G92 E0
G1 X55.790 Y105.540 F12000.000
G1 E6.00000 F3000.00000
G1 F1620.000
G1 X98.210 Y105.540 E7.45803
G1 X98.210 Y130.460 E8.31457
G1 X55.790 Y130.460 E9.77260
G1 X55.790 Y105.600 E10.62707
G1 X55.654 Y105.164 F12000.000
G1 X55.415 Y105.165
G1 F2700.000
G1 X98.585 Y105.165 E12.11088
G1 X98.585 Y130.835 E12.99319
G1 X55.415 Y130.835 E14.47700
G1 X55.415 Y105.225 E15.35725
G1 E12.35725 F3000.00000
G1 F9600.000
G1 X65.015 Y105.212 E9.50725
G1 E9.35725 F3000.00000
G92 E0
G1 X55.000 Y104.750 F12000.000
G1 X54.000 Y104.750
G1 X54.000 Y131.250
G1 X54.524 Y132.698
G1 X55.606 Y132.510
G1 X81.006 Y132.510
G1 X83.503 Y133.747
G1 X83.503 Y137.132
G1 X84.666 Y139.158
G1 X85.091 Y141.244
G1 X84.798 Y143.140
G1 X83.895 Y144.987
G1 X84.941 Y146.532
G1 X85.506 Y148.029
