; generated by PrusaSlicer 2.2.0+win64 on 2021-07-10 at 10:32:06 UTC

; 

; external perimeters extrusion width = 0.45mm
; perimeters extrusion width = 0.45mm
; infill extrusion width = 0.45mm
; solid infill extrusion width = 0.45mm
; top infill extrusion width = 0.40mm
; first layer extrusion width = 0.42mm

M201 X9000 Y9000 Z500 E10000 ; sets maximum accelerations, mm/sec^2
M203 X500 Y500 Z12 E120 ; sets maximum feedrates, mm/sec
M204 P1500 R1500 T1500 ; sets acceleration (P, T) and retract acceleration (R), mm/sec^2
M205 X10.00 Y10.00 Z0.20 E2.50 ; sets the jerk limits, mm/sec
M205 S0 T0 ; sets the minimum extruding and travel feed rate, mm/sec
;;; Copy from Cura output
M140 S60 ; set bed temp
M105 ; Read current temp
M190 S60 ; set bed temp and wait
M104 S180 ; set extruder temp
M105 ; Read current temp
M109 S180 ; wait for extruder temp and wait
M82        ; Set E codes absolute (default) - absolute extrusion mode

;;; Copy from Cura config
G21 ;metric values
G90 ;absolute positioning
M82 ;set extruder to absolute mode
M107 ;start with the fan off
G28 X0 Y0 ;move X/Y to min endstops
G28 Z0 ;move Z to min endstops
G1 Z15.0 F200 ;move the platform down 15mm
G92 E0 ;zero the extruded length
G1 F200 E3 ;extrude 3mm of feed stock
G92 E0 ;zero the extruded length again
G1 F200
G0 Y20 F200
M117 Printing...
G5
G21 ; set units to millimeters
G90 ; use absolute coordinates
M82 ; use absolute distances for extrusion
G92 E0
; Filament gcode
M106 S127.5
G1 E-6.00000 F3000.00000
G92 E0
G1 Z0.210 F12000.000
G1 X171.672 Y69.719
G1 E6.00000 F3000.00000
G1 F2160.000
G1 X171.848 Y70.419 E6.02482
G1 X171.847 Y72.475 E6.09547
G1 X171.760 Y72.928 E6.11132
G1 X160.686 Y101.601 E7.16784
G1 X160.186 Y102.167 E7.19376
G1 X154.157 Y106.186 E7.44282
G1 X153.569 Y106.407 E7.46439
G1 X73.376 Y106.440 E10.22077
G1 X72.891 Y106.360 E10.23764
G1 X66.524 Y102.175 E10.49954
G1 X66.053 Y101.647 E10.52386
G1 X54.892 Y72.662 E11.59140
G1 X54.882 Y70.301 E11.67254
G1 X54.978 Y69.896 E11.68685
G1 X55.181 Y69.533 E11.70115
G1 X64.223 Y59.023 E12.17769
G1 X65.001 Y58.393 E12.21209
G1 X66.009 Y58.040 E12.24880
G1 X153.417 Y58.000 E15.25314
G1 X154.344 Y58.148 E15.28540
G1 X154.983 Y58.437 E15.30950
G1 X171.187 Y69.180 E15.97774
G1 X171.632 Y69.674 E16.00059
G1 X171.340 Y69.892 F12000.000
G1 F2160.000
G1 X171.473 Y70.421 E16.01932
G1 X171.472 Y72.455 E16.08923
G1 X171.407 Y72.803 E16.10142
G1 X160.353 Y101.429 E17.15613
G1 X159.976 Y101.857 E17.17573
G1 X153.959 Y105.868 E17.42428
G1 X153.508 Y106.037 E17.44081
G1 X73.376 Y106.065 E20.19509
G1 X73.013 Y106.005 E20.20773
G1 X66.741 Y101.869 E20.46596
G1 X66.383 Y101.469 E20.48442
G1 X55.263 Y72.603 E21.54766
G1 X55.254 Y70.354 E21.62495
G1 X55.480 Y69.760 E21.64680
G1 X64.492 Y59.284 E22.12179
G1 X65.180 Y58.723 E22.15229
G1 X66.068 Y58.410 E22.18464
G1 X153.417 Y58.375 E25.18694
G1 X154.242 Y58.509 E25.21569
G1 X154.786 Y58.756 E25.23622
G1 X170.972 Y69.487 E25.90370
G1 X171.299 Y69.848 E25.92045
G1 X171.012 Y70.075 F12000.000
G1 F2160.000
G1 X171.098 Y70.423 E25.93278
G1 X171.054 Y72.677 E26.01026
G1 X160.018 Y101.260 E27.06337
G1 X159.766 Y101.546 E27.07646
G1 X153.759 Y105.551 E27.32464
G1 X153.453 Y105.666 E27.33587
G1 X73.136 Y105.651 E30.09647
G1 X66.954 Y101.561 E30.35124
G1 X66.713 Y101.291 E30.36369
G1 X55.633 Y72.545 E31.42257
G1 X55.627 Y70.398 E31.49639
G1 X55.779 Y69.986 E31.51146
G1 X64.764 Y59.542 E31.98500
G1 X65.359 Y59.052 E32.01147
G1 X66.124 Y58.781 E32.03940
G1 X153.416 Y58.750 E35.03974
G1 X154.143 Y58.871 E35.06508
G1 X154.597 Y59.080 E35.08223
G1 X170.773 Y69.805 E35.74935
G1 X170.972 Y70.030 E35.75967
G1 X170.624 Y70.216 F12000.000
G1 F2160.000
G1 X170.722 Y70.399 E35.76679
G1 X170.723 Y72.423 E35.83638
G1 X159.680 Y101.098 E36.89254
G1 X153.399 Y105.295 E37.15217
G1 X73.257 Y105.296 E39.90677
G1 X67.043 Y101.114 E40.16418
G1 X56.004 Y72.492 E41.21860
G1 X56.001 Y70.428 E41.28954
G1 X56.077 Y70.214 E41.29737
G1 X65.038 Y59.798 E41.76963
G1 X65.541 Y59.380 E41.79210
G1 X66.177 Y59.152 E41.81533
G1 X153.415 Y59.125 E44.81384
G1 X154.040 Y59.231 E44.83559
G1 X154.387 Y59.391 E44.84872
G1 X170.576 Y70.126 E45.51639
G1 X170.596 Y70.163 E45.51785
G1 E42.51785 F3000.00000
G1 F9600.000
G1 X170.722 Y70.399 E42.43850
G1 X170.723 Y72.423 E41.83748
G1 X168.096 Y79.243 E39.66785
G1 E39.51785 F3000.00000
G92 E0
G1 X64.411 Y60.815 F12000.000
G1 E6.00000 F3000.00000
G1 F2160.000
G1 X64.392 Y61.033 E6.00751
G1 X64.392 Y67.967 E6.24587
G1 X64.419 Y68.292 E6.25705
G1 X64.519 Y68.676 E6.27070
G1 X64.673 Y69.008 E6.28328
G1 X64.883 Y69.309 E6.29590
G1 X65.119 Y69.548 E6.30742
G1 X65.415 Y69.763 E6.32002
G1 X65.774 Y69.934 E6.33369
G1 X66.129 Y70.030 E6.34630
G1 X66.487 Y70.062 E6.35868
G1 X67.281 Y70.062 E6.38595
G1 X67.281 Y78.577 E6.67860
G1 X67.309 Y78.645 E6.68116
G1 X67.582 Y78.918 E6.69440
G1 X67.651 Y78.946 E6.69696
G1 X74.036 Y78.946 E6.91643
G1 X74.105 Y78.918 E6.91899
G1 X74.377 Y78.645 E6.93223
G1 X74.406 Y78.577 E6.93480
G1 X74.406 Y76.456 E7.00767
G1 X78.781 Y76.456 E7.15805
G1 X78.781 Y78.577 E7.23093
G1 X78.809 Y78.645 E7.23349
G1 X79.082 Y78.918 E7.24673
G1 X79.151 Y78.946 E7.24929
G1 X90.536 Y78.946 E7.64062
G1 X90.605 Y78.918 E7.64318
G1 X90.877 Y78.645 E7.65642
G1 X90.906 Y78.577 E7.65898
G1 X90.906 Y76.456 E7.73186
G1 X95.281 Y76.456 E7.88224
G1 X95.281 Y78.577 E7.95511
G1 X95.309 Y78.645 E7.95767
G1 X95.582 Y78.918 E7.97091
G1 X95.651 Y78.946 E7.97348
G1 X102.036 Y78.946 E8.19294
G1 X102.105 Y78.918 E8.19551
G1 X102.377 Y78.645 E8.20875
G1 X102.406 Y78.577 E8.21131
G1 X102.406 Y70.062 E8.50396
G1 X106.813 Y70.062 E8.65545
G1 X106.813 Y72.633 E8.74381
G1 X106.842 Y72.702 E8.74637
G1 X107.114 Y72.974 E8.75961
G1 X107.183 Y73.003 E8.76217
G1 X108.813 Y73.003 E8.81820
G1 X108.813 Y73.432 E8.83294
G1 X99.995 Y95.378 E9.64588
G1 X68.756 Y95.378 E10.71963
G1 X59.938 Y73.432 E11.53257
G1 X59.938 Y73.003 E11.54731
G1 X61.568 Y73.003 E11.60334
G1 X61.637 Y72.974 E11.60590
G1 X61.909 Y72.702 E11.61914
G1 X61.938 Y72.633 E11.62171
G1 X61.938 Y70.248 E11.70369
G1 X61.909 Y70.179 E11.70625
G1 X61.637 Y69.906 E11.71949
G1 X61.568 Y69.878 E11.72205
G1 X56.613 Y69.878 E11.89237
G1 E8.89237 F3000.00000
G1 F9600.000
G1 X61.568 Y69.878 E7.42132
G1 X61.637 Y69.906 E7.39918
G1 X61.909 Y70.179 E7.28483
G1 X61.938 Y70.248 E7.26269
G1 X61.938 Y72.633 E6.55459
G1 X61.909 Y72.702 E6.53244
G1 X61.637 Y72.974 E6.41809
G1 X61.568 Y73.003 E6.39595
G1 X60.377 Y73.003 E6.04237
G1 E5.89237 F3000.00000
G92 E0
G1 X66.004 Y102.940 F12000.000
G1 X67.956 Y101.503
G1 E6.00000 F3000.00000
G1 F2160.000
G1 X72.813 Y101.503 E6.16694
G1 X72.813 Y104.771 E6.27929
G1 E3.27929 F3000.00000
G1 F9600.000
G1 X72.813 Y101.503 E2.30888
G1 X67.956 Y101.503 E0.86701
G1 E0.27929 F3000.00000
G92 E0
G1 X80.876 Y106.940 F12000.000
G1 X79.438 Y105.108
G1 E6.00000 F3000.00000
G1 F2160.000
G1 X79.438 Y101.503 E6.12393
G1 X89.313 Y101.503 E6.46335
G1 X89.313 Y105.108 E6.58728
G1 E3.58728 F3000.00000
G1 F9600.000
G1 X89.313 Y101.503 E2.51691
G1 X83.319 Y101.503 E0.73728
G1 E0.58728 F3000.00000
G92 E0
G1 X97.376 Y106.940 F12000.000
G1 X95.938 Y105.108
G1 E6.00000 F3000.00000
G1 F2160.000
G1 X95.938 Y101.503 E6.12392
G1 X101.520 Y101.503 E6.31579
G1 X101.574 Y101.486 E6.31774
G1 X101.813 Y101.322 E6.32768
G1 X101.848 Y101.278 E6.32964
G1 X112.913 Y72.611 E7.38581
G1 X112.938 Y72.475 E7.39055
G1 X112.938 Y70.062 E7.47347
G1 X113.783 Y70.062 E7.50253
G1 X113.811 Y72.593 E7.58953
G1 X124.875 Y101.261 E8.64571
G1 X124.911 Y101.305 E8.64766
G1 X125.149 Y101.469 E8.65760
G1 X125.203 Y101.486 E8.65956
G1 X130.786 Y101.486 E8.85142
G1 X130.786 Y105.108 E8.97592
G1 E5.97592 F3000.00000
G1 F9600.000
G1 X130.786 Y101.486 E4.90065
G1 X125.203 Y101.486 E3.24343
G1 X125.149 Y101.469 E3.22657
G1 X124.911 Y101.305 E3.14070
G1 X124.880 Y101.266 E3.12592
G1 E2.97592 F3000.00000
G92 E0
G1 X138.848 Y106.923 F12000.000
G1 X137.410 Y105.107
G1 E6.00000 F3000.00000
G1 F2160.000
G1 X137.410 Y101.486 E6.12449
G1 X147.286 Y101.486 E6.46391
G1 X147.286 Y105.107 E6.58839
G1 E3.58839 F3000.00000
G1 F9600.000
G1 X147.286 Y101.486 E2.51320
G1 X141.307 Y101.486 E0.73839
G1 E0.58839 F3000.00000
G92 E0
G1 X155.348 Y102.923 F12000.000
G1 X153.910 Y104.727
G1 E6.00000 F3000.00000
G1 F2160.000
G1 X153.910 Y101.486 E6.11143
G1 X158.762 Y101.486 E6.27819
G1 E3.27819 F3000.00000
G1 F9600.000
G1 X153.910 Y101.486 E1.83779
G1 X153.910 Y104.727 E0.87538
G1 E0.27819 F3000.00000
G92 E0
G1 X172.348 Y68.423 F12000.000
G1 X169.837 Y69.861
G1 E6.00000 F3000.00000
G1 F2160.000
G1 X165.155 Y69.861 E6.16093
G1 X165.086 Y69.889 E6.16349
G1 X164.814 Y70.162 E6.17673
G1 X164.786 Y70.231 E6.17930
G1 X164.786 Y72.616 E6.26128
G1 X164.814 Y72.685 E6.26384
G1 X165.086 Y72.957 E6.27708
G1 X165.155 Y72.986 E6.27964
G1 X166.786 Y72.986 E6.33568
G1 X166.786 Y73.414 E6.35042
G1 X157.968 Y95.361 E7.16335
G1 X126.728 Y95.361 E8.23710
G1 X117.910 Y73.414 E9.05004
G1 X117.910 Y72.986 E9.06478
G1 X119.541 Y72.986 E9.12081
G1 X119.609 Y72.957 E9.12337
G1 X119.882 Y72.685 E9.13661
G1 X119.910 Y72.616 E9.13918
G1 X119.910 Y70.062 E9.22694
G1 X153.422 Y70.062 E10.37877
G1 X153.776 Y70.030 E10.39101
G1 X154.130 Y69.936 E10.40360
G1 X154.465 Y69.780 E10.41628
G1 X154.766 Y69.569 E10.42893
G1 X155.027 Y69.308 E10.44160
G1 X155.219 Y69.038 E10.45302
G1 X155.378 Y68.710 E10.46554
G1 X155.484 Y68.326 E10.47924
G1 X155.517 Y67.968 E10.49160
G1 X155.516 Y61.016 E10.73054
G1 X155.479 Y60.643 E10.74341
G1 X155.366 Y60.265 E10.75699
G1 E7.75699 F3000.00000
G1 F9600.000
G1 X155.479 Y60.643 E7.63974
G1 X155.516 Y61.016 E7.52857
G1 X155.517 Y67.968 E5.46481
G1 X155.484 Y68.326 E5.35805
G1 X155.378 Y68.710 E5.23967
G1 X155.219 Y69.038 E5.13154
G1 X155.027 Y69.308 E5.03292
G1 X154.766 Y69.569 E4.92344
G1 X154.721 Y69.601 E4.90699
G1 E4.75699 F3000.00000
G92 E0
G1 X173.348 Y68.423 F12000.000
G1 X173.313 Y73.168
G1 X167.858 Y102.451
G1 X164.847 Y104.516
G1 X160.720 Y105.932
G1 X158.357 Y105.932
G1 X157.365 Y106.923
G1 X155.348 Y107.932
G1 X145.848 Y107.932
G1 X143.831 Y106.923
G1 X142.839 Y105.932
G1 X141.857 Y105.932
G1 X140.865 Y106.923
G1 X138.848 Y107.932
G1 X95.473 Y105.108
G1 E6.00000 F3000.00000
G1 F2160.000
G1 X95.563 Y105.018 E6.00438
G1 X95.563 Y101.128 E6.13809
G1 X101.434 Y101.128 E6.33987
G1 X101.530 Y101.062 E6.34387
G1 X112.557 Y72.492 E7.39648
G1 X112.563 Y70.363 E7.46965
G1 X112.453 Y70.253 E7.47499
G1 X107.298 Y70.253 E7.65219
G1 X107.188 Y70.363 E7.65753
G1 X107.188 Y72.518 E7.73161
G1 X107.298 Y72.628 E7.73694
G1 X109.188 Y72.628 E7.80191
G1 X109.188 Y73.504 E7.83203
G1 X100.249 Y95.753 E8.65617
G1 X68.502 Y95.753 E9.74734
G1 X59.563 Y73.504 E10.57148
G1 X59.563 Y72.628 E10.60160
G1 X61.453 Y72.628 E10.66657
G1 X61.563 Y72.518 E10.67191
G1 X61.563 Y70.363 E10.74599
G1 X61.453 Y70.253 E10.75133
G1 X56.298 Y70.253 E10.92852
G1 X56.245 Y70.306 E10.93111
G1 X56.189 Y70.458 F12000.000
G1 F2160.000
G1 X56.200 Y72.480 E11.00060
G1 E8.00060 F3000.00000
G1 F9600.000
G1 X56.189 Y70.458 E7.40045
G1 E5.00060 F3000.00000
G92 E0
G1 X66.004 Y102.940 F12000.000
G1 X67.399 Y101.128
G1 E6.00000 F3000.00000
G1 F2160.000
G1 X73.188 Y101.128 E6.19897
G1 X73.188 Y105.018 E6.33268
G1 X73.206 Y105.036 E6.33355
G1 E3.33355 F3000.00000
G1 F9600.000
G1 X73.188 Y105.018 E3.32607
G1 X73.188 Y101.128 E2.17117
G1 X67.504 Y101.128 E0.48355
G1 E0.33355 F3000.00000
G92 E0
G1 X80.876 Y106.940 F12000.000
G1 X78.973 Y105.108
G1 E6.00000 F3000.00000
G1 F2160.000
G1 X79.063 Y105.018 E6.00439
G1 X79.063 Y101.128 E6.13810
G1 X89.688 Y101.128 E6.50330
G1 X89.688 Y105.018 E6.63701
G1 X89.778 Y105.108 E6.64140
G1 E3.64140 F3000.00000
G1 F9600.000
G1 X89.688 Y105.018 E3.60352
G1 X89.688 Y101.128 E2.44863
G1 X84.106 Y101.128 E0.79140
G1 E0.64140 F3000.00000
G92 E0
G1 X80.876 Y107.940 F12000.000
G1 X71.376 Y107.940
G1 X69.376 Y106.940
G1 X68.376 Y105.940
G1 X66.004 Y105.940
G1 X61.888 Y104.529
G1 X58.863 Y102.453
G1 X53.410 Y73.185
G1 X53.376 Y68.440
G1 X65.176 Y59.927
G1 E6.00000 F3000.00000
G1 F2160.000
G1 X65.007 Y60.164 E6.01001
G1 X64.878 Y60.435 E6.02033
G1 X64.792 Y60.757 E6.03177
G1 X64.767 Y61.041 E6.04156
G1 X64.767 Y67.959 E6.27937
G1 X64.792 Y68.244 E6.28919
G1 X64.867 Y68.536 E6.29956
G1 X64.992 Y68.810 E6.30991
G1 X65.163 Y69.058 E6.32026
G1 X65.374 Y69.273 E6.33061
G1 X65.619 Y69.448 E6.34096
G1 X65.891 Y69.578 E6.35132
G1 X66.181 Y69.658 E6.36166
G1 X66.496 Y69.687 E6.37255
G1 X153.414 Y69.687 E9.36003
G1 X153.699 Y69.663 E9.36985
G1 X153.991 Y69.588 E9.38022
G1 X154.264 Y69.463 E9.39055
G1 X154.536 Y69.273 E9.40196
G1 X154.747 Y69.058 E9.41232
G1 X154.902 Y68.836 E9.42160
G1 X155.032 Y68.564 E9.43198
G1 X155.113 Y68.274 E9.44232
G1 X155.142 Y67.959 E9.45321
G1 X155.142 Y61.041 E9.69096
G1 X155.113 Y60.726 E9.70184
G1 X155.032 Y60.436 E9.71219
G1 X154.903 Y60.164 E9.72254
G1 X154.728 Y59.919 E9.73289
G1 X154.513 Y59.708 E9.74324
G1 X154.282 Y59.549 E9.75290
G1 X153.404 Y59.313 F12000.000
G1 F2160.000
G1 X151.174 Y59.313 E9.82955
G1 E6.82955 F3000.00000
G1 F9600.000
G1 X153.404 Y59.313 E6.16749
G1 E3.82955 F3000.00000
G92 E0
G1 X62.989 Y68.440 F12000.000
G1 X62.989 Y69.099
G1 X62.183 Y69.633
G1 X63.376 Y69.633
G1 X63.867 Y71.025
G1 X64.609 Y72.341
G1 X64.609 Y74.440
G1 X64.212 Y75.840
G1 X65.091 Y80.384
G1 X65.843 Y81.440
G1 X74.309 Y87.162
G1 X102.031 Y70.326
G1 E6.00000 F3000.00000
G1 F2160.000
G1 X102.031 Y78.462 E6.27962
G1 X101.921 Y78.571 E6.28496
G1 X95.765 Y78.571 E6.49653
G1 X95.656 Y78.462 E6.50186
G1 X95.656 Y76.081 E6.58367
G1 X90.531 Y76.081 E6.75983
G1 X90.531 Y78.462 E6.84164
G1 X90.421 Y78.571 E6.84698
G1 X79.265 Y78.571 E7.23040
G1 X79.156 Y78.462 E7.23574
G1 X79.156 Y76.081 E7.31755
G1 X74.031 Y76.081 E7.49370
G1 X74.031 Y78.462 E7.57551
G1 X73.921 Y78.571 E7.58085
G1 X67.765 Y78.571 E7.79242
G1 X67.656 Y78.462 E7.79776
G1 X67.656 Y70.326 E8.07738
G1 X67.765 Y70.217 E8.08272
G1 X73.921 Y70.217 E8.29428
G1 X74.031 Y70.326 E8.29962
G1 X74.031 Y72.707 E8.38143
G1 X79.156 Y72.707 E8.55759
G1 X79.156 Y70.326 E8.63940
G1 X79.265 Y70.217 E8.64473
G1 X90.421 Y70.217 E9.02816
G1 X90.531 Y70.326 E9.03350
G1 X90.531 Y72.707 E9.11531
G1 X95.656 Y72.707 E9.29146
G1 X95.656 Y70.326 E9.37327
G1 X95.765 Y70.217 E9.37861
G1 X101.921 Y70.217 E9.59018
G1 X101.988 Y70.284 E9.59345
G1 E6.59345 F3000.00000
G1 F9600.000
G1 X102.031 Y78.462 E4.16566
G1 X101.921 Y78.571 E4.11955
G1 X100.654 Y78.571 E3.74345
G1 E3.59345 F3000.00000
G92 E0
G1 X77.343 Y77.894 F12000.000
G1 X78.781 Y70.062
G1 E6.00000 F3000.00000
G1 F2160.000
G1 X78.781 Y72.332 E6.07800
G1 X74.406 Y72.332 E6.22838
G1 X74.406 Y70.062 E6.30637
G1 X78.721 Y70.062 E6.45469
G1 E3.45469 F3000.00000
G1 F9600.000
G1 X78.781 Y72.332 E2.78079
G1 X74.406 Y72.332 E1.48190
G1 X74.406 Y70.062 E0.80823
G1 X75.091 Y70.062 E0.60469
G1 E0.45469 F3000.00000
G92 E0
G1 X92.343 Y77.894 F12000.000
G1 X90.906 Y70.062
G1 E6.00000 F3000.00000
G1 F2160.000
G1 X95.281 Y70.062 E6.15038
G1 X95.281 Y72.332 E6.22838
G1 X90.906 Y72.332 E6.37876
G1 X90.906 Y70.122 E6.45469
G1 E3.45469 F3000.00000
G1 F9600.000
G1 X95.281 Y70.062 E2.15568
G1 X95.281 Y72.332 E1.48201
G1 X92.326 Y72.332 E0.60469
G1 E0.45469 F3000.00000
G92 E0
G1 X62.183 Y69.633 F12000.000
G1 X62.989 Y69.099
G1 X62.989 Y68.440
G1 X119.426 Y70.236
G1 E6.00000 F3000.00000
G1 F2160.000
G1 X114.270 Y70.236 E6.17719
G1 X114.161 Y70.345 E6.18251
G1 X114.173 Y72.490 E6.25625
G1 X125.194 Y101.045 E7.30827
G1 X125.290 Y101.111 E7.31227
G1 X131.160 Y101.111 E7.51405
G1 X131.160 Y105.001 E7.64776
G1 X131.267 Y105.108 E7.65295
G1 E4.65295 F3000.00000
G1 F9600.000
G1 X131.160 Y105.001 E4.60816
G1 X131.160 Y101.111 E3.45326
G1 X125.602 Y101.111 E1.80295
G1 E1.65295 F3000.00000
G92 E0
G1 X138.848 Y106.923 F12000.000
G1 X136.929 Y105.107
G1 E6.00000 F3000.00000
G1 F2160.000
G1 X137.035 Y105.001 E6.00518
G1 X137.035 Y101.111 E6.13889
G1 X147.660 Y101.111 E6.50409
G1 X147.660 Y105.001 E6.63780
G1 X147.767 Y105.107 E6.64298
G1 E3.64298 F3000.00000
G1 F9600.000
G1 X147.660 Y105.001 E3.59829
G1 X147.660 Y101.111 E2.44339
G1 X142.101 Y101.111 E0.79298
G1 E0.64298 F3000.00000
G92 E0
G1 X155.348 Y106.923 F12000.000
G1 X153.535 Y104.978
G1 E6.00000 F3000.00000
