; generated by PrusaSlicer 2.2.0+win64 on 2020-12-02 at 14:21:32 UTC

; 

; external perimeters extrusion width = 0.45mm
; perimeters extrusion width = 0.45mm
; infill extrusion width = 0.45mm
; solid infill extrusion width = 0.45mm
; top infill extrusion width = 0.40mm
; support material extrusion width = 0.35mm
; first layer extrusion width = 0.42mm

M201 X9000 Y9000 Z500 E10000 ; sets maximum accelerations, mm/sec^2
M203 X500 Y500 Z12 E120 ; sets maximum feedrates, mm/sec
M204 P1500 R1500 T1500 ; sets acceleration (P, T) and retract acceleration (R), mm/sec^2
M205 X10.00 Y10.00 Z0.20 E2.50 ; sets the jerk limits, mm/sec
M205 S0 T0 ; sets the minimum extruding and travel feed rate, mm/sec
;;; Copy from Cura output
M140 S60 ; set bed temp
M105 ; Read current temp
M190 S60 ; set bed temp and wait
M104 S175 ; set extruder temp
M105 ; Read current temp
M109 S175 ; wait for extruder temp and wait
M82        ; Set E codes absolute (default) - absolute extrusion mode

;;; Copy from Cura config
G21 ;metric values
G90 ;absolute positioning
M82 ;set extruder to absolute mode
M107 ;start with the fan off
G28 X0 Y0 ;move X/Y to min endstops
G28 Z0 ;move Z to min endstops
G1 Z15.0 F200 ;move the platform down 15mm
G92 E0 ;zero the extruded length
G1 F200 E3 ;extrude 3mm of feed stock
G92 E0 ;zero the extruded length again
G1 F200
G0 Y20 F200
M117 Printing...
G5
G21 ; set units to millimeters
G90 ; use absolute coordinates
M82 ; use absolute distances for extrusion
G92 E0
; Filament gcode
M106 S127.5
G1 E-6.00000 F3000.00000
G92 E0
G1 Z0.350 F12000.000
G1 X125.766 Y87.215
G1 E6.00000 F3000.00000
G1 F2160.000
G1 X125.911 Y87.624 E6.02287
G1 X129.416 Y115.531 E7.50500
G1 X129.422 Y116.418 E7.55171
G1 X129.075 Y119.061 E7.69220
G1 X128.870 Y119.845 E7.73488
G1 X127.841 Y122.347 E7.87748
G1 X127.562 Y122.853 E7.90791
G1 X125.562 Y125.460 E8.08104
G1 X125.142 Y125.864 E8.11176
G1 X122.998 Y127.503 E8.25397
G1 X122.288 Y127.907 E8.29705
G1 X119.880 Y128.905 E8.43436
G1 X118.990 Y129.147 E8.48298
G1 X116.389 Y129.490 E8.62122
G1 X115.817 Y129.500 E8.65139
G1 X112.868 Y129.146 E8.80789
G1 X85.198 Y121.531 E10.32018
G1 X84.856 Y121.359 E10.34032
G1 X84.601 Y121.078 E10.36034
G1 X84.460 Y120.693 E10.38191
G1 X80.818 Y96.636 E11.66407
G1 X80.561 Y93.973 E11.80507
G1 X80.819 Y91.392 E11.94174
G1 X81.608 Y88.802 E12.08438
G1 X82.812 Y86.548 E12.21908
G1 X84.554 Y84.423 E12.36383
G1 X86.456 Y82.855 E12.49376
G1 X89.050 Y81.468 E12.64873
G1 X91.413 Y80.757 E12.77880
G1 X94.142 Y80.489 E12.92329
G1 X96.691 Y80.741 E13.05825
G1 X125.101 Y86.745 E14.58843
G1 X125.483 Y86.912 E14.61039
G1 X125.725 Y87.171 E14.62906
G1 X125.472 Y87.394 F12000.000
G1 F2160.000
G1 X125.569 Y87.669 E14.64441
G1 X129.074 Y115.574 E16.12644
G1 X129.078 Y116.391 E16.16951
G1 X128.735 Y119.004 E16.30839
G1 X128.539 Y119.749 E16.34898
G1 X127.524 Y122.210 E16.48925
G1 X127.264 Y122.678 E16.51745
G1 X125.317 Y125.218 E16.68609
G1 X124.927 Y125.595 E16.71466
G1 X122.820 Y127.208 E16.85450
G1 X122.146 Y127.593 E16.89542
G1 X119.749 Y128.586 E17.03213
G1 X118.934 Y128.807 E17.07660
G1 X116.350 Y129.147 E17.21397
G1 X115.817 Y129.155 E17.24206
G1 X112.925 Y128.806 E17.39552
G1 X85.295 Y121.200 E18.90566
G1 X84.896 Y120.899 E18.93197
G1 X84.801 Y120.641 E18.94647
G1 X81.161 Y96.593 E20.22814
G1 X80.906 Y93.974 E20.36680
G1 X81.154 Y91.475 E20.49914
G1 X81.927 Y88.933 E20.63914
G1 X83.100 Y86.737 E20.77030
G1 X84.799 Y84.666 E20.91149
G1 X86.673 Y83.123 E21.03941
G1 X89.152 Y81.797 E21.18754
G1 X91.478 Y81.096 E21.31557
G1 X94.143 Y80.834 E21.45665
G1 X96.626 Y81.079 E21.58813
G1 X125.032 Y87.083 E23.11806
G1 X125.284 Y87.194 E23.13256
G1 X125.431 Y87.350 E23.14390
G1 X125.177 Y87.574 F12000.000
G1 F2160.000
G1 X128.732 Y115.618 E24.63354
G1 X128.734 Y116.368 E24.67305
G1 X128.394 Y118.951 E24.81033
G1 X128.208 Y119.654 E24.84865
G1 X126.965 Y122.506 E25.01256
G1 X125.070 Y124.976 E25.17661
G1 X122.640 Y126.913 E25.34041
G1 X122.004 Y127.278 E25.37904
G1 X119.619 Y128.267 E25.51510
G1 X118.879 Y128.466 E25.55547
G1 X115.817 Y128.810 E25.71786
G1 X112.981 Y128.466 E25.86837
G1 X85.390 Y120.868 E27.37643
G1 X85.190 Y120.718 E27.38958
G1 X81.503 Y96.549 E28.67793
G1 X81.251 Y93.974 E28.81423
G1 X81.490 Y91.553 E28.94247
G1 X82.246 Y89.063 E29.07956
G1 X83.388 Y86.927 E29.20719
G1 X85.044 Y84.908 E29.34481
G1 X86.892 Y83.390 E29.47084
G1 X89.253 Y82.127 E29.61194
G1 X91.542 Y81.435 E29.73797
G1 X94.141 Y81.179 E29.87559
G1 X96.555 Y81.417 E30.00337
G1 X124.958 Y87.420 E31.53314
G1 X125.128 Y87.539 E31.54412
G1 E28.54412 F3000.00000
G1 F9600.000
G1 X126.350 Y97.061 E25.69412
G1 E25.54412 F3000.00000
G92 E0
G1 X84.837 Y85.433 F12000.000
G1 E6.00000 F3000.00000
G1 F2160.000
G1 X84.935 Y85.541 E6.00769
G1 X83.986 Y86.697 E6.08646
G1 X83.857 Y86.628 E6.09420
G1 E3.09420 F3000.00000
G1 F9600.000
G1 X83.986 Y86.697 E3.05062
G1 X84.935 Y85.541 E2.60681
G1 X84.837 Y85.433 E2.56350
G1 E0.09420 F3000.00000
G92 E0
G1 X84.261 Y85.933 F12000.000
G1 X83.501 Y85.477
G1 X82.601 Y85.104
G1 X82.168 Y85.269
G1 X80.546 Y84.947
G1 X79.988 Y84.643
G1 X79.535 Y85.950
G1 X79.176 Y87.975
G1 X80.204 Y89.009
G1 X80.290 Y89.391
G1 X80.964 Y89.850
G1 X81.914 Y90.311
G1 X82.255 Y89.629
G1 E6.00000 F3000.00000
G1 F2160.000
G1 X82.386 Y89.692 E6.00769
G1 X81.953 Y91.122 E6.08647
G1 X81.806 Y91.108 E6.09425
G1 E3.09425 F3000.00000
G1 F9600.000
G1 X81.953 Y91.122 E3.05043
G1 X82.386 Y89.692 E2.60662
G1 X82.255 Y89.629 E2.56328
G1 E0.09425 F3000.00000
G92 E0
G1 X81.914 Y90.311 F12000.000
G1 X80.063 Y90.181
G1 X79.726 Y90.499
G1 X78.758 Y90.752
G1 X78.544 Y92.103
G1 X78.582 Y94.330
G1 X79.343 Y94.706
G1 X79.569 Y95.026
G1 X81.422 Y95.254
G1 X81.475 Y94.493
G1 E6.00000 F3000.00000
G1 F2160.000
G1 X81.621 Y94.501 E6.00770
G1 X81.767 Y95.989 E6.08648
G1 X81.625 Y96.032 E6.09429
G1 E3.09429 F3000.00000
G1 F9600.000
G1 X81.767 Y95.989 E3.05029
G1 X81.621 Y94.501 E2.60648
G1 X81.475 Y94.493 E2.56310
G1 E0.09429 F3000.00000
G92 E0
G1 X81.422 Y95.254 F12000.000
G1 X79.662 Y95.842
G1 X79.472 Y96.265
G1 X78.713 Y96.846
G1 X78.760 Y97.356
G1 X79.770 Y97.596
G1 X80.042 Y97.853
G1 X81.542 Y97.760
G1 X82.041 Y98.935
G1 E6.00000 F3000.00000
G1 F2160.000
G1 X82.089 Y99.092 E6.00863
G1 X82.136 Y99.147 E6.01247
G1 X82.477 Y99.308 E6.03231
G1 X82.545 Y99.311 E6.03590
G1 X82.754 Y99.238 E6.04758
G1 X83.458 Y100.556 E6.12635
G1 X83.263 Y100.716 E6.13968
G1 X83.231 Y100.777 E6.14329
G1 X83.196 Y101.130 E6.16196
G1 X83.216 Y101.195 E6.16558
G1 X84.943 Y103.300 E6.30903
G1 X85.008 Y103.332 E6.31288
G1 X85.384 Y103.351 E6.33271
G1 X85.448 Y103.328 E6.33631
G1 X85.613 Y103.180 E6.34798
G1 X86.769 Y104.128 E6.42676
G1 X86.649 Y104.351 E6.44008
G1 X86.643 Y104.420 E6.44370
G1 X86.746 Y104.759 E6.46237
G1 X86.789 Y104.812 E6.46598
G1 X89.190 Y106.095 E6.60944
G1 X89.263 Y106.100 E6.61329
G1 X89.617 Y105.974 E6.63312
G1 X89.668 Y105.928 E6.63672
G1 X89.763 Y105.728 E6.64839
G1 X91.194 Y106.162 E6.72717
G1 X91.169 Y106.414 E6.74049
G1 X91.189 Y106.479 E6.74411
G1 X91.414 Y106.753 E6.76278
G1 X91.474 Y106.786 E6.76639
G1 X94.184 Y107.052 E6.90985
G1 X94.253 Y107.029 E6.91370
G1 X94.532 Y106.777 E6.93353
G1 X94.561 Y106.715 E6.93712
G1 X94.573 Y106.494 E6.94880
G1 X96.061 Y106.347 E7.02757
G1 X96.134 Y106.589 E7.04090
G1 X96.178 Y106.642 E7.04451
G1 X96.490 Y106.809 E7.06318
G1 X96.558 Y106.816 E7.06680
G1 X99.164 Y106.026 E7.21026
G1 X99.219 Y105.978 E7.21410
G1 X99.380 Y105.638 E7.23394
G1 X99.383 Y105.570 E7.23753
G1 X99.310 Y105.361 E7.24921
G1 X100.628 Y104.656 E7.32798
G1 X100.788 Y104.852 E7.34131
G1 X100.849 Y104.884 E7.34492
G1 X101.201 Y104.919 E7.36359
G1 X101.267 Y104.899 E7.36721
G1 X103.372 Y103.172 E7.51066
G1 X103.404 Y103.106 E7.51451
G1 X103.423 Y102.731 E7.53434
G1 X103.400 Y102.666 E7.53794
G1 X103.252 Y102.501 E7.54961
G1 X104.200 Y101.346 E7.62839
G1 X104.423 Y101.465 E7.64171
G1 X104.492 Y101.472 E7.64533
G1 X104.831 Y101.369 E7.66400
G1 X104.884 Y101.325 E7.66761
G1 X106.167 Y98.924 E7.81107
G1 X106.172 Y98.852 E7.81492
G1 X106.046 Y98.497 E7.83475
G1 X106.000 Y98.447 E7.83835
G1 X105.800 Y98.351 E7.85002
G1 X106.234 Y96.921 E7.92880
G1 X106.486 Y96.945 E7.94212
G1 X106.551 Y96.925 E7.94574
G1 X106.825 Y96.701 E7.96441
G1 X106.857 Y96.640 E7.96802
G1 X107.124 Y93.931 E8.11148
G1 X107.101 Y93.862 E8.11533
G1 X106.849 Y93.583 E8.13516
G1 X106.787 Y93.553 E8.13876
G1 X106.566 Y93.542 E8.15043
G1 X106.419 Y92.054 E8.22921
G1 X106.661 Y91.980 E8.24253
G1 X106.714 Y91.937 E8.24614
G1 X106.881 Y91.624 E8.26482
G1 X106.888 Y91.556 E8.26843
G1 X106.098 Y88.951 E8.41189
G1 X106.050 Y88.896 E8.41573
G1 X105.710 Y88.735 E8.43557
G1 X105.642 Y88.731 E8.43916
G1 X105.433 Y88.805 E8.45084
G1 X104.728 Y87.487 E8.52961
G1 X104.924 Y87.326 E8.54294
G1 X104.956 Y87.266 E8.54655
G1 X104.991 Y86.913 E8.56522
G1 X104.971 Y86.847 E8.56884
G1 X103.244 Y84.743 E8.71230
G1 X103.178 Y84.710 E8.71614
G1 X102.803 Y84.692 E8.73598
G1 X102.738 Y84.715 E8.73957
G1 X102.573 Y84.863 E8.75125
G1 X101.418 Y83.914 E8.83002
G1 X101.537 Y83.691 E8.84335
G1 X101.544 Y83.623 E8.84696
G1 X101.441 Y83.284 E8.86563
G1 X101.397 Y83.231 E8.86925
G1 X99.496 Y82.215 E8.98284
G1 X98.657 Y82.037 F12000.000
G1 F2160.000
G1 X98.569 Y82.069 E8.98777
G1 X98.519 Y82.115 E8.99137
G1 X98.423 Y82.315 E9.00304
G1 X96.992 Y81.881 E9.08182
G1 X97.011 Y81.689 E9.09194
G1 E6.09194 F3000.00000
G1 F9600.000
G1 X96.992 Y81.881 E6.03494
G1 X98.423 Y82.315 E5.59113
G1 X98.519 Y82.115 E5.52536
G1 X98.569 Y82.069 E5.50510
G1 X98.657 Y82.037 E5.47730
G1 E3.09194 F3000.00000
G92 E0
G1 X97.803 Y81.843 F12000.000
G1 X97.934 Y79.992
G1 X97.768 Y79.923
G1 X93.621 Y81.403
G1 E6.00000 F3000.00000
G1 F2160.000
G1 X93.613 Y81.549 E6.00768
G1 X92.126 Y81.695 E6.08645
G1 X92.083 Y81.555 E6.09420
G1 E3.09420 F3000.00000
G1 F9600.000
G1 X92.126 Y81.695 E3.05057
G1 X93.613 Y81.549 E2.60676
G1 X93.621 Y81.403 E2.56350
G1 E0.09420 F3000.00000
G92 E0
G1 X92.632 Y80.518 F12000.000
G1 X92.265 Y79.587
G1 X91.896 Y79.420
G1 X91.319 Y78.635
G1 X90.759 Y78.688
G1 X90.518 Y79.698
G1 X90.262 Y79.970
G1 X90.354 Y81.470
G1 X88.830 Y82.549
G1 E6.00000 F3000.00000
G1 F2160.000
G1 X88.877 Y82.682 E6.00742
G1 X87.559 Y83.386 E6.08620
G1 X87.468 Y83.277 E6.09368
G1 X87.087 Y83.481 F12000.000
G1 F2160.000
G1 X87.199 Y83.492 E6.09957
G1 X87.471 Y83.824 E6.12224
G1 X89.301 Y82.846 E6.23154
G1 X89.163 Y82.457 E6.25328
G1 X89.218 Y82.341 E6.26003
G1 E3.26003 F3000.00000
G1 F9600.000
G1 X89.163 Y82.457 E3.22202
G1 X89.301 Y82.846 E3.09951
G1 X87.471 Y83.824 E2.48373
G1 X87.199 Y83.492 E2.35603
G1 X87.087 Y83.481 E2.32283
G1 E0.26003 F3000.00000
G92 E0
G1 X90.354 Y81.470 F12000.000
G1 X91.646 Y81.598
G1 E6.00000 F3000.00000
G1 F2160.000
G1 X91.753 Y81.655 E6.00637
G1 X91.878 Y82.066 E6.02904
G1 X93.942 Y81.863 E6.13834
G1 X93.964 Y81.451 E6.16009
G1 X94.065 Y81.360 E6.16725
G1 E3.16725 F3000.00000
G1 F9600.000
G1 X93.964 Y81.451 E3.12690
G1 X93.942 Y81.863 E3.00439
G1 X91.878 Y82.066 E2.38861
G1 X91.753 Y81.655 E2.26090
G1 X91.646 Y81.598 E2.22501
G1 E0.16725 F3000.00000
G92 E0
G1 X95.441 Y80.968 F12000.000
G1 X95.919 Y79.570
G1 X96.251 Y79.420
G1 X96.827 Y78.627
G1 X97.363 Y78.686
G1 X97.616 Y79.654
G1 X97.934 Y79.992
G1 X97.803 Y81.843
G1 X96.580 Y81.598
G1 E6.00000 F3000.00000
G1 F2160.000
G1 X96.664 Y81.700 E6.00695
G1 X96.621 Y82.128 E6.02962
G1 X98.606 Y82.731 E6.13892
G1 X98.784 Y82.358 E6.16067
G1 X98.933 Y82.305 E6.16901
G1 X101.142 Y83.485 E6.30094
G1 X101.183 Y83.622 E6.30847
G1 X100.980 Y84.001 E6.33114
G1 X102.584 Y85.317 E6.44044
G1 X102.891 Y85.041 E6.46219
G1 X103.049 Y85.049 E6.47053
G1 X104.637 Y86.984 E6.60246
G1 X104.623 Y87.127 E6.60999
G1 X104.290 Y87.400 E6.63266
G1 X105.268 Y89.229 E6.74196
G1 X105.657 Y89.091 E6.76370
G1 X105.801 Y89.159 E6.77205
G1 X106.527 Y91.555 E6.90398
G1 X106.460 Y91.681 E6.91151
G1 X106.048 Y91.806 E6.93418
G1 X106.252 Y93.870 E7.04348
G1 X106.664 Y93.892 E7.06522
G1 X106.770 Y94.009 E7.07356
G1 X106.525 Y96.501 E7.20550
G1 X106.414 Y96.592 E7.21303
G1 X105.986 Y96.550 E7.23569
G1 X105.384 Y98.534 E7.34499
G1 X105.756 Y98.712 E7.36674
G1 X105.810 Y98.862 E7.37508
G1 X104.629 Y101.070 E7.50702
G1 X104.493 Y101.111 E7.51454
G1 X104.113 Y100.908 E7.53721
G1 X102.797 Y102.512 E7.64651
G1 X103.073 Y102.819 E7.66826
G1 X103.065 Y102.977 E7.67660
G1 X101.130 Y104.565 E7.80853
G1 X100.988 Y104.551 E7.81606
G1 X100.715 Y104.219 E7.83873
G1 X98.886 Y105.196 E7.94803
G1 X99.023 Y105.585 E7.96978
G1 X98.955 Y105.729 E7.97812
G1 X96.559 Y106.455 E8.11005
G1 X96.433 Y106.388 E8.11758
G1 X96.309 Y105.976 E8.14025
G1 X94.244 Y106.180 E8.24955
G1 X94.222 Y106.592 E8.27129
G1 X94.105 Y106.698 E8.27964
G1 X91.613 Y106.453 E8.41157
G1 X91.523 Y106.342 E8.41910
G1 X91.565 Y105.914 E8.44176
G1 X89.580 Y105.312 E8.55107
G1 X89.402 Y105.684 E8.57281
G1 X89.253 Y105.738 E8.58115
G1 X87.045 Y104.557 E8.71309
G1 X87.003 Y104.421 E8.72061
G1 X87.206 Y104.041 E8.74328
G1 X85.603 Y102.725 E8.85258
G1 X85.296 Y103.001 E8.87433
G1 X85.138 Y102.994 E8.88267
G1 X83.549 Y101.058 E9.01460
G1 X83.563 Y100.916 E9.02213
G1 X83.896 Y100.643 E9.04480
G1 X82.918 Y98.814 E9.15410
G1 X82.529 Y98.951 E9.17585
G1 X82.386 Y98.883 E9.18419
G1 X81.677 Y96.545 E9.31297
G1 X81.668 Y96.470 F12000.000
G1 F2160.000
G1 X81.727 Y96.362 E9.31947
G1 X82.138 Y96.237 E9.34214
G1 X81.935 Y94.172 E9.45144
G1 X81.523 Y94.150 E9.47318
G1 X81.431 Y94.050 E9.48036
G1 E6.48036 F3000.00000
G1 F9600.000
G1 X81.523 Y94.150 E6.43992
G1 X81.935 Y94.172 E6.31741
G1 X82.138 Y96.237 E5.70163
G1 X81.727 Y96.362 E5.57393
G1 X81.668 Y96.470 E5.53728
G1 E3.48036 F3000.00000
G92 E0
G1 X81.422 Y95.254 F12000.000
G1 X79.569 Y95.026
G1 X79.343 Y94.706
G1 X78.582 Y94.330
G1 X78.544 Y92.103
G1 X78.758 Y90.752
G1 X79.726 Y90.499
G1 X80.063 Y90.181
G1 X81.914 Y90.311
G1 X81.678 Y91.528
G1 E6.00000 F3000.00000
G1 F2160.000
G1 X81.772 Y91.451 E6.00644
G1 X82.200 Y91.493 E6.02911
G1 X82.802 Y89.508 E6.13841
G1 X82.430 Y89.330 E6.16015
G1 X82.384 Y89.202 E6.16733
G1 E3.16733 F3000.00000
G1 F9600.000
G1 X82.430 Y89.330 E3.12690
G1 X82.802 Y89.508 E3.00439
G1 X82.200 Y91.493 E2.38861
G1 X81.772 Y91.451 E2.26090
G1 X81.678 Y91.528 E2.22463
G1 E0.16733 F3000.00000
G92 E0
G1 X81.914 Y90.311 F12000.000
G1 X80.290 Y89.391
G1 X80.204 Y89.009
G1 X79.176 Y87.975
G1 X79.535 Y85.950
G1 X79.988 Y84.643
G1 X80.546 Y84.947
G1 X82.168 Y85.269
G1 X82.601 Y85.104
G1 X84.261 Y85.933
G1 X83.579 Y86.966
G1 E6.00000 F3000.00000
G1 F2160.000
G1 X83.694 Y86.932 E6.00635
G1 X84.073 Y87.134 E6.02901
G1 X85.389 Y85.531 E6.13831
G1 X85.113 Y85.224 E6.16006
G1 X85.120 Y85.088 E6.16724
G1 E3.16724 F3000.00000
G1 F9600.000
G1 X85.113 Y85.224 E3.12677
G1 X85.389 Y85.531 E3.00426
G1 X84.073 Y87.134 E2.38848
G1 X83.694 Y86.932 E2.26077
G1 X83.579 Y86.966 E2.22502
G1 E0.16724 F3000.00000
G92 E0
G1 X84.261 Y85.933 F12000.000
G1 X83.113 Y84.461
G1 X83.179 Y84.075
G1 X82.354 Y82.253
G1 X81.374 Y81.096
G1 X83.037 Y80.385
G1 X86.021 Y79.450
G1 X89.308 Y78.786
G1 X92.155 Y78.472
G1 X96.012 Y78.472
G1 X98.352 Y78.693
G1 X102.165 Y79.463
G1 X105.144 Y80.373
G1 X110.111 Y82.529
G1 X109.588 Y83.564
G1 X109.027 Y85.827
G1 X108.934 Y87.513
G1 X109.365 Y87.132
G1 E6.00000 F3000.00000
G1 F2160.000
G1 X109.564 Y87.067 E6.01102
G1 X110.546 Y87.067 E6.06279
G1 X110.745 Y87.132 E6.07381
G1 X110.943 Y87.067 E6.08483
G1 X111.926 Y87.067 E6.13660
G1 X112.124 Y87.132 E6.14762
G1 X112.323 Y87.067 E6.15864
G1 X113.305 Y87.067 E6.21040
G1 X113.504 Y87.132 E6.22142
G1 X113.702 Y87.067 E6.23244
G1 X114.689 Y87.067 E6.28444
G1 X114.794 Y87.096 E6.29020
G1 X115.579 Y87.085 E6.33155
G1 X115.641 Y87.110 E6.33510
G1 X115.892 Y87.361 E6.35377
G1 X115.918 Y87.424 E6.35738
G1 X115.918 Y88.995 E6.44017
G1 X117.297 Y88.995 E6.51285
G1 X117.297 Y87.424 E6.59563
G1 X117.324 Y87.361 E6.59925
G1 X117.574 Y87.110 E6.61792
G1 X117.636 Y87.085 E6.62147
G1 X118.421 Y87.096 E6.66282
G1 X118.526 Y87.067 E6.66858
G1 X119.513 Y87.067 E6.72058
G1 X119.712 Y87.132 E6.73160
G1 X119.910 Y87.067 E6.74262
G1 X120.893 Y87.067 E6.79438
G1 X121.091 Y87.132 E6.80540
G1 X121.289 Y87.067 E6.81637
G1 X122.331 Y87.080 E6.87130
