; generated by PrusaSlicer 2.2.0+win64 on 2021-05-23 at 08:01:30 UTC

; 

; external perimeters extrusion width = 0.45mm
; perimeters extrusion width = 0.45mm
; infill extrusion width = 0.45mm
; solid infill extrusion width = 0.45mm
; top infill extrusion width = 0.40mm
; first layer extrusion width = 0.42mm

M201 X9000 Y9000 Z500 E10000 ; sets maximum accelerations, mm/sec^2
M203 X500 Y500 Z12 E120 ; sets maximum feedrates, mm/sec
M204 P1500 R1500 T1500 ; sets acceleration (P, T) and retract acceleration (R), mm/sec^2
M205 X10.00 Y10.00 Z0.20 E2.50 ; sets the jerk limits, mm/sec
M205 S0 T0 ; sets the minimum extruding and travel feed rate, mm/sec
;;; Copy from Cura output
M140 S60 ; set bed temp
M105 ; Read current temp
M190 S60 ; set bed temp and wait
M104 S180 ; set extruder temp
M105 ; Read current temp
M109 S180 ; wait for extruder temp and wait
M82        ; Set E codes absolute (default) - absolute extrusion mode

;;; Copy from Cura config
G21 ;metric values
G90 ;absolute positioning
M82 ;set extruder to absolute mode
M107 ;start with the fan off
G28 X0 Y0 ;move X/Y to min endstops
G28 Z0 ;move Z to min endstops
G1 Z15.0 F200 ;move the platform down 15mm
G92 E0 ;zero the extruded length
G1 F200 E3 ;extrude 3mm of feed stock
G92 E0 ;zero the extruded length again
G1 F200
G0 Y20 F200
M117 Printing...
G5
G21 ; set units to millimeters
G90 ; use absolute coordinates
M82 ; use absolute distances for extrusion
G92 E0
; Filament gcode
M106 S145.35
G1 E-6.00000 F3000.00000
G92 E0
G1 Z0.210 F12000.000
G1 X91.075 Y91.250
G1 E6.00000 F3000.00000
G1 F1080.000
G1 X91.688 Y90.991 E6.02289
G1 X104.164 Y90.961 E6.45172
G1 X105.724 Y91.243 E6.50619
G1 X106.190 Y91.507 E6.52462
G1 X106.813 Y92.085 E6.55382
G1 X119.263 Y108.003 E7.24841
G1 X119.531 Y108.554 E7.26948
G1 X119.688 Y109.292 E7.29540
G1 X119.678 Y109.815 E7.31339
G1 X119.170 Y111.244 E7.36553
G1 X113.005 Y121.909 E7.78891
G1 X112.616 Y122.327 E7.80855
G1 X112.098 Y122.569 E7.82819
G1 X111.519 Y122.599 E7.84813
G1 X110.729 Y122.371 E7.87637
G1 X110.248 Y122.118 E7.89505
G1 X109.948 Y121.857 E7.90874
G1 X97.091 Y105.558 E8.62227
G1 X90.871 Y94.817 E9.04890
G1 X90.359 Y93.427 E9.09980
G1 X90.348 Y92.771 E9.12235
G1 X90.634 Y91.750 E9.15880
G1 X91.035 Y91.295 E9.17964
G1 X91.305 Y91.546 F12000.000
G1 F1080.000
G1 X91.785 Y91.355 E9.19740
G1 X104.164 Y91.336 E9.62289
G1 X105.574 Y91.587 E9.67212
G1 X105.963 Y91.806 E9.68747
G1 X106.533 Y92.334 E9.71417
G1 X118.965 Y108.231 E10.40782
G1 X119.166 Y108.642 E10.42356
G1 X119.315 Y109.327 E10.44765
G1 X119.306 Y109.767 E10.46276
G1 X118.839 Y111.068 E10.51027
G1 X112.692 Y121.702 E10.93245
G1 X112.402 Y122.019 E10.94721
G1 X112.012 Y122.204 E10.96207
G1 X111.552 Y122.224 E10.97790
G1 X110.842 Y122.014 E11.00335
G1 X110.223 Y121.603 E11.02888
G1 X97.388 Y105.328 E11.74129
G1 X91.200 Y94.637 E12.16588
G1 X90.724 Y93.330 E12.21369
G1 X90.720 Y92.824 E12.23109
G1 X90.960 Y91.935 E12.26274
G1 X91.265 Y91.591 E12.27853
G1 X91.520 Y91.853 F12000.000
G1 F1080.000
G1 X91.863 Y91.722 E12.29112
G1 X104.164 Y91.711 E12.71392
G1 X105.427 Y91.932 E12.75801
G1 X105.736 Y92.104 E12.77015
G1 X106.252 Y92.583 E12.79436
G1 X118.668 Y108.459 E13.48711
G1 X118.802 Y108.732 E13.49756
G1 X118.942 Y109.366 E13.51988
G1 X118.934 Y109.718 E13.53199
G1 X118.509 Y110.891 E13.57487
G1 X112.376 Y121.501 E13.99607
G1 X112.180 Y121.716 E14.00608
G1 X111.919 Y121.841 E14.01601
G1 X111.593 Y121.851 E14.02725
G1 X110.956 Y121.656 E14.05014
G1 X110.502 Y121.351 E14.06894
G1 X97.688 Y105.104 E14.78019
G1 X91.527 Y94.454 E15.20305
G1 X91.091 Y93.252 E15.24699
G1 X91.089 Y92.887 E15.25956
G1 X91.281 Y92.130 E15.28638
G1 X91.481 Y91.898 E15.29691
G1 X91.729 Y92.165 F12000.000
G1 F1080.000
G1 X91.918 Y92.094 E15.30384
G1 X104.163 Y92.086 E15.72472
G1 X105.280 Y92.277 E15.76368
G1 X105.969 Y92.828 E15.79399
G1 X118.439 Y108.824 E16.49113
G1 X118.563 Y109.667 E16.52041
G1 X118.177 Y110.717 E16.55884
G1 X112.056 Y121.305 E16.97918
G1 X111.828 Y121.477 E16.98902
G1 X111.074 Y121.300 E17.01565
G1 X110.785 Y121.106 E17.02762
G1 X97.989 Y104.881 E17.73787
G1 X91.855 Y94.273 E18.15905
G1 X91.462 Y93.197 E18.19841
G1 X91.604 Y92.325 E18.22878
G1 X91.692 Y92.212 E18.23370
G1 E15.23370 F3000.00000
G1 F9600.000
G1 X91.918 Y92.094 E15.15804
G1 X101.263 Y92.088 E12.38370
G1 E12.23370 F3000.00000
G92 E0
G1 X92.764 Y95.470 F12000.000
G1 E6.00000 F3000.00000
G1 F1080.000
G1 X93.557 Y95.718 E6.02856
G1 X93.654 Y95.696 E6.03199
G1 X94.047 Y95.340 E6.05020
G1 X94.077 Y95.244 E6.05367
G1 X93.892 Y94.407 E6.08313
G1 X92.798 Y92.496 E6.15883
G1 X92.567 Y92.281 E6.16968
G1 X92.016 Y94.167 F12000.000
G1 F1080.000
G1 X92.709 Y95.009 E6.20718
G1 X92.881 Y95.114 E6.21409
G1 X93.519 Y95.313 E6.23707
G1 X93.677 Y95.170 E6.24440
G1 X93.532 Y94.517 E6.26739
G1 X92.487 Y92.707 E6.33921
G1 X92.024 Y92.281 E6.36084
G1 E3.36084 F3000.00000
G1 F9600.000
G1 X92.487 Y92.707 E3.17402
G1 X93.532 Y94.517 E2.55365
G1 X93.677 Y95.170 E2.35512
G1 X93.519 Y95.313 E2.29180
G1 X92.881 Y95.114 E2.09329
G1 X92.709 Y95.009 E2.03357
G1 X92.016 Y94.167 E1.70972
G1 E0.36084 F3000.00000
G92 E0
G1 X95.532 Y94.994 F12000.000
G1 E6.00000 F3000.00000
G1 F1080.000
G1 X96.157 Y94.179 E6.03528
G1 X96.859 Y93.648 E6.06554
G1 X97.672 Y93.304 E6.09586
G1 X98.693 Y93.170 E6.13128
G1 X99.567 Y93.291 E6.16161
G1 X100.383 Y93.623 E6.19187
G1 X101.197 Y94.248 E6.22715
G1 X101.728 Y94.950 E6.25740
G1 X102.072 Y95.762 E6.28773
G1 X102.206 Y96.782 E6.32308
G1 X102.086 Y97.654 E6.35334
G1 X101.754 Y98.472 E6.38366
G1 X101.127 Y99.289 E6.41908
G1 X100.423 Y99.821 E6.44940
G1 X99.612 Y100.163 E6.47966
G1 X98.594 Y100.297 E6.51494
G1 X97.722 Y100.177 E6.54520
G1 X96.905 Y99.845 E6.57552
G1 X96.087 Y99.218 E6.61094
G1 X95.555 Y98.514 E6.64127
G1 X95.213 Y97.703 E6.67152
G1 X95.079 Y96.683 E6.70687
G1 X95.201 Y95.809 E6.73720
G1 X95.510 Y95.049 E6.76539
G1 X95.869 Y95.160 F12000.000
G1 F1080.000
G1 X96.405 Y94.461 E6.79568
G1 X97.027 Y93.984 E6.82264
G1 X97.794 Y93.660 E6.85126
G1 X98.667 Y93.545 E6.88150
G1 X99.491 Y93.659 E6.91011
G1 X100.216 Y93.960 E6.93707
G1 X100.915 Y94.496 E6.96736
G1 X101.392 Y95.118 E6.99432
G1 X101.717 Y95.885 E7.02293
G1 X101.831 Y96.758 E7.05320
G1 X101.729 Y97.536 E7.08016
G1 X101.416 Y98.307 E7.10877
G1 X100.881 Y99.005 E7.13901
G1 X100.216 Y99.507 E7.16762
G1 X99.492 Y99.807 E7.19459
G1 X98.618 Y99.922 E7.22487
G1 X97.840 Y99.820 E7.25184
G1 X97.069 Y99.507 E7.28045
G1 X96.371 Y98.971 E7.31069
G1 X95.869 Y98.307 E7.33930
G1 X95.569 Y97.583 E7.36626
G1 X95.454 Y96.710 E7.39653
G1 X95.569 Y95.885 E7.42514
G1 X95.846 Y95.216 E7.45004
G1 E4.45004 F3000.00000
G1 F9600.000
G1 X96.405 Y94.461 E4.17120
G1 X97.027 Y93.984 E3.93832
G1 X97.794 Y93.660 E3.69118
G1 X98.667 Y93.545 E3.42999
G1 X99.491 Y93.659 E3.18285
G1 X100.216 Y93.960 E2.94995
G1 X100.915 Y94.496 E2.68837
G1 X101.392 Y95.118 E2.45549
G1 X101.717 Y95.885 E2.20835
G1 X101.831 Y96.758 E1.94696
G1 X101.729 Y97.536 E1.71408
G1 X101.585 Y97.892 E1.60004
G1 E1.45004 F3000.00000
G92 E0
G1 X106.185 Y93.411 F12000.000
G1 E6.00000 F3000.00000
G1 F1080.000
G1 X106.177 Y93.450 E6.00137
G1 X106.109 Y93.524 E6.00481
G1 X105.236 Y93.791 E6.03620
G1 X103.088 Y93.791 E6.11002
G1 X102.215 Y93.524 E6.14142
G1 X102.147 Y93.450 E6.14485
G1 X102.035 Y92.932 E6.16307
G1 X102.065 Y92.838 E6.16648
G1 X102.684 Y92.274 E6.19525
G1 X104.133 Y92.276 F12000.000
G1 F1080.000
G1 X104.390 Y92.315 E6.20419
G1 X104.133 Y92.276 F12000.000
G1 F1080.000
G1 X103.104 Y92.456 E6.24011
G1 X102.927 Y92.553 E6.24706
G1 X102.435 Y93.006 E6.27004
G1 X102.480 Y93.215 E6.27737
G1 X103.118 Y93.416 E6.30036
G1 X105.206 Y93.416 E6.37215
G1 X105.844 Y93.215 E6.39513
G1 X105.885 Y93.026 E6.40177
G1 E3.40177 F3000.00000
G1 F9600.000
G1 X105.844 Y93.215 E3.34441
G1 X105.206 Y93.416 E3.14588
G1 X103.118 Y93.416 E2.52581
G1 X102.480 Y93.215 E2.32728
G1 X102.435 Y93.006 E2.26397
G1 X102.927 Y92.553 E2.06545
G1 X103.104 Y92.456 E2.00546
G1 X104.133 Y92.276 E1.69523
G1 E0.40177 F3000.00000
G92 E0
G1 X104.554 Y96.733 F12000.000
G1 X98.643 Y96.734
G1 X96.153 Y101.048
G1 X99.416 Y101.121
G1 X100.129 Y101.218
G1 X100.239 Y101.572
G1 E6.00000 F3000.00000
G1 F1080.000
G1 X100.306 Y101.646 E6.00343
G1 X100.492 Y102.475 E6.03265
G1 X100.490 Y102.777 E6.04301
G1 X100.067 Y103.931 E6.08527
G1 X99.368 Y104.795 E6.12347
G1 X99.063 Y105.003 E6.13616
G1 X98.474 Y105.192 E6.15744
G1 X97.824 Y104.221 F12000.000
G1 F1080.000
G1 X97.895 Y103.915 E6.16821
G1 X99.004 Y102.011 E6.24395
G1 X99.635 Y101.432 E6.27341
G1 X99.734 Y101.410 E6.27688
G1 X100.239 Y101.572 E6.29509
G1 X99.771 Y101.816 F12000.000
G1 F1080.000
G1 X99.974 Y101.881 E6.30242
G1 X100.121 Y102.534 E6.32541
G1 X100.116 Y102.735 E6.33232
G1 X99.728 Y103.769 E6.37030
G1 X99.099 Y104.533 E6.40430
G1 X98.882 Y104.674 E6.41320
G1 X98.247 Y104.873 E6.43607
G1 X98.158 Y104.792 E6.44022
G1 X98.097 Y104.693 F12000.000
G1 F1080.000
G1 X98.234 Y104.077 E6.46192
G1 X99.278 Y102.268 E6.53371
G1 X99.771 Y101.816 E6.55670
G1 E3.55670 F3000.00000
G1 F9600.000
G1 X99.278 Y102.268 E3.35817
G1 X98.234 Y104.077 E2.73810
G1 X98.097 Y104.693 E2.55061
G1 E0.55670 F3000.00000
G92 E0
G1 X103.768 Y109.289 F12000.000
G1 E6.00000 F3000.00000
G1 F1080.000
G1 X104.392 Y108.715 E6.02916
G1 X104.769 Y108.526 E6.04364
G1 X105.926 Y108.353 E6.08384
G1 X107.014 Y108.543 E6.12180
G1 X107.337 Y108.713 E6.13435
G1 X107.962 Y109.289 E6.16357
G1 X107.992 Y109.384 E6.16700
G1 X107.880 Y109.902 E6.18519
G1 X107.813 Y109.976 E6.18862
G1 X106.940 Y110.243 E6.22002
G1 X104.732 Y110.234 E6.29591
G1 X103.916 Y109.975 E6.32531
G1 X103.850 Y109.902 E6.32871
G1 X103.738 Y109.384 E6.34690
G1 X103.750 Y109.347 E6.34826
G1 X104.138 Y109.459 F12000.000
G1 F1080.000
G1 X104.627 Y109.008 E6.37114
G1 X104.857 Y108.892 E6.38000
G1 X105.895 Y108.728 E6.41611
G1 X106.872 Y108.891 E6.45015
G1 X107.103 Y109.008 E6.45904
G1 X107.592 Y109.459 E6.48191
G1 X107.547 Y109.669 E6.48929
G1 X106.912 Y109.868 E6.51216
G1 X104.764 Y109.859 E6.58602
G1 X104.183 Y109.669 E6.60701
G1 X104.151 Y109.517 E6.61233
G1 E3.61233 F3000.00000
G1 F9600.000
G1 X104.627 Y109.008 E3.40517
G1 X104.857 Y108.892 E3.32863
G1 X105.895 Y108.728 E3.01670
G1 X106.872 Y108.891 E2.72274
G1 X107.103 Y109.008 E2.64594
G1 X107.592 Y109.459 E2.44837
G1 X107.547 Y109.669 E2.38462
G1 X106.912 Y109.868 E2.18713
G1 X104.764 Y109.859 E1.54919
G1 X104.183 Y109.669 E1.36791
G1 X104.151 Y109.517 E1.32197
G1 E0.61233 F3000.00000
G92 E0
G1 X108.273 Y111.448 F12000.000
G1 E6.00000 F3000.00000
G1 F1080.000
G1 X108.900 Y110.631 E6.03541
G1 X109.594 Y110.104 E6.06534
G1 X110.416 Y109.756 E6.09601
G1 X111.337 Y109.622 E6.12801
G1 X111.466 Y109.627 E6.13245
G1 X112.309 Y109.744 E6.16171
G1 X113.124 Y110.075 E6.19196
G1 X113.940 Y110.702 E6.22731
G1 X114.472 Y111.406 E6.25763
G1 X114.814 Y112.217 E6.28789
G1 X114.948 Y113.223 E6.32278
G1 X114.828 Y114.106 E6.35343
G1 X114.496 Y114.924 E6.38376
G1 X113.869 Y115.741 E6.41918
G1 X113.165 Y116.273 E6.44950
G1 X112.354 Y116.616 E6.47976
G1 X111.336 Y116.750 E6.51504
G1 X110.464 Y116.629 E6.54530
G1 X109.650 Y116.299 E6.57548
G1 X108.829 Y115.670 E6.61103
G1 X108.297 Y114.966 E6.64136
G1 X107.955 Y114.155 E6.67162
G1 X107.821 Y113.137 E6.70690
G1 X107.941 Y112.265 E6.73716
G1 X108.250 Y111.503 E6.76542
G1 X108.611 Y111.612 F12000.000
G1 F1080.000
G1 X109.147 Y110.914 E6.79566
G1 X109.801 Y110.418 E6.82390
G1 X110.536 Y110.112 E6.85126
G1 X111.433 Y110.000 E6.88234
G1 X112.233 Y110.112 E6.91008
G1 X112.958 Y110.412 E6.93705
G1 X113.656 Y110.948 E6.96731
G1 X114.158 Y111.612 E6.99592
G1 X114.458 Y112.337 E7.02289
G1 X114.574 Y113.199 E7.05280
G1 X114.471 Y113.988 E7.08014
G1 X114.158 Y114.760 E7.10875
G1 X113.622 Y115.458 E7.13899
G1 X112.958 Y115.960 E7.16760
G1 X112.234 Y116.260 E7.19457
G1 X111.360 Y116.375 E7.22485
G1 X110.582 Y116.272 E7.25182
G1 X109.814 Y115.961 E7.28029
G1 X109.113 Y115.424 E7.31067
G1 X108.611 Y114.760 E7.33928
G1 X108.311 Y114.035 E7.36624
G1 X108.196 Y113.161 E7.39653
G1 X108.298 Y112.384 E7.42349
G1 X108.588 Y111.668 E7.45004
G1 E4.45004 F3000.00000
G1 F9600.000
G1 X109.147 Y110.914 E4.17158
G1 X109.801 Y110.418 E3.92774
G1 X110.536 Y110.112 E3.69136
G1 X111.433 Y110.000 E3.42298
G1 X112.233 Y110.112 E3.18330
G1 X112.958 Y110.412 E2.95042
G1 X113.656 Y110.948 E2.68902
G1 X114.158 Y111.612 E2.44188
G1 X114.458 Y112.337 E2.20895
G1 X114.574 Y113.199 E1.95065
G1 X114.471 Y113.988 E1.71447
G1 X114.326 Y114.345 E1.60004
G1 E1.45004 F3000.00000
G92 E0
G1 X117.848 Y108.371 F12000.000
G1 E6.00000 F3000.00000
G1 F1080.000
G1 X117.230 Y108.947 E6.02905
G1 X116.193 Y110.743 E6.10031
G1 X116.114 Y110.916 E6.10684
G1 X115.950 Y111.698 E6.13432
G1 X115.981 Y111.793 E6.13775
G1 X116.373 Y112.149 E6.15595
G1 X116.471 Y112.170 E6.15938
G1 X117.273 Y111.905 E6.18843
G1 X118.013 Y110.617 F12000.000
G1 F1080.000
G1 X117.358 Y111.427 E6.22424
G1 X117.186 Y111.547 E6.23144
G1 X116.508 Y111.765 E6.25594
G1 X116.349 Y111.621 E6.26329
G1 X116.476 Y111.017 E6.28450
G1 X117.540 Y109.160 E6.35805
G1 X118.033 Y108.709 E6.38103
G1 X118.137 Y108.742 E6.38480
G1 E3.38480 F3000.00000
G1 F9600.000
G1 X118.033 Y108.709 E3.35224
G1 E0.38480 F3000.00000
G92 E0
G1 X110.388 Y117.883 F12000.000
G1 E6.00000 F3000.00000
G1 F1080.000
G1 X111.059 Y118.508 E6.03150
G1 X112.153 Y120.419 E6.10721
G1 X112.208 Y120.668 E6.11595
G1 E3.11595 F3000.00000
G1 F9600.000
G1 X112.153 Y120.419 E3.04039
G1 X111.059 Y118.508 E2.38653
G1 X110.388 Y117.883 E2.11442
G1 E0.11595 F3000.00000
G92 E0
G1 X107.883 Y119.444 F12000.000
G1 X109.537 Y119.221
G1 E6.00000 F3000.00000
G1 F1080.000
G1 X109.535 Y118.928 E6.01008
G1 X109.721 Y118.098 E6.03930
G1 X109.788 Y118.024 E6.04273
G1 X110.292 Y117.863 E6.06092
G1 X110.388 Y117.883 E6.06428
G1 X110.257 Y118.268 F12000.000
G1 F1080.000
G1 X110.053 Y118.333 E6.07167
G1 X109.906 Y118.986 E6.09465
G1 X109.911 Y119.188 E6.10159
G1 X110.255 Y120.131 E6.13610
G1 X110.655 Y120.639 F12000.000
G1 F1080.000
G1 X110.939 Y120.983 E6.15145
G1 X111.930 Y121.148 F12000.000
G1 F1080.000
G1 X111.793 Y120.529 E6.17324
G1 X110.748 Y118.719 E6.24507
G1 X110.257 Y118.268 E6.26800
G1 E3.26800 F3000.00000
G1 F9600.000
G1 X110.748 Y118.719 E3.06997
G1 X111.793 Y120.529 E2.44960
G1 X111.930 Y121.148 E2.26133
G1 E0.26800 F3000.00000
G92 E0
G1 X98.865 Y104.192 F12000.000
G1 E6.00000 F3000.00000
G1 F540.000
G1 X98.695 Y104.074 E6.00712
G1 X99.506 Y102.668 E6.06290
G1 X99.693 Y102.757 E6.07001
G1 X99.399 Y103.543 E6.09889
G1 X98.903 Y104.145 E6.12570
G1 X98.771 Y104.007 F12000.000
G1 X99.526 Y102.445
G1 F1080.000
G1 X99.839 Y102.132 E6.13389
G1 E3.13389 F3000.00000
G1 F9600.000
G1 X99.526 Y102.445 E3.00249
G1 E0.13389 F3000.00000
G92 E0
G1 X103.407 Y95.228 F12000.000
G1 X103.351 Y93.018
G1 E6.00000 F3000.00000
G1 F540.000
G1 X103.333 Y92.812 E6.00712
G1 X104.162 Y92.673 E6.03599
G1 X104.991 Y92.812 E6.06486
G1 X104.973 Y93.018 E6.07198
G1 X103.411 Y93.018 E6.12570
G1 X103.436 Y92.830 F12000.000
G1 E3.12570 F3000.00000
G1 F9600.000
G1 X103.333 Y92.812 E3.06030
G1 X104.162 Y92.673 E2.81091
G1 X104.991 Y92.812 E2.56153
G1 X104.973 Y93.018 E2.50006
G1 X103.411 Y93.018 E2.03609
G1 E0.12570 F3000.00000
G92 E0
G1 X103.407 Y95.228 F12000.000
G1 X100.616 Y94.760
G1 E6.00000 F3000.00000
G1 F540.000
G1 X101.060 Y95.338 E6.02504
G1 X101.339 Y96.011 E6.05009
G1 X101.434 Y96.734 E6.07513
G1 X101.339 Y97.456 E6.10018
G1 X101.060 Y98.129 E6.12522
G1 X100.626 Y98.695 E6.14973
G1 X100.038 Y99.151 E6.17531
G1 X99.365 Y99.430 E6.20034
G1 X98.643 Y99.525 E6.22538
G1 X97.920 Y99.430 E6.25043
G1 X97.247 Y99.151 E6.27547
G1 X96.669 Y98.707 E6.30052
G1 X96.225 Y98.129 E6.32556
G1 X95.947 Y97.456 E6.35061
G1 X95.852 Y96.736 E6.37555
G1 X95.947 Y96.011 E6.40069
G1 X96.225 Y95.338 E6.42574
G1 X96.646 Y94.790 E6.44948
G1 X97.248 Y94.316 E6.47583
G1 X97.920 Y94.037 E6.50083
G1 X98.643 Y93.942 E6.52587
G1 X99.350 Y94.035 E6.55038
G1 X100.039 Y94.317 E6.57596
G1 X100.569 Y94.723 E6.59892
G1 X100.513 Y95.146 F12000.000
G1 X100.349 Y95.027
G1 F540.000
G1 X100.732 Y95.527 E6.62057
G1 X100.973 Y96.109 E6.64223
G1 X101.056 Y96.734 E6.66388
G1 X100.973 Y97.358 E6.68553
