; generated by PrusaSlicer 2.2.0+win64 on 2020-12-11 at 11:00:31 UTC

; 

; external perimeters extrusion width = 0.45mm
; perimeters extrusion width = 0.45mm
; infill extrusion width = 0.45mm
; solid infill extrusion width = 0.45mm
; top infill extrusion width = 0.40mm
; first layer extrusion width = 0.42mm

M201 X9000 Y9000 Z500 E10000 ; sets maximum accelerations, mm/sec^2
M203 X500 Y500 Z12 E120 ; sets maximum feedrates, mm/sec
M204 P1500 R1500 T1500 ; sets acceleration (P, T) and retract acceleration (R), mm/sec^2
M205 X10.00 Y10.00 Z0.20 E2.50 ; sets the jerk limits, mm/sec
M205 S0 T0 ; sets the minimum extruding and travel feed rate, mm/sec
;;; Copy from Cura output
M140 S60 ; set bed temp
M105 ; Read current temp
M190 S60 ; set bed temp and wait
M104 S175 ; set extruder temp
M105 ; Read current temp
M109 S175 ; wait for extruder temp and wait
M82        ; Set E codes absolute (default) - absolute extrusion mode

;;; Copy from Cura config
G21 ;metric values
G90 ;absolute positioning
M82 ;set extruder to absolute mode
M107 ;start with the fan off
G28 X0 Y0 ;move X/Y to min endstops
G28 Z0 ;move Z to min endstops
G1 Z15.0 F200 ;move the platform down 15mm
G92 E0 ;zero the extruded length
G1 F200 E3 ;extrude 3mm of feed stock
G92 E0 ;zero the extruded length again
G1 F200
G0 Y20 F200
M117 Printing...
G5
G21 ; set units to millimeters
G90 ; use absolute coordinates
M82 ; use absolute distances for extrusion
G92 E0
; Filament gcode
M106 S127.5
G1 E-6.00000 F3000.00000
G92 E0
G1 Z0.308 F12000.000
G1 X28.711 Y64.915
G1 E6.00000 F3000.00000
G1 F2160.000
G1 X29.214 Y64.456 E6.03241
G1 X29.786 Y64.289 E6.06078
G1 X128.448 Y57.187 E10.76761
G1 X175.521 Y57.186 E13.00748
G1 X176.056 Y57.292 E13.03347
G1 X176.514 Y57.596 E13.05960
G1 X176.822 Y58.050 E13.08573
G1 X176.933 Y58.588 E13.11186
G1 X176.933 Y137.616 E16.87230
G1 X176.730 Y138.331 E16.90768
G1 X176.496 Y138.624 E16.92553
G1 X176.190 Y138.847 E16.94352
G1 X175.622 Y139.013 E16.97171
G1 X119.580 Y143.025 E19.64523
G1 X38.130 Y143.024 E23.52088
G1 X23.120 Y140.758 E24.24320
G1 X22.545 Y140.510 E24.27302
G1 X22.133 Y140.038 E24.30285
G1 X21.964 Y139.404 E24.33403
G1 X21.970 Y134.234 E24.58006
G1 X28.480 Y65.555 E27.86269
G1 X28.690 Y64.971 E27.89224
G1 X29.005 Y65.111 F12000.000
G1 F2160.000
G1 X29.385 Y64.766 E27.91671
G1 X29.812 Y64.642 E27.93784
G1 X128.464 Y57.541 E32.64422
G1 X175.520 Y57.540 E34.88331
G1 X175.924 Y57.621 E34.90293
G1 X176.267 Y57.849 E34.92255
G1 X176.497 Y58.192 E34.94217
G1 X176.579 Y58.596 E34.96179
G1 X176.579 Y137.609 E38.72152
G1 X176.427 Y138.149 E38.74821
G1 X176.021 Y138.536 E38.77490
G1 X175.593 Y138.660 E38.79610
G1 X119.579 Y142.671 E41.46829
G1 X38.144 Y142.671 E45.34328
G1 X23.192 Y140.411 E46.06281
G1 X22.756 Y140.226 E46.08539
G1 X22.443 Y139.868 E46.10797
G1 X22.318 Y139.390 E46.13150
G1 X22.322 Y134.270 E46.37515
G1 X28.832 Y65.593 E49.65768
G1 X28.985 Y65.168 E49.67918
G1 X29.300 Y65.306 F12000.000
G1 F2160.000
G1 X29.553 Y65.077 E49.69543
G1 X29.837 Y64.995 E49.70950
G1 X128.483 Y57.894 E54.41558
G1 X175.520 Y57.893 E56.65374
G1 X175.789 Y57.947 E56.66681
G1 X176.017 Y58.100 E56.67988
G1 X176.171 Y58.328 E56.69295
G1 X176.225 Y58.597 E56.70602
G1 X176.225 Y137.605 E60.46552
G1 X176.123 Y137.967 E60.48340
G1 X175.851 Y138.226 E60.50128
G1 X175.568 Y138.307 E60.51528
G1 X119.576 Y142.317 E63.18640
G1 X38.156 Y142.317 E67.06069
G1 X23.261 Y140.064 E67.77752
G1 X22.966 Y139.941 E67.79272
G1 X22.755 Y139.701 E67.80791
G1 X22.671 Y139.378 E67.82379
G1 X22.674 Y134.302 E68.06533
G1 X29.184 Y65.630 E71.34764
G1 X29.280 Y65.363 E71.36114
G1 X29.722 Y65.388 F12000.000
G1 F2160.000
G1 X128.501 Y58.248 E76.07366
G1 X175.519 Y58.247 E78.31095
G1 X175.769 Y58.352 E78.32383
G1 X175.871 Y58.601 E78.33666
G1 X175.871 Y137.603 E82.09584
G1 X175.684 Y137.913 E82.11310
G1 X119.573 Y141.963 E84.79005
G1 X38.166 Y141.963 E88.66369
G1 X23.323 Y139.716 E89.37801
G1 X23.067 Y139.533 E89.39299
G1 X23.027 Y134.334 E89.64038
G1 X29.536 Y65.667 E92.92243
G1 X29.689 Y65.438 E92.93555
G1 E89.93555 F3000.00000
G1 F9600.000
G1 X39.264 Y64.741 E87.08555
G1 E86.93555 F3000.00000
G92 E0
G1 X23.252 Y133.835 F12000.000
G1 E6.00000 F3000.00000
G1 F2160.000
G1 X25.061 Y133.835 E6.08609
G1 X25.126 Y133.862 E6.08944
G1 X25.383 Y134.119 E6.10674
G1 X25.410 Y134.184 E6.11009
G1 X25.410 Y136.835 E6.23623
G1 X26.848 Y136.835 E6.30467
G1 X26.848 Y121.184 E7.04940
G1 X26.875 Y121.119 E7.05275
G1 X27.132 Y120.862 E7.07005
G1 X27.197 Y120.835 E7.07340
G1 X108.956 Y120.835 E10.96377
G1 X109.021 Y120.862 E10.96712
G1 X109.278 Y121.119 E10.98442
G1 X109.305 Y121.184 E10.98777
G1 X109.305 Y122.640 E11.05702
G1 X109.279 Y122.703 E11.06029
G1 X109.033 Y122.959 E11.07714
G1 X108.971 Y122.987 E11.08041
G1 X30.910 Y125.878 E14.79738
G1 X30.910 Y139.548 E15.44786
G1 X30.883 Y139.613 E15.45120
G1 X30.626 Y139.870 E15.46851
G1 X30.561 Y139.897 E15.47186
G1 X25.703 Y139.897 E15.70301
G1 E12.70301 F3000.00000
G1 F9600.000
G1 X30.561 Y139.897 E11.26084
G1 X30.626 Y139.870 E11.23994
G1 X30.883 Y139.613 E11.13200
G1 X30.910 Y139.548 E11.11111
G1 X30.910 Y135.310 E9.85301
G1 E9.70301 F3000.00000
G92 E0
G1 X25.894 Y136.851 F12000.000
G1 X21.379 Y141.366
G1 X23.386 Y139.543
G1 E6.00000 F3000.00000
G1 F2160.000
G1 X30.452 Y139.543 E6.33624
G1 X30.556 Y139.439 E6.34322
G1 X30.556 Y125.537 E7.00476
G1 X108.852 Y122.637 E10.73292
G1 X108.951 Y122.534 E10.73972
G1 X108.951 Y121.293 E10.79878
G1 X108.847 Y121.189 E10.80575
G1 X27.306 Y121.189 E14.68580
G1 X27.202 Y121.293 E14.69277
G1 X27.202 Y137.189 E15.44918
G1 X25.056 Y137.189 E15.55130
G1 X25.056 Y134.293 E15.68911
G1 X24.952 Y134.189 E15.69609
G1 X23.306 Y134.189 E15.77444
G1 X23.209 Y134.286 E15.78096
G1 E12.78096 F3000.00000
G1 F9600.000
G1 X23.306 Y134.189 E12.74030
G1 X24.952 Y134.189 E12.25146
G1 X25.056 Y134.293 E12.20794
G1 X25.056 Y137.189 E11.34809
G1 X27.202 Y137.189 E10.71097
G1 X27.202 Y134.562 E9.93096
G1 E9.78096 F3000.00000
G92 E0
G1 X37.644 Y141.705 F12000.000
G1 E6.00000 F3000.00000
G1 F2160.000
G1 X37.644 Y140.336 E6.06516
G1 X37.669 Y140.272 E6.06843
G1 X37.915 Y140.017 E6.08528
G1 X37.978 Y139.989 E6.08855
G1 X116.039 Y137.098 E9.80552
G1 X116.039 Y123.428 E10.45600
G1 X116.065 Y123.362 E10.45934
G1 X116.323 Y123.105 E10.47665
G1 X116.388 Y123.078 E10.48000
G1 X123.751 Y123.078 E10.83038
G1 X123.816 Y123.105 E10.83373
G1 X124.073 Y123.362 E10.85103
G1 X124.100 Y123.428 E10.85438
G1 X124.100 Y128.791 E11.10960
G1 X124.073 Y128.856 E11.11295
G1 X123.816 Y129.113 E11.13025
G1 X123.751 Y129.140 E11.13360
G1 X121.888 Y129.140 E11.22227
G1 X121.823 Y129.113 E11.22562
G1 X121.565 Y128.856 E11.24292
G1 X121.539 Y128.791 E11.24627
G1 X121.539 Y126.140 E11.37242
G1 X120.100 Y126.140 E11.44086
G1 X120.100 Y141.748 E12.18352
G1 X119.649 Y141.780 F12000.000
G1 F2160.000
G1 X119.746 Y141.683 E12.19009
G1 X119.746 Y125.786 E12.94650
G1 X121.892 Y125.786 E13.04862
G1 X121.892 Y128.683 E13.18644
G1 X121.996 Y128.786 E13.19341
G1 X123.643 Y128.786 E13.27176
G1 X123.746 Y128.683 E13.27874
G1 X123.746 Y123.536 E13.52363
G1 X123.643 Y123.432 E13.53061
G1 X116.496 Y123.432 E13.87067
G1 X116.392 Y123.536 E13.87764
G1 X116.392 Y137.439 E14.53919
G1 X38.097 Y140.339 E18.26735
G1 X37.997 Y140.441 E18.27414
G1 X37.997 Y141.683 E18.33320
G1 X38.087 Y141.772 E18.33923
G1 E15.33923 F3000.00000
G1 F9600.000
G1 X37.997 Y141.683 E15.30160
G1 X37.997 Y140.441 E14.93313
G1 X38.097 Y140.339 E14.89074
G1 X46.180 Y140.039 E12.48923
G1 E12.33923 F3000.00000
G92 E0
G1 X113.974 Y124.293 F12000.000
G1 X113.974 Y121.609
G1 X114.391 Y120.613
G1 X113.379 Y119.601
G1 X112.433 Y119.601
G1 X105.058 Y94.419
G1 E6.00000 F3000.00000
G1 F2160.000
G1 X105.315 Y94.162 E6.01730
G1 X105.380 Y94.135 E6.02065
G1 X120.744 Y94.135 E6.75171
G1 X120.809 Y94.162 E6.75505
G1 X121.066 Y94.419 E6.77236
G1 X121.093 Y94.484 E6.77570
G1 X121.093 Y104.648 E7.25933
G1 X121.066 Y104.713 E7.26267
G1 X120.809 Y104.970 E7.27998
G1 X120.744 Y104.997 E7.28332
G1 X105.380 Y104.997 E8.01438
G1 X105.315 Y104.970 E8.01773
G1 X105.058 Y104.713 E8.03503
G1 X105.031 Y104.648 E8.03838
G1 X105.035 Y94.475 E8.52246
G1 X105.385 Y94.593 F12000.000
G1 F2160.000
G1 X105.489 Y94.489 E8.52943
G1 X120.635 Y94.489 E9.25016
G1 X120.739 Y94.593 E9.25714
G1 X120.739 Y104.539 E9.73043
G1 X120.635 Y104.643 E9.73741
G1 X105.489 Y104.643 E10.45814
G1 X105.385 Y104.539 E10.46511
G1 X105.385 Y94.653 E10.93555
G1 E7.93555 F3000.00000
G1 F9600.000
G1 X105.489 Y94.489 E7.87804
G1 X114.895 Y94.489 E5.08555
G1 E4.93555 F3000.00000
G92 E0
G1 X101.982 Y94.490 F12000.000
G1 E6.00000 F3000.00000
G1 F2160.000
G1 X102.009 Y94.555 E6.00335
G1 X102.009 Y104.719 E6.48697
G1 X101.982 Y104.784 E6.49032
G1 X101.725 Y105.041 E6.50762
G1 X101.660 Y105.068 E6.51097
G1 X86.296 Y105.068 E7.24202
G1 X86.231 Y105.041 E7.24537
G1 X85.974 Y104.784 E7.26267
G1 X85.947 Y104.719 E7.26602
G1 X85.947 Y94.555 E7.74964
G1 X85.974 Y94.490 E7.75299
G1 X86.231 Y94.233 E7.77029
G1 X86.296 Y94.206 E7.77364
G1 X101.660 Y94.206 E8.50470
G1 X101.725 Y94.233 E8.50805
G1 X101.939 Y94.448 E8.52249
G1 X101.655 Y94.664 F12000.000
G1 F2160.000
G1 X101.655 Y104.610 E8.99579
G1 X101.551 Y104.714 E9.00277
G1 X86.405 Y104.714 E9.72350
G1 X86.301 Y104.610 E9.73047
G1 X86.301 Y94.664 E10.20377
G1 X86.405 Y94.560 E10.21074
G1 X101.551 Y94.560 E10.93147
G1 X101.612 Y94.621 E10.93559
G1 E7.93559 F3000.00000
G1 F9600.000
G1 X101.653 Y104.221 E5.08559
G1 E4.93559 F3000.00000
G92 E0
G1 X82.554 Y94.151 F12000.000
G1 E6.00000 F3000.00000
G1 F2160.000
G1 X82.811 Y94.408 E6.01730
G1 X82.838 Y94.474 E6.02065
G1 X82.838 Y104.637 E6.50427
G1 X82.811 Y104.702 E6.50762
G1 X82.554 Y104.959 E6.52492
G1 X82.489 Y104.986 E6.52827
G1 X67.126 Y104.986 E7.25933
G1 X67.061 Y104.959 E7.26267
G1 X66.804 Y104.702 E7.27998
G1 X66.777 Y104.637 E7.28332
G1 X66.777 Y94.474 E7.76695
G1 X66.804 Y94.408 E7.77029
G1 X67.061 Y94.151 E7.78760
G1 X67.126 Y94.124 E7.79094
G1 X82.499 Y94.128 E8.52246
G1 X82.381 Y94.478 F12000.000
G1 F2160.000
G1 X82.484 Y94.582 E8.52943
G1 X82.484 Y104.529 E9.00273
G1 X82.381 Y104.632 E9.00970
G1 X67.234 Y104.632 E9.73043
G1 X67.130 Y104.529 E9.73741
G1 X67.130 Y94.582 E10.21070
G1 X67.234 Y94.478 E10.21768
G1 X82.321 Y94.478 E10.93555
G1 E7.93555 F3000.00000
G1 F9600.000
G1 X82.484 Y94.582 E7.87804
G1 X82.484 Y103.988 E5.08555
G1 E4.93555 F3000.00000
G92 E0
G1 X65.307 Y70.396 F12000.000
G1 X65.307 Y63.537
G1 X45.135 Y65.197
G1 E6.00000 F3000.00000
G1 F2160.000
G1 X45.392 Y65.454 E6.01730
G1 X45.419 Y65.519 E6.02065
G1 X45.419 Y104.882 E7.89371
G1 X45.392 Y104.948 E7.89706
G1 X45.135 Y105.205 E7.91436
G1 X45.070 Y105.232 E7.91771
G1 X29.706 Y105.232 E8.64877
G1 X29.641 Y105.205 E8.65212
G1 X29.384 Y104.948 E8.66942
G1 X29.357 Y104.882 E8.67277
G1 X29.357 Y69.426 E10.35993
G1 E7.35993 F3000.00000
G1 F9600.000
G1 X29.357 Y79.026 E4.50993
G1 E4.35993 F3000.00000
G92 E0
G1 X27.888 Y63.701 F12000.000
G1 X35.196 Y65.170
G1 E6.00000 F3000.00000
G1 F2160.000
G1 X45.070 Y65.170 E6.46985
G1 X45.135 Y65.197 E6.47320
G1 X44.961 Y65.524 F12000.000
G1 F2160.000
G1 X45.065 Y65.627 E6.48018
G1 X45.065 Y104.774 E8.34292
G1 X44.961 Y104.878 E8.34989
G1 X29.815 Y104.878 E9.07062
G1 X29.711 Y104.774 E9.07760
G1 X29.711 Y65.723 E10.93577
G1 X30.300 Y65.524 F12000.000
G1 F2160.000
G1 X44.961 Y65.524 E11.63342
G1 E8.63342 F3000.00000
G1 F9600.000
G1 X35.361 Y65.524 E5.78342
G1 E5.63342 F3000.00000
G92 E0
G1 X46.352 Y63.701 F12000.000
G1 X46.352 Y82.165
G1 X46.620 Y82.431
G1 X46.620 Y87.807
G1 X46.888 Y88.073
G1 X46.888 Y106.537
G1 X63.856 Y104.784
G1 E6.00000 F3000.00000
G1 F2160.000
G1 X63.599 Y105.041 E6.01730
G1 X63.534 Y105.068 E6.02065
G1 X48.171 Y105.068 E6.75171
G1 X48.106 Y105.041 E6.75505
G1 X47.848 Y104.784 E6.77236
G1 X47.822 Y104.719 E6.77570
G1 X47.822 Y65.355 E8.64877
G1 X47.848 Y65.290 E8.65212
G1 X48.106 Y65.033 E8.66942
G1 X48.171 Y65.006 E8.67277
G1 X63.534 Y65.006 E9.40382
G1 X63.599 Y65.033 E9.40717
G1 X63.856 Y65.290 E9.42447
G1 X63.883 Y65.355 E9.42782
G1 X63.879 Y104.728 E11.30134
G1 X63.529 Y104.610 F12000.000
G1 F2160.000
G1 X63.426 Y104.714 E11.30832
G1 X48.279 Y104.714 E12.02905
G1 X48.175 Y104.610 E12.03602
G1 X48.175 Y65.464 E13.89876
G1 X48.279 Y65.360 E13.90574
G1 X63.426 Y65.360 E14.62647
G1 X63.529 Y65.464 E14.63344
G1 X63.529 Y104.550 E16.49333
G1 E13.49333 F3000.00000
G1 F9600.000
G1 X63.426 Y104.714 E13.43581
G1 X54.019 Y104.714 E10.64333
G1 E10.49333 F3000.00000
G92 E0
G1 X65.352 Y106.455 F12000.000
G1 X65.352 Y99.555
G1 X67.061 Y75.759
G1 E6.00000 F3000.00000
G1 F2160.000
G1 X66.804 Y75.502 E6.01730
G1 X66.777 Y75.437 E6.02065
G1 X66.777 Y65.274 E6.50427
G1 X66.804 Y65.208 E6.50762
G1 X67.061 Y64.951 E6.52492
G1 X67.126 Y64.924 E6.52827
G1 X82.489 Y64.924 E7.25933
G1 X82.554 Y64.951 E7.26267
G1 X82.811 Y65.208 E7.27998
G1 X82.838 Y65.274 E7.28332
G1 X82.838 Y75.437 E7.76694
G1 X82.811 Y75.502 E7.77029
G1 X82.554 Y75.759 E7.78759
G1 X82.489 Y75.786 E7.79094
G1 X67.116 Y75.782 E8.52246
G1 X67.234 Y75.432 F12000.000
G1 F2160.000
G1 X67.130 Y75.329 E8.52943
G1 X67.130 Y65.382 E9.00273
G1 X67.234 Y65.278 E9.00970
G1 X82.381 Y65.278 E9.73043
G1 X82.484 Y65.382 E9.73741
G1 X82.484 Y75.329 E10.21070
G1 X82.381 Y75.432 E10.21768
G1 X67.294 Y75.432 E10.93555
G1 E7.93555 F3000.00000
G1 F9600.000
G1 X67.130 Y75.329 E7.87804
G1 X67.130 Y65.922 E5.08555
G1 E4.93555 F3000.00000
G92 E0
G1 X85.974 Y75.584 F12000.000
G1 E6.00000 F3000.00000
G1 F2160.000
G1 X85.947 Y75.519 E6.00335
G1 X85.947 Y65.355 E6.48697
G1 X85.974 Y65.290 E6.49032
G1 X86.231 Y65.033 E6.50762
G1 X86.296 Y65.006 E6.51097
G1 X101.660 Y65.006 E7.24202
G1 X101.725 Y65.033 E7.24537
G1 X101.982 Y65.290 E7.26267
G1 X102.009 Y65.355 E7.26602
G1 X102.009 Y75.519 E7.74964
G1 X101.982 Y75.584 E7.75299
G1 X101.725 Y75.841 E7.77029
G1 X101.660 Y75.868 E7.77364
G1 X86.296 Y75.868 E8.50470
G1 X86.231 Y75.841 E8.50805
G1 X86.016 Y75.626 E8.52249
G1 X86.301 Y75.410 F12000.000
G1 F2160.000
G1 X86.301 Y65.464 E8.99579
G1 X86.405 Y65.360 E9.00276
G1 X101.551 Y65.360 E9.72350
G1 X101.655 Y65.464 E9.73047
G1 X101.655 Y75.410 E10.20377
G1 X101.551 Y75.514 E10.21074
G1 X86.405 Y75.514 E10.93147
G1 X86.343 Y75.453 E10.93559
G1 E7.93559 F3000.00000
G1 F9600.000
G1 X86.303 Y65.853 E5.08559
G1 E4.93559 F3000.00000
G92 E0
G1 X105.058 Y75.513 F12000.000
G1 E6.00000 F3000.00000
G1 F2160.000
G1 X105.031 Y75.448 E6.00335
G1 X105.031 Y65.284 E6.48697
G1 X105.058 Y65.219 E6.49032
G1 X105.315 Y64.962 E6.50762
G1 X105.380 Y64.935 E6.51097
G1 X120.744 Y64.935 E7.24202
G1 X120.809 Y64.962 E7.24537
G1 X121.066 Y65.219 E7.26267
G1 X121.093 Y65.284 E7.26602
G1 X121.093 Y75.448 E7.74964
G1 X121.066 Y75.513 E7.75299
G1 X120.809 Y75.770 E7.77029
G1 X120.744 Y75.797 E7.77364
G1 X105.380 Y75.797 E8.50470
G1 X105.315 Y75.770 E8.50805
G1 X105.101 Y75.555 E8.52249
G1 X105.385 Y75.339 F12000.000
G1 F2160.000
G1 X105.385 Y65.393 E8.99579
G1 X105.489 Y65.289 E9.00276
G1 X120.635 Y65.289 E9.72350
G1 X120.739 Y65.393 E9.73047
G1 X120.739 Y75.339 E10.20377
G1 X120.635 Y75.443 E10.21074
G1 X105.489 Y75.443 E10.93147
G1 X105.428 Y75.382 E10.93559
G1 E7.93559 F3000.00000
G1 F9600.000
G1 X105.387 Y65.782 E5.08559
G1 E4.93559 F3000.00000
G92 E0
G1 X103.520 Y92.737 F12000.000
G1 X103.520 Y106.466
G1 X104.433 Y112.916
G1 X105.068 Y112.916
G1 X111.518 Y119.366
G1 X112.463 Y119.366
G1 X112.433 Y119.601
G1 X113.379 Y119.601
G1 X114.391 Y120.613
G1 X125.514 Y120.605
G1 X170.195 Y138.132
G1 E6.00000 F3000.00000
G1 F2160.000
G1 X128.336 Y138.132 E7.99183
G1 X128.271 Y138.105 E7.99518
G1 X128.014 Y137.848 E8.01248
G1 X127.987 Y137.783 E8.01583
G1 X127.987 Y118.132 E8.95089
G1 X113.336 Y118.132 E9.64804
G1 X113.271 Y118.105 E9.65139
G1 X113.014 Y117.848 E9.66869
G1 X112.987 Y117.783 E9.67204
G1 X112.987 Y107.619 E10.15566
G1 X113.014 Y107.554 E10.15901
G1 X113.271 Y107.297 E10.17631
G1 X113.336 Y107.270 E10.17966
G1 X126.987 Y107.270 E10.82922
G1 X126.987 Y88.932 E11.70182
G1 X113.336 Y88.932 E12.35138
G1 X113.271 Y88.905 E12.35473
G1 X113.014 Y88.648 E12.37203
G1 X112.987 Y88.583 E12.37538
G1 X112.987 Y78.419 E12.85900
G1 X113.014 Y78.354 E12.86235
