; generated by PrusaSlicer 2.2.0+win64 on 2020-12-11 at 10:59:22 UTC

; 

; external perimeters extrusion width = 0.45mm
; perimeters extrusion width = 0.45mm
; infill extrusion width = 0.45mm
; solid infill extrusion width = 0.45mm
; top infill extrusion width = 0.40mm
; first layer extrusion width = 0.42mm

M201 X9000 Y9000 Z500 E10000 ; sets maximum accelerations, mm/sec^2
M203 X500 Y500 Z12 E120 ; sets maximum feedrates, mm/sec
M204 P1500 R1500 T1500 ; sets acceleration (P, T) and retract acceleration (R), mm/sec^2
M205 X10.00 Y10.00 Z0.20 E2.50 ; sets the jerk limits, mm/sec
M205 S0 T0 ; sets the minimum extruding and travel feed rate, mm/sec
;;; Copy from Cura output
M140 S60 ; set bed temp
M105 ; Read current temp
M190 S60 ; set bed temp and wait
M104 S175 ; set extruder temp
M105 ; Read current temp
M109 S175 ; wait for extruder temp and wait
M82        ; Set E codes absolute (default) - absolute extrusion mode

;;; Copy from Cura config
G21 ;metric values
G90 ;absolute positioning
M82 ;set extruder to absolute mode
M107 ;start with the fan off
G28 X0 Y0 ;move X/Y to min endstops
G28 Z0 ;move Z to min endstops
G1 Z15.0 F200 ;move the platform down 15mm
G92 E0 ;zero the extruded length
G1 F200 E3 ;extrude 3mm of feed stock
G92 E0 ;zero the extruded length again
G1 F200
G0 Y20 F200
M117 Printing...
G5
G21 ; set units to millimeters
G90 ; use absolute coordinates
M82 ; use absolute distances for extrusion
G92 E0
; Filament gcode
M106 S127.5
G1 E-6.00000 F3000.00000
G92 E0
G1 Z0.308 F12000.000
G1 X28.608 Y61.847
G1 E6.00000 F3000.00000
G1 F2160.000
G1 X28.972 Y61.365 E6.02873
G1 X34.130 Y57.847 E6.32578
G1 X34.813 Y57.626 E6.35995
G1 X94.895 Y57.623 E9.21886
G1 X178.466 Y57.651 E13.19548
G1 X178.857 Y57.707 E13.21430
G1 X179.218 Y57.870 E13.23312
G1 X184.339 Y61.355 E13.52789
G1 X184.705 Y61.788 E13.55484
G1 X184.871 Y62.329 E13.58179
G1 X184.878 Y113.473 E16.01538
G1 X184.822 Y113.861 E16.03407
G1 X184.660 Y114.222 E16.05289
G1 X184.280 Y114.622 E16.07915
G1 X179.239 Y118.050 E16.36923
G1 X178.870 Y118.222 E16.38860
G1 X178.464 Y118.282 E16.40812
G1 X34.858 Y118.254 E23.24141
G1 X34.477 Y118.192 E23.25981
G1 X34.126 Y118.028 E23.27822
G1 X28.820 Y114.362 E23.58510
G1 X28.568 Y113.934 E23.60875
G1 X28.478 Y113.448 E23.63227
G1 X28.478 Y62.436 E26.05958
G1 X28.596 Y61.905 E26.08545
G1 X28.931 Y61.993 F12000.000
G1 F2160.000
G1 X29.206 Y61.631 E26.10709
G1 X34.316 Y58.148 E26.40134
G1 X34.835 Y57.979 E26.42733
G1 X94.894 Y57.977 E29.28516
G1 X178.465 Y58.005 E33.26177
G1 X179.025 Y58.167 E33.28951
G1 X184.107 Y61.623 E33.58194
G1 X184.390 Y61.950 E33.60250
G1 X184.519 Y62.365 E33.62319
G1 X184.524 Y113.469 E36.05493
G1 X184.363 Y114.030 E36.08267
G1 X184.072 Y114.336 E36.10276
G1 X179.047 Y117.753 E36.39194
G1 X178.462 Y117.928 E36.42096
G1 X34.868 Y117.900 E43.25370
G1 X34.314 Y117.728 E43.28132
G1 X29.087 Y114.129 E43.58329
G1 X28.899 Y113.808 E43.60100
G1 X28.832 Y113.444 E43.61860
G1 X28.832 Y62.437 E46.04574
G1 X28.918 Y62.051 E46.06452
G1 X29.252 Y62.141 F12000.000
G1 F2160.000
G1 X29.436 Y61.900 E46.07894
G1 X34.505 Y58.448 E46.37076
G1 X34.856 Y58.332 E46.38836
G1 X178.463 Y58.359 E53.22169
G1 X178.837 Y58.466 E53.24024
G1 X183.882 Y61.897 E53.53055
G1 X184.078 Y62.118 E53.54459
G1 X184.167 Y62.399 E53.55862
G1 X184.170 Y113.469 E55.98871
G1 X184.063 Y113.842 E56.00716
G1 X183.867 Y114.048 E56.02071
G1 X178.855 Y117.456 E56.30908
G1 X178.462 Y117.575 E56.32861
G1 X34.877 Y117.547 E63.16092
G1 X34.503 Y117.429 E63.17956
G1 X29.354 Y113.897 E63.47669
G1 X29.186 Y113.442 E63.49975
G1 X29.186 Y62.437 E65.92677
G1 X29.239 Y62.200 E65.93834
G1 E62.93834 F3000.00000
G1 F9600.000
G1 X29.436 Y61.900 E62.83190
G1 X34.505 Y58.448 E61.01125
G1 X34.856 Y58.332 E60.90147
G1 X37.595 Y58.333 E60.08834
G1 E59.93834 F3000.00000
G92 E0
G1 X34.875 Y58.686 F12000.000
G1 E6.00000 F3000.00000
G1 F2160.000
G1 X178.463 Y58.713 E12.83241
G1 X178.648 Y58.766 E12.84159
G1 X183.667 Y62.178 E13.13040
G1 X183.815 Y62.434 E13.14444
G1 X183.816 Y113.467 E15.57277
G1 X183.763 Y113.654 E15.58202
G1 X178.660 Y117.160 E15.87663
G1 X178.462 Y117.221 E15.88647
G1 X34.885 Y117.193 E22.71841
G1 X34.697 Y117.133 E22.72779
G1 X29.623 Y113.667 E23.02018
G1 X29.540 Y113.439 E23.03172
G1 X29.540 Y62.439 E25.45849
G1 X29.666 Y62.168 E25.47272
G1 X34.825 Y58.719 E25.76801
G1 X34.363 Y59.241 F12000.000
G1 F2160.000
G1 X34.363 Y61.908 E25.89493
G1 X30.374 Y61.908 E26.08477
G1 E23.08477 F3000.00000
G1 F9600.000
G1 X34.363 Y61.908 E21.90033
G1 X34.363 Y59.241 E21.10846
G1 E20.08477 F3000.00000
G92 E0
G1 X27.894 Y68.439 F12000.000
G1 X29.717 Y66.970
G1 E6.00000 F3000.00000
G1 F2160.000
G1 X34.363 Y66.970 E6.22108
G1 X34.363 Y70.021 E6.36625
G1 X34.390 Y70.086 E6.36960
G1 X34.647 Y70.343 E6.38690
G1 X34.712 Y70.370 E6.39025
G1 X95.076 Y70.370 E9.26257
G1 X95.141 Y70.343 E9.26592
G1 X95.398 Y70.086 E9.28322
G1 X95.425 Y70.021 E9.28657
G1 X95.425 Y66.970 E9.43175
G1 X101.363 Y66.970 E9.71432
G1 X101.363 Y68.501 E9.78716
G1 X101.390 Y68.566 E9.79051
G1 X101.647 Y68.823 E9.80781
G1 X101.712 Y68.850 E9.81116
G1 X104.076 Y68.850 E9.92363
G1 X104.141 Y68.823 E9.92697
G1 X104.398 Y68.566 E9.94428
G1 X104.425 Y68.501 E9.94762
G1 X104.420 Y58.865 E10.40612
G1 E7.40612 F3000.00000
G1 F9600.000
G1 X104.425 Y68.465 E4.55612
G1 E4.40612 F3000.00000
G92 E0
G1 X99.894 Y60.439 F12000.000
G1 X101.369 Y58.864
G1 E6.00000 F3000.00000
G1 F2160.000
G1 X101.363 Y61.908 E6.14484
G1 X95.425 Y61.908 E6.42741
G1 X95.425 Y58.862 E6.57234
G1 X94.967 Y58.862 F12000.000
G1 F2160.000
G1 X95.071 Y58.966 E6.57932
G1 X95.071 Y62.262 E6.73617
G1 X101.717 Y62.262 E7.05242
G1 X101.717 Y58.986 E7.20831
G1 X101.821 Y58.882 E7.21529
G1 X103.967 Y58.882 E7.31743
G1 X104.071 Y58.986 E7.32441
G1 X104.071 Y68.392 E7.77200
G1 X103.967 Y68.496 E7.77897
G1 X101.821 Y68.496 E7.88111
G1 X101.717 Y68.392 E7.88809
G1 X101.717 Y66.616 E7.97261
G1 X95.071 Y66.616 E8.28886
G1 X95.071 Y69.912 E8.44571
G1 X94.967 Y70.016 E8.45268
G1 X34.821 Y70.016 E11.31468
G1 X34.717 Y69.912 E11.32166
G1 X34.717 Y66.616 E11.47851
G1 X29.821 Y66.616 E11.71149
G1 X29.717 Y66.512 E11.71847
G1 X29.717 Y62.478 E11.91043
G1 X29.844 Y62.262 F12000.000
G1 F2160.000
G1 X34.717 Y62.262 E12.14230
G1 X34.717 Y59.004 E12.29732
G1 E9.29732 F3000.00000
G1 F9600.000
G1 X34.717 Y62.262 E8.33014
G1 X29.844 Y62.262 E6.88348
G1 E6.29732 F3000.00000
G92 E0
G1 X32.894 Y60.439 F12000.000
G1 X78.981 Y83.279
G1 X80.450 Y81.810
G1 E6.00000 F3000.00000
G1 F2160.000
G1 X42.410 Y81.810 E7.81010
G1 X42.409 Y86.426 E8.02973
G1 X42.370 Y87.009 E8.05752
G1 X42.254 Y87.570 E8.08480
G1 X42.075 Y88.093 E8.11110
G1 X41.832 Y88.590 E8.13742
G1 X41.502 Y89.088 E8.16583
G1 X41.105 Y89.539 E8.19445
G1 X40.687 Y89.903 E8.22083
G1 X40.209 Y90.221 E8.24814
G1 X39.694 Y90.476 E8.27549
G1 X39.147 Y90.662 E8.30295
G1 X38.606 Y90.770 E8.32921
G1 X38.039 Y90.811 E8.35628
G1 X37.276 Y90.773 E8.39265
G1 X36.711 Y90.662 E8.42003
G1 X36.186 Y90.484 E8.44640
G1 X35.650 Y90.221 E8.47481
G1 X35.154 Y89.889 E8.50320
G1 X34.738 Y89.523 E8.52956
G1 X34.358 Y89.088 E8.55707
G1 X34.039 Y88.610 E8.58439
G1 X33.785 Y88.094 E8.61177
G1 X33.599 Y87.550 E8.63915
G1 X33.487 Y86.984 E8.66657
G1 X33.450 Y86.415 E8.69372
G1 X33.450 Y75.100 E9.23215
G1 X33.477 Y75.035 E9.23550
G1 X33.734 Y74.778 E9.25280
G1 X33.799 Y74.751 E9.25615
G1 X89.061 Y74.751 E11.88570
G1 X89.126 Y74.778 E11.88905
G1 X89.383 Y75.035 E11.90635
G1 X89.410 Y75.100 E11.90970
G1 X89.410 Y86.415 E12.44812
G1 X89.373 Y86.983 E12.47520
G1 X89.261 Y87.548 E12.50261
G1 X89.075 Y88.094 E12.53008
G1 X88.832 Y88.590 E12.55636
G1 X88.516 Y89.069 E12.58367
G1 X88.139 Y89.506 E12.61111
G1 X87.708 Y89.888 E12.63851
G1 X87.229 Y90.210 E12.66597
G1 X86.695 Y90.475 E12.69435
G1 X86.149 Y90.662 E12.72182
G1 X85.559 Y90.776 E12.75041
G1 X84.819 Y90.811 E12.78567
G1 X84.275 Y90.773 E12.81162
G1 X83.734 Y90.668 E12.83784
G1 X83.187 Y90.484 E12.86531
G1 X82.650 Y90.221 E12.89375
G1 X82.154 Y89.889 E12.92216
G1 X81.721 Y89.506 E12.94964
G1 X81.358 Y89.088 E12.97598
G1 X81.051 Y88.631 E13.00222
G1 X80.794 Y88.116 E13.02958
G1 X80.605 Y87.572 E13.05699
G1 X80.484 Y86.961 E13.08665
G1 X80.450 Y86.415 E13.11266
G1 X80.450 Y81.870 E13.32891
G1 X80.804 Y81.456 F12000.000
G1 F2160.000
G1 X42.056 Y81.456 E15.17269
G1 X42.055 Y86.420 E15.40889
G1 X42.020 Y86.950 E15.43415
G1 X41.915 Y87.468 E15.45930
G1 X41.752 Y87.948 E15.48343
G1 X41.519 Y88.424 E15.50864
G1 X41.228 Y88.864 E15.53374
G1 X40.863 Y89.280 E15.56008
G1 X40.463 Y89.628 E15.58531
G1 X40.024 Y89.920 E15.61042
G1 X39.548 Y90.153 E15.63559
G1 X39.045 Y90.323 E15.66087
G1 X38.549 Y90.421 E15.68495
G1 X38.025 Y90.458 E15.70995
G1 X37.331 Y90.424 E15.74298
G1 X36.792 Y90.317 E15.76916
G1 X36.311 Y90.153 E15.79331
G1 X35.836 Y89.920 E15.81848
G1 X35.378 Y89.615 E15.84468
G1 X34.996 Y89.280 E15.86883
G1 X34.645 Y88.882 E15.89410
G1 X34.340 Y88.424 E15.92028
G1 X34.107 Y87.949 E15.94546
G1 X33.943 Y87.468 E15.96962
G1 X33.839 Y86.949 E15.99481
G1 X33.804 Y86.409 E16.02056
G1 X33.804 Y75.208 E16.55355
G1 X33.908 Y75.104 E16.56053
G1 X88.952 Y75.104 E19.17975
G1 X89.056 Y75.208 E19.18672
G1 X89.056 Y86.409 E19.71973
G1 X89.023 Y86.927 E19.74439
G1 X88.922 Y87.446 E19.76957
G1 X88.752 Y87.949 E19.79483
G1 X88.519 Y88.424 E19.82000
G1 X88.228 Y88.864 E19.84511
G1 X87.880 Y89.264 E19.87035
G1 X87.483 Y89.615 E19.89553
G1 X87.042 Y89.909 E19.92076
G1 X86.569 Y90.144 E19.94592
G1 X86.068 Y90.317 E19.97113
G1 X85.528 Y90.424 E19.99730
G1 X84.833 Y90.458 E20.03043
G1 X84.311 Y90.421 E20.05534
G1 X83.814 Y90.323 E20.07942
G1 X83.311 Y90.153 E20.10469
G1 X82.836 Y89.920 E20.12985
G1 X82.379 Y89.615 E20.15603
G1 X81.980 Y89.264 E20.18130
G1 X81.645 Y88.882 E20.20547
G1 X81.351 Y88.443 E20.23060
G1 X81.116 Y87.969 E20.25577
G1 X80.943 Y87.468 E20.28098
G1 X80.836 Y86.927 E20.30726
G1 X80.804 Y86.409 E20.33192
G1 X80.804 Y81.516 E20.56475
G1 E17.56475 F3000.00000
G1 F9600.000
G1 X71.204 Y81.502 E14.71475
G1 E14.56475 F3000.00000
G92 E0
G1 X55.677 Y93.373 F12000.000
G1 E6.00000 F3000.00000
G1 F2160.000
G1 X93.717 Y93.373 E7.81010
G1 X93.717 Y88.769 E8.02921
G1 X93.751 Y88.223 E8.05524
G1 X93.862 Y87.656 E8.08269
G1 X94.043 Y87.112 E8.11001
G1 X94.319 Y86.553 E8.13965
G1 X94.625 Y86.095 E8.16587
G1 X94.989 Y85.678 E8.19221
G1 X95.422 Y85.295 E8.21970
G1 X95.918 Y84.962 E8.24812
G1 X96.434 Y84.708 E8.27549
G1 X96.980 Y84.522 E8.30294
G1 X97.542 Y84.410 E8.33024
G1 X98.109 Y84.372 E8.35726
G1 X98.826 Y84.407 E8.39143
G1 X99.416 Y84.522 E8.42004
G1 X99.963 Y84.709 E8.44750
G1 X100.497 Y84.974 E8.47592
G1 X100.973 Y85.295 E8.50322
G1 X101.406 Y85.678 E8.53074
G1 X101.770 Y86.096 E8.55711
G1 X102.088 Y86.574 E8.58441
G1 X102.351 Y87.110 E8.61283
G1 X102.535 Y87.658 E8.64033
G1 X102.640 Y88.201 E8.66664
G1 X102.677 Y88.769 E8.69373
G1 X102.677 Y100.084 E9.23215
G1 X102.650 Y100.149 E9.23550
G1 X102.393 Y100.406 E9.25280
G1 X102.328 Y100.433 E9.25615
G1 X47.067 Y100.433 E11.88570
G1 X47.001 Y100.406 E11.88905
G1 X46.744 Y100.149 E11.90635
G1 X46.717 Y100.084 E11.90970
G1 X46.717 Y88.769 E12.44812
G1 X46.754 Y88.201 E12.47521
G1 X46.860 Y87.658 E12.50152
G1 X47.053 Y87.088 E12.53013
G1 X47.296 Y86.593 E12.55640
G1 X47.611 Y86.114 E12.58367
G1 X48.005 Y85.661 E12.61223
G1 X48.439 Y85.280 E12.63969
G1 X48.899 Y84.973 E12.66601
G1 X49.412 Y84.717 E12.69330
G1 X49.956 Y84.528 E12.72070
G1 X50.569 Y84.407 E12.75043
G1 X51.288 Y84.372 E12.78468
G1 X51.874 Y84.413 E12.81267
G1 X52.439 Y84.528 E12.84008
G1 X52.983 Y84.717 E12.86747
G1 X53.477 Y84.962 E12.89373
G1 X53.936 Y85.267 E12.91994
G1 X54.389 Y85.661 E12.94850
G1 X54.769 Y86.095 E12.97597
G1 X55.087 Y86.572 E13.00327
G1 X55.342 Y87.089 E13.03066
G1 X55.529 Y87.635 E13.05813
G1 X55.640 Y88.199 E13.08551
G1 X55.677 Y88.757 E13.11212
G1 X55.677 Y93.313 E13.32891
G1 X55.323 Y93.727 F12000.000
G1 F2160.000
G1 X94.071 Y93.727 E15.17269
G1 X94.071 Y88.774 E15.40838
G1 X94.104 Y88.257 E15.43304
G1 X94.207 Y87.737 E15.45827
G1 X94.375 Y87.235 E15.48343
G1 X94.619 Y86.740 E15.50970
G1 X94.913 Y86.302 E15.53481
G1 X95.247 Y85.920 E15.55898
G1 X95.646 Y85.569 E15.58425
G1 X96.104 Y85.264 E15.61043
G1 X96.579 Y85.031 E15.63559
G1 X97.082 Y84.861 E15.66087
G1 X97.578 Y84.763 E15.68495
G1 X98.102 Y84.726 E15.70995
G1 X98.796 Y84.760 E15.74298
G1 X99.335 Y84.867 E15.76915
G1 X99.836 Y85.039 E15.79436
G1 X100.310 Y85.275 E15.81954
G1 X100.748 Y85.569 E15.84465
G1 X101.147 Y85.919 E15.86992
G1 X101.495 Y86.320 E15.89516
G1 X101.787 Y86.760 E15.92027
G1 X102.020 Y87.235 E15.94544
G1 X102.190 Y87.737 E15.97071
G1 X102.291 Y88.257 E15.99588
G1 X102.323 Y88.774 E16.02055
G1 X102.323 Y99.976 E16.55355
G1 X102.220 Y100.079 E16.56053
G1 X47.175 Y100.079 E19.17975
G1 X47.071 Y99.976 E19.18672
G1 X47.071 Y88.774 E19.71973
G1 X47.104 Y88.257 E19.74439
G1 X47.205 Y87.738 E19.76956
G1 X47.384 Y87.214 E19.79589
G1 X47.608 Y86.760 E19.81999
G1 X47.899 Y86.320 E19.84510
G1 X48.263 Y85.904 E19.87142
G1 X48.662 Y85.555 E19.89663
G1 X49.085 Y85.275 E19.92075
G1 X49.558 Y85.039 E19.94592
G1 X50.059 Y84.867 E19.97113
G1 X50.599 Y84.760 E19.99730
G1 X51.294 Y84.726 E20.03043
G1 X51.816 Y84.763 E20.05532
G1 X52.335 Y84.867 E20.08051
G1 X52.836 Y85.039 E20.10574
G1 X53.291 Y85.264 E20.12985
G1 X53.731 Y85.555 E20.15497
G1 X54.131 Y85.903 E20.18021
G1 X54.482 Y86.302 E20.20548
G1 X54.776 Y86.740 E20.23060
G1 X55.011 Y87.214 E20.25576
G1 X55.190 Y87.738 E20.28210
G1 X55.288 Y88.234 E20.30617
G1 X55.323 Y88.763 E20.33140
G1 X55.323 Y93.667 E20.56475
G1 E17.56475 F3000.00000
G1 F9600.000
G1 X64.923 Y93.682 E14.71475
G1 E14.56475 F3000.00000
G92 E0
G1 X95.141 Y105.535 F12000.000
G1 E6.00000 F3000.00000
G1 F2160.000
G1 X95.398 Y105.792 E6.01730
G1 X95.425 Y105.857 E6.02065
G1 X95.425 Y108.908 E6.16582
G1 X101.363 Y108.908 E6.44839
G1 X101.363 Y107.377 E6.52123
G1 X101.390 Y107.312 E6.52458
G1 X101.647 Y107.055 E6.54188
G1 X101.712 Y107.028 E6.54523
G1 X104.076 Y107.028 E6.65770
G1 X104.141 Y107.055 E6.66105
G1 X104.398 Y107.312 E6.67835
G1 X104.425 Y107.377 E6.68170
G1 X104.413 Y117.029 E7.14098
G1 E4.14098 F3000.00000
G1 F9600.000
G1 X104.425 Y107.429 E1.29098
G1 E1.14098 F3000.00000
G92 E0
G1 X99.894 Y115.439 F12000.000
G1 X101.375 Y117.029
G1 E6.00000 F3000.00000
G1 F2160.000
G1 X101.363 Y113.970 E6.14555
G1 X95.425 Y113.970 E6.42812
G1 X95.422 Y117.028 E6.57362
G1 E3.57362 F3000.00000
G1 F9600.000
G1 X95.425 Y113.970 E2.66586
G1 X101.363 Y113.970 E0.90292
G1 X101.366 Y114.574 E0.72362
G1 E0.57362 F3000.00000
G92 E0
G1 X99.894 Y119.843 F12000.000
G1 X105.890 Y119.843
G1 X106.661 Y119.698
G1 X106.681 Y105.559
G1 X95.141 Y105.535
G1 E6.00000 F3000.00000
G1 F2160.000
G1 X95.076 Y105.508 E6.00335
G1 X34.712 Y105.508 E8.87567
G1 X34.647 Y105.535 E8.87902
G1 X34.390 Y105.792 E8.89632
G1 X34.363 Y105.857 E8.89967
G1 X34.363 Y108.908 E9.04485
G1 X29.717 Y108.908 E9.26592
G1 E6.26592 F3000.00000
G1 F9600.000
G1 X34.363 Y108.908 E4.88661
G1 X34.363 Y105.857 E3.98087
G1 X34.390 Y105.792 E3.95997
G1 X34.647 Y105.535 E3.85203
G1 X34.712 Y105.508 E3.83113
G1 X36.111 Y105.508 E3.41592
G1 E3.26592 F3000.00000
G92 E0
G1 X27.894 Y115.439 F12000.000
G1 X30.381 Y113.970
G1 E6.00000 F3000.00000
G1 F2160.000
G1 X34.363 Y113.970 E6.18951
G1 X34.363 Y116.691 E6.31898
G1 X34.778 Y116.973 F12000.000
G1 F2160.000
G1 X34.717 Y116.912 E6.32306
G1 X34.717 Y113.616 E6.47992
G1 X29.862 Y113.616 E6.71092
G1 E3.71092 F3000.00000
G1 F9600.000
G1 X34.717 Y113.616 E2.26969
G1 X34.717 Y116.912 E1.29109
G1 X34.778 Y116.973 E1.26559
G1 E0.71092 F3000.00000
G92 E0
G1 X27.894 Y107.439 F12000.000
G1 X29.717 Y109.366
G1 E6.00000 F3000.00000
G1 F2160.000
G1 X29.821 Y109.262 E6.00698
G1 X34.717 Y109.262 E6.23996
G1 X34.717 Y105.966 E6.39681
G1 X34.821 Y105.862 E6.40379
G1 X94.967 Y105.862 E9.26579
G1 X95.071 Y105.966 E9.27276
G1 X95.071 Y109.262 E9.42961
G1 X101.717 Y109.262 E9.74586
G1 X101.717 Y107.486 E9.83038
G1 X101.821 Y107.382 E9.83735
G1 X103.967 Y107.382 E9.93950
G1 X104.071 Y107.486 E9.94647
G1 X104.071 Y116.892 E10.39406
G1 X103.967 Y116.996 E10.40104
G1 X101.821 Y116.996 E10.50318
G1 X101.717 Y116.892 E10.51016
