; generated by PrusaSlicer 2.2.0+win64 on 2020-12-02 at 16:38:36 UTC

; 

; external perimeters extrusion width = 0.45mm
; perimeters extrusion width = 0.45mm
; infill extrusion width = 0.45mm
; solid infill extrusion width = 0.45mm
; top infill extrusion width = 0.40mm
; first layer extrusion width = 0.42mm

M201 X9000 Y9000 Z500 E10000 ; sets maximum accelerations, mm/sec^2
M203 X500 Y500 Z12 E120 ; sets maximum feedrates, mm/sec
M204 P1500 R1500 T1500 ; sets acceleration (P, T) and retract acceleration (R), mm/sec^2
M205 X10.00 Y10.00 Z0.20 E2.50 ; sets the jerk limits, mm/sec
M205 S0 T0 ; sets the minimum extruding and travel feed rate, mm/sec
;;; Copy from Cura output
M140 S60 ; set bed temp
M105 ; Read current temp
M190 S60 ; set bed temp and wait
M104 S175 ; set extruder temp
M105 ; Read current temp
M109 S175 ; wait for extruder temp and wait
M82        ; Set E codes absolute (default) - absolute extrusion mode

;;; Copy from Cura config
G21 ;metric values
G90 ;absolute positioning
M82 ;set extruder to absolute mode
M107 ;start with the fan off
G28 X0 Y0 ;move X/Y to min endstops
G28 Z0 ;move Z to min endstops
G1 Z15.0 F200 ;move the platform down 15mm
G92 E0 ;zero the extruded length
G1 F200 E3 ;extrude 3mm of feed stock
G92 E0 ;zero the extruded length again
G1 F200
G0 Y20 F200
M117 Printing...
G5
G21 ; set units to millimeters
G90 ; use absolute coordinates
M82 ; use absolute distances for extrusion
G92 E0
; Filament gcode
M106 S160.65
G1 E-6.00000 F3000.00000
G92 E0
G1 Z0.350 F12000.000
G1 X98.343 Y92.187
G1 E6.00000 F3000.00000
G1 F2160.000
G1 X98.913 Y91.960 E6.03235
G1 X107.617 Y91.957 E6.49100
G1 X108.586 Y92.065 E6.54239
G1 X109.424 Y92.350 E6.58904
G1 X110.375 Y92.927 E6.64765
G1 X111.060 Y93.612 E6.69867
G1 X111.541 Y94.364 E6.74573
G1 X111.933 Y95.476 E6.80786
G1 X112.026 Y96.324 E6.85281
G1 X112.027 Y97.651 E6.92272
G1 X111.125 Y117.304 E7.95943
G1 X110.778 Y117.818 E7.99216
G1 X110.198 Y118.041 E8.02488
G1 X99.839 Y118.000 E8.57076
G1 X99.327 Y117.657 E8.60323
G1 X99.102 Y117.082 E8.63576
G1 X97.959 Y101.037 E9.48337
G1 X98.001 Y92.697 E9.92290
G1 X98.309 Y92.236 E9.95208
G1 X98.568 Y92.448 F12000.000
G1 F2160.000
G1 X98.956 Y92.303 E9.97390
G1 X107.617 Y92.302 E10.43029
G1 X108.514 Y92.403 E10.47789
G1 X109.308 Y92.675 E10.52212
G1 X110.156 Y93.194 E10.57450
G1 X110.793 Y93.831 E10.62196
G1 X111.246 Y94.542 E10.66640
G1 X111.592 Y95.530 E10.72155
G1 X111.682 Y96.340 E10.76449
G1 X111.682 Y97.638 E10.83290
G1 X110.794 Y117.208 E11.86524
G1 X110.557 Y117.553 E11.88727
G1 X110.163 Y117.698 E11.90940
G1 X99.934 Y117.669 E12.44844
G1 X99.601 Y117.446 E12.46954
G1 X99.447 Y117.076 E12.49064
G1 X98.304 Y101.036 E13.33800
G1 X98.333 Y92.791 E13.77248
G1 X98.534 Y92.498 E13.79124
G1 X98.784 Y92.717 F12000.000
G1 F2160.000
G1 X98.984 Y92.647 E13.80238
G1 X107.616 Y92.647 E14.25726
G1 X108.442 Y92.740 E14.30107
G1 X109.194 Y93.001 E14.34302
G1 X109.937 Y93.460 E14.38906
G1 X110.525 Y94.048 E14.43285
G1 X110.951 Y94.722 E14.47487
G1 X111.251 Y95.578 E14.52265
G1 X111.337 Y96.356 E14.56391
G1 X111.337 Y97.626 E14.63086
G1 X110.464 Y117.109 E15.65856
G1 X110.342 Y117.284 E15.66976
G1 X110.141 Y117.353 E15.68097
G1 X100.032 Y117.338 E16.21364
G1 X99.865 Y117.225 E16.22426
G1 X99.790 Y117.038 E16.23489
G1 X98.648 Y101.010 E17.08161
G1 X98.663 Y92.890 E17.50951
G1 X98.750 Y92.766 E17.51748
G1 E14.51748 F3000.00000
G1 F9600.000
G1 X98.984 Y92.647 E14.43959
G1 X107.616 Y92.647 E11.87684
G1 X108.317 Y92.726 E11.66748
G1 E11.51748 F3000.00000
G92 E0
G1 X99.616 Y112.173 F12000.000
G1 E6.00000 F3000.00000
G1 F2160.000
G1 X99.616 Y106.831 E6.28146
G1 X99.643 Y106.768 E6.28508
G1 X99.893 Y106.517 E6.30375
G1 X99.957 Y106.491 E6.30736
G1 X110.311 Y106.491 E6.85299
G1 X110.374 Y106.517 E6.85660
G1 X110.625 Y106.768 E6.87527
G1 X110.651 Y106.831 E6.87889
G1 X110.651 Y109.080 E6.99736
G1 E3.99736 F3000.00000
G1 F9600.000
G1 X110.651 Y106.831 E3.32990
G1 X110.625 Y106.768 E3.30953
G1 X110.374 Y106.517 E3.20435
G1 E0.99736 F3000.00000
G92 E0
G1 X112.134 Y105.008 F12000.000
G1 X110.205 Y106.836
G1 E6.00000 F3000.00000
G1 F2160.000
G1 X100.062 Y106.836 E6.53448
G1 X99.961 Y106.937 E6.54201
G1 X99.961 Y117.001 E7.07236
G1 E4.07236 F3000.00000
G1 F9600.000
G1 X99.961 Y107.401 E1.22236
G1 E1.07236 F3000.00000
G92 E0
G1 X112.134 Y119.008 F12000.000
G1 X110.306 Y116.769
G1 E6.00000 F3000.00000
G1 F2160.000
G1 X110.306 Y106.937 E6.51812
G1 X110.205 Y106.836 E6.52565
G1 E3.52565 F3000.00000
G1 F9600.000
G1 X110.306 Y106.937 E3.48324
G1 X110.306 Y116.394 E0.67565
G1 E0.52565 F3000.00000
G92 E0
G1 X98.857 Y101.509 F12000.000
G1 E6.00000 F3000.00000
G1 F2160.000
G1 X107.624 Y101.509 E6.46200
G1 X108.443 Y101.419 E6.50542
G1 X109.304 Y101.122 E6.55341
G1 X110.043 Y100.658 E6.59939
G1 X110.661 Y100.040 E6.64541
G1 X111.087 Y99.369 E6.68730
G1 X111.165 Y97.615 F12000.000
G1 F2160.000
G1 X111.071 Y98.421 E6.73007
G1 X110.804 Y99.170 E6.77198
G1 X110.402 Y99.812 E6.81188
G1 X109.842 Y100.377 E6.85377
G1 X109.138 Y100.820 E6.89763
G1 X108.386 Y101.078 E6.93951
G1 X107.615 Y101.164 E6.98042
G1 X98.921 Y101.164 E7.43851
G1 X98.825 Y101.068 E7.44566
G1 E4.44566 F3000.00000
G1 F9600.000
G1 X98.921 Y101.164 E4.40537
G1 X107.615 Y101.164 E1.82457
G1 X108.381 Y101.079 E1.59566
G1 E1.44566 F3000.00000
G92 E0
G1 X96.993 Y90.992 F12000.000
G1 X99.775 Y92.819
G1 E6.00000 F3000.00000
G1 F2160.000
G1 X107.616 Y92.820 E6.41320
G1 X108.008 Y92.864 F12000.000
G1 F2160.000
G1 X108.413 Y92.912 E6.43469
G1 X109.615 Y93.463 F12000.000
G1 F2160.000
G1 X109.835 Y93.602 E6.44841
G1 X110.100 Y93.867 F12000.000
G1 F2160.000
G1 X110.394 Y94.164 E6.47046
G1 X110.537 Y94.389 F12000.000
G1 F2160.000
G1 X110.801 Y94.814 E6.49681
G1 X111.075 Y95.599 F12000.000
G1 F2160.000
G1 X111.165 Y96.368 E6.53761
G1 E3.53761 F3000.00000
G1 F9600.000
G1 X111.075 Y95.599 E3.30776
G1 E0.53761 F3000.00000
G92 E0
G1 X99.203 Y100.782 F12000.000
G1 E6.00000 F3000.00000
G1 F810.000
G1 X99.203 Y93.202 E6.39943
G1 X107.603 Y93.202 E6.84207
G1 X108.319 Y93.282 E6.88006
G1 X108.989 Y93.516 E6.91743
G1 X109.589 Y93.894 E6.95480
G1 X110.091 Y94.395 E6.99217
G1 X110.468 Y94.996 E7.02954
G1 X110.702 Y95.665 E7.06691
G1 X110.783 Y96.382 E7.10491
G1 X110.783 Y97.601 E7.16919
G1 X110.702 Y98.318 E7.20718
G1 X110.468 Y98.987 E7.24455
G1 X110.091 Y99.588 E7.28192
G1 X109.589 Y100.089 E7.31929
G1 X108.989 Y100.467 E7.35666
G1 X108.319 Y100.701 E7.39403
G1 X107.603 Y100.782 E7.43203
G1 X99.263 Y100.782 E7.87150
G1 X99.402 Y100.435 F12000.000
G1 X99.548 Y100.437
G1 F810.000
G1 X99.548 Y93.546 E8.23458
G1 X107.583 Y93.546 E8.65802
G1 X108.242 Y93.621 E8.69295
G1 X108.838 Y93.829 E8.72623
G1 X109.373 Y94.165 E8.75950
G1 X109.819 Y94.612 E8.79277
G1 X110.155 Y95.146 E8.82605
G1 X110.364 Y95.742 E8.85932
G1 X110.438 Y96.401 E8.89425
G1 X110.438 Y97.582 E8.95649
G1 X110.364 Y98.241 E8.99142
G1 X110.155 Y98.837 E9.02469
G1 X109.819 Y99.371 E9.05797
G1 X109.373 Y99.818 E9.09124
G1 X108.838 Y100.154 E9.12452
G1 X108.242 Y100.362 E9.15779
G1 X107.583 Y100.437 E9.19272
G1 X99.608 Y100.437 E9.61300
G1 E6.61300 F3000.00000
G1 F9600.000
G1 X99.548 Y93.546 E4.56738
G1 X102.257 Y93.546 E3.76300
G1 E3.61300 F3000.00000
G92 E0
G1 X107.774 Y99.879 F12000.000
G1 E6.00000 F3000.00000
G1 F810.000
G1 X108.142 Y99.767 E6.02030
G1 X108.662 Y99.489 E6.05134
G1 X109.117 Y99.116 E6.08237
G1 X109.491 Y98.661 E6.11340
G1 X109.768 Y98.141 E6.14444
G1 X109.880 Y97.772 E6.16474
G1 X110.065 Y97.811 E6.17469
G1 X110.025 Y98.164 E6.19341
G1 X109.842 Y98.686 E6.22259
G1 X109.548 Y99.155 E6.25177
G1 X109.156 Y99.547 E6.28095
G1 X108.687 Y99.841 E6.31013
G1 X108.165 Y100.024 E6.33931
G1 X107.812 Y100.064 E6.35802
G1 X107.786 Y99.938 E6.36481
G1 E3.36481 F3000.00000
G1 F9600.000
G1 X108.142 Y99.767 E3.24745
G1 X108.662 Y99.489 E3.07261
G1 X109.117 Y99.116 E2.89778
G1 X109.491 Y98.661 E2.72295
G1 X109.768 Y98.141 E2.54811
G1 X109.880 Y97.772 E2.43372
G1 X110.065 Y97.811 E2.37765
G1 X110.025 Y98.164 E2.27221
G1 X109.842 Y98.686 E2.10782
G1 X109.548 Y99.155 E1.94343
G1 X109.156 Y99.547 E1.77904
G1 X108.687 Y99.841 E1.61465
G1 X108.165 Y100.024 E1.45026
G1 X107.812 Y100.064 E1.34482
G1 X107.786 Y99.938 E1.30656
G1 E0.36481 F3000.00000
G92 E0
G1 X109.880 Y96.211 F12000.000
G1 E6.00000 F3000.00000
G1 F810.000
G1 X109.768 Y95.842 E6.02030
G1 X109.491 Y95.323 E6.05134
G1 X109.117 Y94.867 E6.08237
G1 X108.662 Y94.494 E6.11340
G1 X108.142 Y94.216 E6.14444
G1 X107.774 Y94.104 E6.16474
G1 X107.812 Y93.919 E6.17469
G1 X108.165 Y93.959 E6.19341
G1 X108.687 Y94.142 E6.22259
G1 X109.156 Y94.437 E6.25177
G1 X109.548 Y94.828 E6.28095
G1 X109.842 Y95.297 E6.31013
G1 X110.025 Y95.820 E6.33931
G1 X110.065 Y96.172 E6.35802
G1 X109.939 Y96.199 E6.36481
G1 E3.36481 F3000.00000
G1 F9600.000
G1 X109.768 Y95.842 E3.24745
G1 X109.491 Y95.323 E3.07261
G1 X109.117 Y94.867 E2.89778
G1 X108.662 Y94.494 E2.72295
G1 X108.142 Y94.216 E2.54811
G1 X107.774 Y94.104 E2.43372
G1 X107.812 Y93.919 E2.37764
G1 X108.165 Y93.959 E2.27220
G1 X108.687 Y94.142 E2.10781
G1 X109.156 Y94.437 E1.94342
G1 X109.548 Y94.828 E1.77903
G1 X109.842 Y95.297 E1.61464
G1 X110.025 Y95.820 E1.45025
G1 X110.065 Y96.172 E1.34482
G1 X109.939 Y96.199 E1.30656
G1 E0.36481 F3000.00000
G92 E0
G1 X106.350 Y94.069 F12000.000
G1 E6.00000 F3000.00000
G1 F810.000
G1 X105.849 Y94.213 E6.02742
G1 X105.324 Y94.494 E6.05883
G1 X104.869 Y94.867 E6.08987
G1 X104.495 Y95.323 E6.12090
G1 X104.217 Y95.842 E6.15193
G1 X104.046 Y96.405 E6.18296
G1 X103.989 Y96.992 E6.21400
G1 X104.046 Y97.578 E6.24503
G1 X104.217 Y98.141 E6.27606
G1 X104.495 Y98.661 E6.30710
G1 X104.869 Y99.116 E6.33813
G1 X105.324 Y99.489 E6.36916
G1 X105.843 Y99.767 E6.40020
G1 X106.332 Y99.915 E6.42710
G1 X106.306 Y100.092 E6.43650
G1 X99.893 Y100.092 E6.77443
G1 X99.893 Y93.891 E7.10117
G1 X106.325 Y93.891 E7.44012
G1 X106.341 Y94.010 E7.44643
G1 X105.094 Y94.236 F12000.000
G1 F810.000
G1 X104.624 Y94.622 E7.47850
G1 X104.207 Y95.130 E7.51311
G1 X103.897 Y95.709 E7.54773
G1 X103.707 Y96.338 E7.58234
G1 X103.642 Y96.992 E7.61695
G1 X103.707 Y97.645 E7.65157
G1 X103.897 Y98.274 E7.68618
G1 X104.207 Y98.853 E7.72079
G1 X104.624 Y99.361 E7.75540
G1 X105.094 Y99.747 E7.78747
G1 X100.237 Y99.747 E8.04338
G1 X100.237 Y94.236 E8.33377
G1 X105.034 Y94.236 E8.58651
G1 X104.211 Y94.581 F12000.000
G1 F810.000
G1 X103.919 Y94.937 E8.61081
G1 X103.577 Y95.577 E8.64900
G1 X103.367 Y96.270 E8.68719
G1 X103.296 Y96.992 E8.72539
G1 X103.367 Y97.713 E8.76358
G1 X103.577 Y98.406 E8.80177
G1 X103.919 Y99.046 E8.83996
G1 X104.211 Y99.402 E8.86426
G1 X100.582 Y99.402 E9.05548
G1 X100.582 Y94.581 E9.30951
G1 X104.151 Y94.581 E9.49757
G1 X103.534 Y94.926 F12000.000
G1 F810.000
G1 X103.257 Y95.444 E9.52852
G1 X103.027 Y96.203 E9.57030
G1 X102.949 Y96.992 E9.61207
G1 X103.027 Y97.780 E9.65384
G1 X103.257 Y98.539 E9.69562
G1 X103.534 Y99.057 E9.72657
G1 X100.927 Y99.057 E9.86392
G1 X100.927 Y94.926 E10.08161
G1 X103.474 Y94.926 E10.21580
G1 X105.055 Y95.739 F12000.000
G1 F810.000
G1 X105.359 Y95.357 E10.24150
G1 X105.709 Y95.070 E10.26538
G1 X106.110 Y94.856 E10.28934
G1 X106.579 Y94.721 E10.31508
G1 X106.993 Y94.681 E10.33696
G1 X107.444 Y94.725 E10.36084
G1 X107.877 Y94.856 E10.38471
G1 X108.277 Y95.070 E10.40858
G1 X108.627 Y95.357 E10.43245
G1 X108.914 Y95.708 E10.45633
G1 X109.128 Y96.107 E10.48020
G1 X109.259 Y96.541 E10.50407
G1 X109.304 Y96.992 E10.52795
G1 X109.259 Y97.442 E10.55182
G1 X109.128 Y97.876 E10.57569
G1 X108.914 Y98.275 E10.59956
G1 X108.627 Y98.626 E10.62344
G1 X108.277 Y98.913 E10.64731
G1 X107.877 Y99.127 E10.67118
G1 X107.444 Y99.258 E10.69506
G1 X106.993 Y99.303 E10.71893
G1 X106.542 Y99.258 E10.74280
G1 X106.108 Y99.127 E10.76668
G1 X105.709 Y98.913 E10.79055
G1 X105.359 Y98.626 E10.81442
G1 X105.071 Y98.275 E10.83829
G1 X104.858 Y97.876 E10.86217
G1 X104.726 Y97.442 E10.88604
G1 X104.682 Y96.992 E10.90991
G1 X104.726 Y96.541 E10.93379
G1 X104.858 Y96.107 E10.95766
G1 X105.026 Y95.792 E10.97650
G1 X104.874 Y95.382 F12000.000
G1 X104.783 Y95.515
G1 F810.000
G1 X105.114 Y95.112 E11.00395
G1 X105.516 Y94.782 E11.03141
G1 X105.980 Y94.534 E11.05909
G1 X106.515 Y94.381 E11.08841
G1 X106.993 Y94.334 E11.11373
G1 X107.511 Y94.385 E11.14119
G1 X108.010 Y94.536 E11.16864
G1 X108.469 Y94.782 E11.19609
G1 X108.872 Y95.112 E11.22355
G1 X109.203 Y95.515 E11.25100
G1 X109.448 Y95.975 E11.27845
G1 X109.599 Y96.473 E11.30590
G1 X109.650 Y96.992 E11.33336
G1 X109.599 Y97.510 E11.36081
G1 X109.448 Y98.009 E11.38826
G1 X109.203 Y98.468 E11.41572
G1 X108.872 Y98.871 E11.44317
G1 X108.469 Y99.201 E11.47062
G1 X108.010 Y99.447 E11.49807
G1 X107.511 Y99.598 E11.52553
G1 X106.993 Y99.649 E11.55298
G1 X106.474 Y99.598 E11.58043
G1 X105.976 Y99.447 E11.60789
G1 X105.516 Y99.201 E11.63534
G1 X105.114 Y98.871 E11.66279
G1 X104.783 Y98.468 E11.69024
G1 X104.538 Y98.009 E11.71770
G1 X104.386 Y97.510 E11.74515
G1 X104.335 Y96.992 E11.77260
G1 X104.386 Y96.473 E11.80006
G1 X104.538 Y95.975 E11.82751
G1 X104.755 Y95.568 E11.85180
G1 X105.420 Y94.221 F12000.000
G1 F1620.000
G1 X105.655 Y94.064 E11.85550
G1 X106.509 Y93.963 F12000.000
G1 F1620.000
G1 X106.971 Y93.940 E11.88840
G1 X107.015 Y93.940 E11.89134
G1 X107.625 Y93.970 E11.93609
G1 E8.93609 F3000.00000
G1 F9600.000
G1 X107.015 Y93.940 E8.75457
G1 E5.93609 F3000.00000
G92 E0
G1 X110.014 Y96.359 F12000.000
G1 E6.00000 F3000.00000
G1 F1620.000
G1 X110.044 Y97.013 E6.04431
G1 X110.014 Y97.624 E6.08907
G1 E3.08907 F3000.00000
G1 F9600.000
G1 X110.044 Y97.013 E2.90754
G1 E0.08907 F3000.00000
G92 E0
G1 X107.625 Y100.013 F12000.000
G1 E6.00000 F3000.00000
G1 F1620.000
G1 X107.015 Y100.043 E6.04476
G1 X106.971 Y100.043 E6.04770
G1 X106.491 Y100.019 E6.08202
G1 X105.655 Y99.919 F12000.000
G1 F1620.000
G1 X105.420 Y99.762 E6.08573
G1 E3.08573 F3000.00000
G1 F9600.000
G1 X105.655 Y99.919 E3.00184
G1 E0.08573 F3000.00000
G92 E0
G1 X101.788 Y98.954 F12000.000
G1 E6.00000 F3000.00000
G1 F2700.000
G1 X101.186 Y98.351 E6.04857
G1 X101.186 Y97.824 E6.07868
G1 X102.161 Y98.798 E6.15731
G1 X102.689 Y98.798 E6.18743
G1 X101.186 Y97.296 E6.30864
G1 X101.186 Y96.768 E6.33875
G1 X102.999 Y98.581 E6.48502
G1 X102.771 Y97.825 E6.53006
G1 X101.186 Y96.240 E6.65793
G1 X101.186 Y95.712 E6.68804
G1 X102.714 Y97.239 E6.81126
G1 X102.689 Y96.992 E6.82547
G1 X102.716 Y96.714 E6.84135
G1 X101.187 Y95.185 E6.96475
G1 X101.715 Y95.185 E6.99486
G1 X102.764 Y96.234 E7.07949
G1 X102.772 Y96.152 E7.08418
G1 X102.874 Y95.816 E7.10421
G1 X102.242 Y95.185 E7.15513
G1 X102.770 Y95.185 E7.18524
G1 X103.121 Y95.535 E7.21352
G1 E4.21352 F3000.00000
G1 F9600.000
G1 X102.770 Y95.185 E4.06631
G1 X102.242 Y95.185 E3.90958
G1 X102.874 Y95.816 E3.64454
G1 X102.772 Y96.152 E3.54030
G1 X102.764 Y96.234 E3.51587
G1 X101.715 Y95.185 E3.07537
G1 X101.187 Y95.185 E2.91864
G1 X102.716 Y96.714 E2.27637
G1 X102.689 Y96.992 E2.19370
G1 X102.714 Y97.239 E2.11974
G1 X101.186 Y95.712 E1.47838
G1 X101.186 Y96.099 E1.36352
G1 E1.21352 F3000.00000
G92 E0
G1 X109.924 Y116.798 F12000.000
G1 E6.00000 F3000.00000
G1 F810.000
G1 X100.344 Y116.798 E6.50482
G1 X100.344 Y107.218 E7.00964
G1 X109.924 Y107.218 E7.51446
G1 X109.924 Y116.738 E8.01612
G1 X109.537 Y116.695 F12000.000
G1 X109.579 Y116.454
G1 F810.000
G1 X100.689 Y116.454 E8.48459
G1 X100.689 Y107.563 E8.95306
G1 X109.579 Y107.563 E9.42154
G1 X109.579 Y116.394 E9.88685
G1 X109.234 Y116.109 F12000.000
G1 F810.000
G1 X101.034 Y116.109 E10.31897
G1 X101.034 Y107.908 E10.75109
G1 X109.234 Y107.908 E11.18322
G1 X109.234 Y116.049 E11.61218
G1 X108.889 Y115.764 F12000.000
G1 F810.000
G1 X101.378 Y115.764 E12.00796
G1 X101.378 Y108.253 E12.40373
G1 X108.889 Y108.253 E12.79951
G1 X108.889 Y115.704 E13.19212
G1 X108.544 Y115.419 F12000.000
G1 F810.000
G1 X101.723 Y115.419 E13.55155
G1 X101.723 Y108.598 E13.91098
G1 X108.544 Y108.598 E14.27041
G1 X108.544 Y115.359 E14.62667
G1 X108.199 Y115.074 F12000.000
G1 F810.000
G1 X102.068 Y115.074 E14.94975
G1 X102.068 Y108.943 E15.27283
G1 X108.199 Y108.943 E15.59592
G1 X108.199 Y115.014 E15.91583
G1 E12.91583 F3000.00000
G1 F9600.000
G1 X102.068 Y115.074 E11.09557
G1 X102.068 Y111.605 E10.06583
