; generated by PrusaSlicer 2.2.0+win64 on 2020-11-15 at 11:46:08 UTC

; 

; external perimeters extrusion width = 0.45mm
; perimeters extrusion width = 0.45mm
; infill extrusion width = 0.45mm
; solid infill extrusion width = 0.45mm
; top infill extrusion width = 0.40mm
; support material extrusion width = 0.35mm
; first layer extrusion width = 0.42mm

M201 X9000 Y9000 Z500 E10000 ; sets maximum accelerations, mm/sec^2
M203 X500 Y500 Z12 E120 ; sets maximum feedrates, mm/sec
M204 P1500 R1500 T1500 ; sets acceleration (P, T) and retract acceleration (R), mm/sec^2
M205 X10.00 Y10.00 Z0.20 E2.50 ; sets the jerk limits, mm/sec
M205 S0 T0 ; sets the minimum extruding and travel feed rate, mm/sec
;;; Copy from Cura output
M140 S60 ; set bed temp
M105 ; Read current temp
M190 S60 ; set bed temp and wait
M104 S175 ; set extruder temp
M105 ; Read current temp
M109 S175 ; wait for extruder temp and wait
M82        ; Set E codes absolute (default) - absolute extrusion mode

;;; Copy from Cura config
G21 ;metric values
G90 ;absolute positioning
M82 ;set extruder to absolute mode
M107 ;start with the fan off
G28 X0 Y0 ;move X/Y to min endstops
G28 Z0 ;move Z to min endstops
G1 Z15.0 F200 ;move the platform down 15mm
G92 E0 ;zero the extruded length
G1 F200 E3 ;extrude 3mm of feed stock
G92 E0 ;zero the extruded length again
G1 F200
G0 Y20 F200
M117 Printing...
G5
G21 ; set units to millimeters
G90 ; use absolute coordinates
M82 ; use absolute distances for extrusion
G92 E0
; Filament gcode
M106 S127.5
G1 E-6.00000 F3000.00000
G92 E0
G1 Z0.350 F12000.000
G1 X120.107 Y107.028
G1 E6.00000 F3000.00000
G1 F2160.000
G1 X119.320 Y107.811 E6.06127
G1 X104.280 Y116.129 E7.01008
G1 X103.282 Y116.599 E7.07098
G1 X102.205 Y116.985 E7.13414
G1 X101.092 Y117.264 E7.19748
G1 X100.031 Y117.424 E7.25670
G1 X98.799 Y117.491 E7.32486
G1 X97.565 Y117.424 E7.39306
G1 X96.511 Y117.266 E7.45189
G1 X95.464 Y117.005 E7.51146
G1 X94.240 Y116.567 E7.58320
G1 X93.272 Y116.106 E7.64242
G1 X92.350 Y115.557 E7.70164
G1 X91.358 Y114.828 E7.76962
G1 X90.449 Y113.995 E7.83764
G1 X89.733 Y113.202 E7.89665
G1 X89.059 Y112.294 E7.95909
G1 X88.458 Y111.293 E8.02350
G1 X87.966 Y110.253 E8.08702
G1 X87.579 Y109.170 E8.15054
G1 X87.299 Y108.054 E8.21406
G1 X87.130 Y106.916 E8.27757
G1 X87.074 Y105.767 E8.34109
G1 X87.130 Y104.617 E8.40461
G1 X87.298 Y103.482 E8.46795
G1 X87.579 Y102.363 E8.53164
G1 X87.966 Y101.280 E8.59516
G1 X88.458 Y100.240 E8.65868
G1 X89.050 Y99.253 E8.72219
G1 X89.735 Y98.329 E8.78571
G1 X90.508 Y97.476 E8.84923
G1 X91.360 Y96.703 E8.91274
G1 X92.271 Y96.027 E8.97537
G1 X93.277 Y95.423 E9.04014
G1 X94.384 Y94.906 E9.10758
G1 X95.395 Y94.547 E9.16681
G1 X96.428 Y94.286 E9.22567
G1 X97.584 Y94.106 E9.29025
G1 X115.334 Y92.551 E10.27386
G1 X118.143 Y92.499 E10.42895
G1 X119.025 Y92.569 E10.47780
G1 X119.892 Y92.786 E10.52712
G1 X120.686 Y93.146 E10.57530
G1 X121.415 Y93.666 E10.62470
G1 X122.008 Y94.303 E10.67274
G1 X122.461 Y95.049 E10.72093
G1 X122.760 Y95.879 E10.76966
G1 X122.893 Y96.730 E10.81717
G1 X122.871 Y97.625 E10.86663
G1 X122.711 Y98.458 E10.91346
G1 X120.571 Y106.098 E11.35142
G1 X120.134 Y106.974 E11.40550
G1 X119.829 Y106.823 F12000.000
G1 F2160.000
G1 X119.116 Y107.533 E11.46105
G1 X104.146 Y115.811 E12.40538
G1 X103.154 Y116.279 E12.46596
G1 X102.160 Y116.637 E12.52425
G1 X100.959 Y116.938 E12.59261
G1 X99.915 Y117.091 E12.65089
G1 X98.863 Y117.144 E12.70902
G1 X97.678 Y117.091 E12.77451
G1 X96.582 Y116.928 E12.83567
G1 X95.560 Y116.674 E12.89380
G1 X94.439 Y116.278 E12.95944
G1 X93.437 Y115.804 E13.02061
G1 X92.533 Y115.264 E13.07874
G1 X91.580 Y114.563 E13.14406
G1 X90.705 Y113.764 E13.20949
G1 X89.999 Y112.982 E13.26767
G1 X89.337 Y112.089 E13.32900
G1 X88.763 Y111.131 E13.39065
G1 X88.285 Y110.122 E13.45230
G1 X87.909 Y109.071 E13.51395
G1 X87.638 Y107.987 E13.57559
G1 X87.474 Y106.883 E13.63724
G1 X87.419 Y105.767 E13.69889
G1 X87.473 Y104.652 E13.76054
G1 X87.637 Y103.547 E13.82219
G1 X87.908 Y102.464 E13.88384
G1 X88.285 Y101.412 E13.94549
G1 X88.762 Y100.403 E14.00714
G1 X89.336 Y99.445 E14.06878
G1 X90.001 Y98.548 E14.13043
G1 X90.751 Y97.720 E14.19208
G1 X91.578 Y96.970 E14.25373
G1 X92.475 Y96.305 E14.31538
G1 X93.438 Y95.728 E14.37735
G1 X94.505 Y95.229 E14.44235
G1 X96.512 Y94.620 E14.55815
G1 X97.633 Y94.447 E14.62076
G1 X115.358 Y92.895 E15.60302
G1 X118.142 Y92.844 E15.75674
G1 X118.969 Y92.909 E15.80250
G1 X119.775 Y93.110 E15.84837
G1 X120.513 Y93.445 E15.89312
G1 X121.184 Y93.922 E15.93857
G1 X121.732 Y94.511 E15.98297
G1 X122.153 Y95.202 E16.02766
G1 X122.428 Y95.971 E16.07274
G1 X122.550 Y96.771 E16.11740
G1 X122.527 Y97.596 E16.16295
G1 X122.376 Y98.377 E16.20690
G1 X120.245 Y105.987 E16.64315
G1 X119.856 Y106.769 E16.69138
G1 X119.552 Y106.619 F12000.000
G1 F2160.000
G1 X118.917 Y107.250 E16.74078
G1 X103.988 Y115.504 E17.68250
G1 X103.022 Y115.961 E17.74153
G1 X102.047 Y116.311 E17.79867
G1 X100.909 Y116.596 E17.86344
G1 X98.846 Y116.800 E17.97787
G1 X97.715 Y116.748 E18.04042
G1 X96.646 Y116.589 E18.10007
G1 X95.644 Y116.339 E18.15707
G1 X94.574 Y115.960 E18.21976
G1 X93.597 Y115.498 E18.27940
G1 X92.711 Y114.968 E18.33641
G1 X91.798 Y114.297 E18.39895
G1 X90.998 Y113.571 E18.45860
G1 X90.301 Y112.805 E18.51574
G1 X89.618 Y111.889 E18.57884
G1 X89.066 Y110.966 E18.63821
G1 X88.604 Y109.990 E18.69785
G1 X88.239 Y108.970 E18.75763
G1 X87.975 Y107.917 E18.81755
G1 X87.817 Y106.848 E18.87719
G1 X87.764 Y105.767 E18.93697
G1 X87.817 Y104.685 E18.99675
G1 X87.976 Y103.612 E19.05667
G1 X88.239 Y102.564 E19.11631
G1 X88.603 Y101.544 E19.17609
G1 X89.066 Y100.565 E19.23587
G1 X89.623 Y99.636 E19.29565
G1 X90.268 Y98.766 E19.35543
G1 X90.995 Y97.964 E19.41521
G1 X91.798 Y97.237 E19.47499
G1 X92.676 Y96.586 E19.53533
G1 X93.598 Y96.034 E19.59469
G1 X94.623 Y95.553 E19.65716
G1 X96.596 Y94.955 E19.77099
G1 X97.681 Y94.789 E19.83159
G1 X115.387 Y93.239 E20.81278
G1 X118.142 Y93.189 E20.96489
G1 X118.912 Y93.249 E21.00750
G1 X119.658 Y93.435 E21.04995
G1 X120.340 Y93.743 E21.09126
G1 X120.955 Y94.180 E21.13293
G1 X121.457 Y94.718 E21.17354
G1 X121.843 Y95.354 E21.21463
G1 X122.094 Y96.058 E21.25589
G1 X122.207 Y96.807 E21.29770
G1 X122.184 Y97.561 E21.33931
G1 X122.041 Y98.297 E21.38071
G1 X119.918 Y105.878 E21.81534
G1 X119.578 Y106.565 E21.85765
G1 X119.273 Y106.415 F12000.000
G1 F2160.000
G1 X118.724 Y106.965 E21.90053
G1 X103.830 Y115.198 E22.84003
G1 X101.932 Y115.986 E22.95348
G1 X100.860 Y116.255 E23.01444
G1 X98.832 Y116.455 E23.12697
G1 X97.749 Y116.405 E23.18680
G1 X96.714 Y116.251 E23.24460
G1 X95.728 Y116.005 E23.30070
G1 X94.706 Y115.642 E23.36053
G1 X93.760 Y115.194 E23.41833
G1 X92.888 Y114.673 E23.47443
G1 X92.016 Y114.029 E23.53426
G1 X91.240 Y113.326 E23.59206
G1 X90.557 Y112.573 E23.64816
G1 X89.904 Y111.696 E23.70856
G1 X89.370 Y110.805 E23.76591
G1 X88.922 Y109.856 E23.82382
G1 X88.569 Y108.870 E23.88162
G1 X88.314 Y107.851 E23.93964
G1 X88.160 Y106.813 E23.99755
G1 X88.108 Y105.765 E24.05547
G1 X88.160 Y104.718 E24.11338
G1 X88.314 Y103.680 E24.17129
G1 X88.569 Y102.662 E24.22920
G1 X88.923 Y101.675 E24.28711
G1 X89.370 Y100.728 E24.34491
G1 X89.911 Y99.827 E24.40294
G1 X90.536 Y98.984 E24.46085
G1 X91.240 Y98.207 E24.51876
G1 X92.017 Y97.502 E24.57667
G1 X92.869 Y96.872 E24.63515
G1 X93.760 Y96.338 E24.69250
G1 X94.739 Y95.878 E24.75222
G1 X96.680 Y95.289 E24.86417
G1 X97.727 Y95.131 E24.92265
G1 X115.414 Y93.583 E25.90277
G1 X118.142 Y93.534 E26.05338
G1 X118.857 Y93.589 E26.09301
G1 X119.542 Y93.759 E26.13194
G1 X120.167 Y94.041 E26.16980
G1 X120.725 Y94.437 E26.20756
G1 X121.181 Y94.926 E26.24449
G1 X121.531 Y95.502 E26.28168
G1 X121.760 Y96.143 E26.31925
G1 X121.863 Y96.834 E26.35785
G1 X121.841 Y97.525 E26.39598
G1 X121.706 Y98.214 E26.43477
G1 X119.590 Y105.771 E26.86802
G1 X119.300 Y106.362 E26.90431
G1 X118.995 Y106.212 F12000.000
G1 F2160.000
G1 X118.534 Y106.677 E26.94043
G1 X103.671 Y114.891 E27.87792
G1 X101.817 Y115.660 E27.98873
G1 X100.807 Y115.914 E28.04621
G1 X98.815 Y116.111 E28.15672
G1 X97.784 Y116.061 E28.21373
G1 X95.812 Y115.670 E28.32472
G1 X94.839 Y115.324 E28.38172
G1 X93.065 Y114.377 E28.49272
G1 X92.235 Y113.763 E28.54972
G1 X90.813 Y112.342 E28.66071
G1 X90.192 Y111.506 E28.71819
G1 X89.241 Y109.725 E28.82967
G1 X88.652 Y107.784 E28.94162
G1 X88.453 Y105.766 E29.05357
G1 X88.652 Y103.748 E29.16552
G1 X89.241 Y101.807 E29.27747
G1 X90.197 Y100.019 E29.38943
G1 X91.484 Y98.451 E29.50138
G1 X92.236 Y97.769 E29.55742
G1 X93.059 Y97.160 E29.61394
G1 X93.922 Y96.643 E29.66951
G1 X94.855 Y96.203 E29.72646
G1 X96.764 Y95.624 E29.83655
G1 X97.773 Y95.473 E29.89291
G1 X115.440 Y93.927 E30.87194
G1 X118.141 Y93.878 E31.02105
G1 X118.801 Y93.930 E31.05759
G1 X119.426 Y94.085 E31.09317
G1 X119.995 Y94.340 E31.12759
G1 X120.495 Y94.694 E31.16138
G1 X120.907 Y95.134 E31.19468
G1 X121.220 Y95.650 E31.22797
G1 X121.425 Y96.227 E31.26178
G1 X121.518 Y96.853 E31.29670
G1 X121.498 Y97.486 E31.33167
G1 X121.371 Y98.129 E31.36789
G1 X119.261 Y105.668 E31.80004
G1 X119.021 Y106.158 E31.83016
G1 E28.83016 F3000.00000
G1 F9600.000
G1 X118.534 Y106.677 E28.61897
G1 X110.755 Y110.976 E25.98016
G1 E25.83016 F3000.00000
G92 E0
G1 X106.026 Y113.393 F12000.000
G1 E6.00000 F3000.00000
G1 F2160.000
G1 X106.223 Y113.215 E6.01466
G1 X106.917 Y112.451 E6.07164
G1 X107.533 Y111.623 E6.12862
G1 X108.066 Y110.739 E6.18560
G1 X108.508 Y109.807 E6.24257
G1 X108.858 Y108.835 E6.29955
G1 X109.110 Y107.835 E6.35653
G1 X109.263 Y106.814 E6.41350
G1 X109.315 Y105.783 E6.47048
G1 X109.266 Y104.752 E6.52746
G1 X109.117 Y103.731 E6.58443
G1 X108.867 Y102.730 E6.64141
G1 X108.521 Y101.757 E6.69839
G1 X108.081 Y100.824 E6.75536
G1 X107.552 Y99.937 E6.81234
G1 X106.939 Y99.107 E6.86932
G1 X106.247 Y98.342 E6.92629
G1 X105.483 Y97.647 E6.98327
G1 X104.655 Y97.031 E7.04025
G1 X103.771 Y96.499 E7.09722
G1 X102.839 Y96.056 E7.15420
G1 X101.867 Y95.707 E7.21118
G1 X100.867 Y95.455 E7.26815
G1 X100.531 Y95.404 E7.28688
G1 X98.807 Y95.594 F12000.000
G1 F2160.000
G1 X97.814 Y95.642 E7.34171
G1 X97.806 Y95.643 F12000.000
G1 F2160.000
G1 X97.483 Y95.690 E7.35977
G1 X96.806 Y95.792 F12000.000
G1 F2160.000
G1 X96.794 Y95.795 E7.36044
G1 E4.36044 F3000.00000
G1 F9600.000
G1 X96.806 Y95.792 E4.35685
G1 E1.36044 F3000.00000
G92 E0
G1 X98.970 Y93.772 F12000.000
G1 X98.807 Y95.594
G1 E6.00000 F3000.00000
G1 F2160.000
G1 X99.804 Y95.644 E6.05511
G1 X100.791 Y95.791 E6.11022
G1 X101.759 Y96.035 E6.16532
G1 X102.699 Y96.372 E6.22043
G1 X103.601 Y96.799 E6.27554
G1 X104.457 Y97.313 E6.33065
G1 X105.258 Y97.908 E6.38576
G1 X105.997 Y98.579 E6.44087
G1 X106.667 Y99.320 E6.49597
G1 X107.261 Y100.122 E6.55108
G1 X107.773 Y100.978 E6.60619
G1 X108.199 Y101.881 E6.66130
G1 X108.535 Y102.821 E6.71641
G1 X108.777 Y103.790 E6.77152
G1 X108.922 Y104.778 E6.82662
G1 X108.970 Y105.775 E6.88173
G1 X108.921 Y106.772 E6.93684
G1 X108.773 Y107.759 E6.99195
G1 X108.530 Y108.727 E7.04706
G1 X108.193 Y109.667 E7.10217
G1 X107.765 Y110.569 E7.15727
G1 X107.252 Y111.425 E7.21238
G1 X106.656 Y112.226 E7.26749
G1 X105.985 Y112.965 E7.32260
G1 X105.245 Y113.635 E7.37771
G1 X104.443 Y114.229 E7.43281
G1 X103.592 Y114.738 E7.48752
G1 X101.770 Y115.493 F12000.000
G1 F2160.000
G1 X101.759 Y115.497 E7.48816
G1 E4.48816 F3000.00000
G1 F9600.000
G1 X101.770 Y115.493 E4.48468
G1 E1.48816 F3000.00000
G92 E0
G1 X98.798 Y117.769 F12000.000
G1 X98.819 Y115.937
G1 E6.00000 F3000.00000
G1 F2160.000
G1 X98.807 Y115.938 E6.00066
G1 X97.984 Y115.898 F12000.000
G1 F2160.000
G1 X97.802 Y115.889 E6.01073
G1 X95.865 Y115.505 F12000.000
G1 F2160.000
G1 X95.854 Y115.502 E6.01138
G1 X95.078 Y115.226 F12000.000
G1 F2160.000
G1 X94.907 Y115.164 E6.02143
G1 X93.164 Y114.234 F12000.000
G1 F2160.000
G1 X93.154 Y114.228 E6.02208
G1 X92.492 Y113.739 F12000.000
G1 F2160.000
G1 X92.346 Y113.630 E6.03214
G1 X90.949 Y112.234 F12000.000
G1 F2160.000
G1 X90.941 Y112.226 E6.03278
G1 E3.03278 F3000.00000
G1 F9600.000
G1 X90.949 Y112.234 E3.02931
G1 E0.03278 F3000.00000
G92 E0
G1 X91.184 Y96.488 F12000.000
G1 X91.982 Y98.232
G1 E6.00000 F3000.00000
G1 F2160.000
G1 X92.348 Y97.901 E6.02730
G1 X93.305 Y97.213 F12000.000
G1 F2160.000
G1 X94.007 Y96.793 E6.07243
G1 E3.07243 F3000.00000
G1 F9600.000
G1 X93.305 Y97.213 E2.82973
G1 E0.07243 F3000.00000
G92 E0
G1 X117.165 Y107.236 F12000.000
G1 E6.00000 F3000.00000
G1 F2160.000
G1 X116.728 Y107.235 E6.02411
G1 X116.101 Y107.103 E6.05946
G1 X115.554 Y106.798 E6.09406
G1 X115.110 Y106.352 E6.12882
G1 X114.812 Y105.781 E6.16434
G1 X112.677 Y98.177 E6.60036
G1 X112.542 Y97.476 E6.63978
G1 X112.526 Y96.802 E6.67697
G1 X112.622 Y96.185 E6.71147
G1 X112.824 Y95.609 E6.74519
G1 X113.149 Y95.059 E6.78045
G1 X113.608 Y94.563 E6.81771
G1 X114.103 Y94.217 E6.85109
G1 X115.452 Y94.099 F12000.000
G1 F2160.000
G1 X114.859 Y94.243 E6.88480
G1 X114.319 Y94.483 E6.91743
G1 X113.847 Y94.812 E6.94919
G1 X113.435 Y95.253 E6.98245
G1 X113.144 Y95.740 E7.01379
G1 X112.953 Y96.283 E7.04560
G1 X112.870 Y96.838 E7.07657
G1 X112.886 Y97.452 E7.11048
G1 X113.011 Y98.091 E7.14639
G1 X115.128 Y105.642 E7.57934
G1 X115.374 Y106.129 E7.60943
G1 X115.780 Y106.536 E7.64120
G1 X116.242 Y106.787 E7.67020
G1 X116.778 Y106.893 E7.70037
G1 X117.406 Y106.896 E7.73508
G1 X117.972 Y106.787 E7.76685
G1 X118.445 Y106.522 E7.79682
G1 X118.728 Y106.236 F12000.000
G1 F2160.000
G1 X118.858 Y106.099 E7.80727
G1 E4.80727 F3000.00000
G1 F9600.000
G1 X118.728 Y106.236 E4.75111
G1 E1.80727 F3000.00000
G92 E0
G1 X122.984 Y98.509 F12000.000
G1 X121.203 Y98.090
G1 E6.00000 F3000.00000
G1 F2160.000
G1 X121.327 Y97.459 E6.03547
G1 X121.334 Y97.234 F12000.000
G1 F2160.000
G1 X121.344 Y96.851 E6.05660
G1 X121.292 Y96.501 F12000.000
G1 F2160.000
G1 X121.254 Y96.261 E6.07001
G1 X121.154 Y95.980 F12000.000
G1 F2160.000
G1 X121.059 Y95.718 E6.08542
G1 X120.913 Y95.477 F12000.000
G1 F2160.000
G1 X120.763 Y95.233 E6.10126
G1 X120.563 Y95.019 F12000.000
G1 F2160.000
G1 X120.374 Y94.819 E6.11646
G1 X120.112 Y94.634 F12000.000
G1 F2160.000
G1 X119.902 Y94.488 E6.13059
G1 X119.614 Y94.358 F12000.000
G1 F2160.000
G1 X119.363 Y94.246 E6.14577
G1 X119.014 Y94.160 F12000.000
G1 F2160.000
G1 X118.767 Y94.100 E6.15979
G1 X118.141 Y94.051 F12000.000
G1 F2160.000
G1 X118.114 Y94.051 E6.16125
G1 E3.16125 F3000.00000
G1 F9600.000
G1 X118.141 Y94.051 E3.15340
G1 E0.16125 F3000.00000
G92 E0
G1 X106.938 Y100.327 F12000.000
G1 E6.00000 F3000.00000
G1 F1620.000
G1 X107.432 Y101.151 E6.05304
G1 X107.843 Y102.020 E6.10607
G1 X108.166 Y102.924 E6.15911
G1 X108.400 Y103.856 E6.21214
G1 X108.541 Y104.807 E6.26518
G1 X108.588 Y105.766 E6.31822
G1 X108.541 Y106.726 E6.37125
G1 X108.400 Y107.676 E6.42429
G1 X108.166 Y108.608 E6.47732
G1 X107.843 Y109.513 E6.53036
G1 X107.432 Y110.381 E6.58340
G1 X106.938 Y111.205 E6.63643
G1 X106.366 Y111.977 E6.68947
G1 X105.721 Y112.689 E6.74251
G1 X105.009 Y113.334 E6.79554
G1 X104.237 Y113.906 E6.84858
G1 X103.413 Y114.400 E6.90161
G1 X102.545 Y114.811 E6.95465
G1 X101.640 Y115.135 E7.00769
G1 X100.708 Y115.368 E7.06072
G1 X99.758 Y115.509 E7.11376
G1 X98.798 Y115.556 E7.16679
G1 X97.839 Y115.509 E7.21983
G1 X96.888 Y115.368 E7.27287
G1 X95.956 Y115.135 E7.32590
G1 X95.052 Y114.811 E7.37894
G1 X94.183 Y114.400 E7.43198
G1 X93.359 Y113.906 E7.48501
G1 X92.588 Y113.334 E7.53805
G1 X91.876 Y112.689 E7.59108
G1 X91.231 Y111.977 E7.64412
G1 X90.658 Y111.205 E7.69716
G1 X90.164 Y110.381 E7.75019
G1 X89.754 Y109.513 E7.80323
G1 X89.430 Y108.608 E7.85626
G1 X89.197 Y107.676 E7.90930
G1 X89.056 Y106.726 E7.96234
G1 X89.008 Y105.766 E8.01537
G1 X89.056 Y104.807 E8.06841
G1 X89.197 Y103.856 E8.12144
G1 X89.430 Y102.925 E8.17448
G1 X89.754 Y102.020 E8.22752
G1 X90.164 Y101.151 E8.28055
G1 X90.658 Y100.327 E8.33359
G1 X91.231 Y99.556 E8.38662
G1 X91.876 Y98.844 E8.43966
G1 X92.588 Y98.199 E8.49270
G1 X93.359 Y97.626 E8.54573
G1 X94.183 Y97.133 E8.59877
G1 X95.052 Y96.722 E8.65180
G1 X95.956 Y96.398 E8.70484
G1 X96.888 Y96.165 E8.75788
G1 X97.839 Y96.024 E8.81091
G1 X98.798 Y95.977 E8.86395
G1 X99.673 Y96.020 E8.91229
G1 X100.709 Y96.165 E8.97005
G1 X101.640 Y96.398 E9.02304
G1 X102.545 Y96.722 E9.07607
