; generated by PrusaSlicer 2.2.0+win64 on 2020-11-15 at 08:33:20 UTC

; 

; external perimeters extrusion width = 0.45mm
; perimeters extrusion width = 0.45mm
; infill extrusion width = 0.45mm
; solid infill extrusion width = 0.45mm
; top infill extrusion width = 0.40mm
; support material extrusion width = 0.35mm
; first layer extrusion width = 0.42mm

M201 X9000 Y9000 Z500 E10000 ; sets maximum accelerations, mm/sec^2
M203 X500 Y500 Z12 E120 ; sets maximum feedrates, mm/sec
M204 P1500 R1500 T1500 ; sets acceleration (P, T) and retract acceleration (R), mm/sec^2
M205 X10.00 Y10.00 Z0.20 E2.50 ; sets the jerk limits, mm/sec
M205 S0 T0 ; sets the minimum extruding and travel feed rate, mm/sec
;;; Copy from Cura output
M140 S60 ; set bed temp
M105 ; Read current temp
M190 S60 ; set bed temp and wait
M104 S175 ; set extruder temp
M105 ; Read current temp
M109 S175 ; wait for extruder temp and wait
M82        ; Set E codes absolute (default) - absolute extrusion mode

;;; Copy from Cura config
G21 ;metric values
G90 ;absolute positioning
M82 ;set extruder to absolute mode
M107 ;start with the fan off
G28 X0 Y0 ;move X/Y to min endstops
G28 Z0 ;move Z to min endstops
G1 Z15.0 F200 ;move the platform down 15mm
G92 E0 ;zero the extruded length
G1 F200 E3 ;extrude 3mm of feed stock
G92 E0 ;zero the extruded length again
G1 F200
G0 Y20 F200
M117 Printing...
G5
G21 ; set units to millimeters
G90 ; use absolute coordinates
M82 ; use absolute distances for extrusion
G92 E0
; Filament gcode
M106 S216.75
G1 E-6.00000 F3000.00000
G92 E0
G1 Z0.350 F12000.000
G1 X100.424 Y97.970
G1 E6.00000 F3000.00000
G1 F2160.000
G1 X101.177 Y97.417 E6.04921
G1 X102.101 Y96.987 E6.10293
G1 X103.052 Y96.751 E6.15454
G1 X106.036 Y96.681 E6.31185
G1 X107.011 Y96.761 E6.36340
G1 X108.049 Y97.047 E6.42010
G1 X108.742 Y97.369 E6.46040
G1 X109.358 Y97.792 E6.49976
G1 X110.043 Y98.463 E6.55029
G1 X110.640 Y99.375 E6.60774
G1 X110.972 Y100.263 E6.65770
G1 X111.131 Y101.242 E6.70993
G1 X111.110 Y102.160 E6.75837
G1 X110.928 Y103.111 E6.80938
G1 X108.811 Y110.669 E7.22298
G1 X108.388 Y111.592 E7.27647
G1 X107.561 Y112.507 E7.34145
G1 X106.621 Y113.054 E7.39876
G1 X105.551 Y113.304 E7.45670
G1 X104.512 Y113.311 E7.51144
G1 X103.500 Y113.104 E7.56586
G1 X102.538 Y112.584 E7.62348
G1 X101.749 Y111.795 E7.68228
G1 X101.300 Y110.968 E7.73187
G1 X99.062 Y103.070 E8.16444
G1 X98.893 Y102.182 E8.21207
G1 X98.873 Y101.201 E8.26376
G1 X99.062 Y100.157 E8.31971
G1 X99.328 Y99.440 E8.36000
G1 X99.708 Y98.792 E8.39957
G1 X100.385 Y98.015 E8.45386
G1 X100.643 Y98.243 F12000.000
G1 F2160.000
G1 X101.377 Y97.699 E8.50196
G1 X102.223 Y97.310 E8.55105
G1 X103.112 Y97.091 E8.59928
G1 X106.036 Y97.026 E8.75341
G1 X106.944 Y97.100 E8.80141
G1 X107.908 Y97.362 E8.85407
G1 X108.571 Y97.668 E8.89255
G1 X109.158 Y98.073 E8.93016
G1 X109.790 Y98.698 E8.97697
G1 X110.337 Y99.541 E9.02991
G1 X110.642 Y100.365 E9.07625
G1 X110.787 Y101.269 E9.12449
G1 X110.766 Y102.133 E9.17000
G1 X110.595 Y103.020 E9.21760
G1 X108.481 Y110.572 E9.63087
G1 X108.103 Y111.397 E9.67870
G1 X107.343 Y112.240 E9.73850
G1 X106.478 Y112.740 E9.79114
G1 X105.499 Y112.963 E9.84404
G1 X104.538 Y112.967 E9.89470
G1 X103.617 Y112.779 E9.94422
G1 X102.734 Y112.300 E9.99714
G1 X102.015 Y111.575 E10.05098
G1 X101.606 Y110.808 E10.09677
G1 X99.397 Y102.988 E10.52495
G1 X99.236 Y102.148 E10.57005
G1 X99.216 Y101.229 E10.61849
G1 X99.388 Y100.269 E10.66989
G1 X99.640 Y99.587 E10.70818
G1 X100.005 Y98.969 E10.74601
G1 X100.604 Y98.288 E10.79381
G1 X100.860 Y98.516 F12000.000
G1 F2160.000
G1 X100.909 Y98.462 E10.79764
G1 X101.572 Y97.984 E10.84067
G1 X102.342 Y97.634 E10.88528
G1 X103.171 Y97.430 E10.93028
G1 X106.035 Y97.370 E11.08123
G1 X106.882 Y97.439 E11.12598
G1 X107.767 Y97.677 E11.17431
G1 X108.399 Y97.967 E11.21091
G1 X108.959 Y98.355 E11.24682
G1 X109.536 Y98.931 E11.28977
G1 X110.033 Y99.703 E11.33817
G1 X110.312 Y100.464 E11.38089
G1 X110.443 Y101.298 E11.42535
G1 X110.422 Y102.105 E11.46791
G1 X110.262 Y102.932 E11.51230
G1 X108.150 Y110.475 E11.92506
G1 X107.814 Y111.207 E11.96751
G1 X107.121 Y111.976 E12.02207
G1 X106.335 Y112.427 E12.06981
G1 X105.452 Y112.621 E12.11744
G1 X104.567 Y112.623 E12.16409
G1 X103.737 Y112.456 E12.20867
G1 X102.933 Y112.018 E12.25694
G1 X102.285 Y111.360 E12.30560
G1 X101.914 Y110.651 E12.34779
G1 X99.732 Y102.906 E12.77178
G1 X99.579 Y102.115 E12.81424
G1 X99.560 Y101.258 E12.85939
G1 X99.714 Y100.381 E12.90634
G1 X99.952 Y99.733 E12.94270
G1 X100.301 Y99.146 E12.97868
G1 X100.821 Y98.561 E13.01993
G1 X101.147 Y98.711 F12000.000
G1 F2160.000
G1 X101.762 Y98.273 E13.05971
G1 X102.459 Y97.958 E13.10001
G1 X103.225 Y97.771 E13.14158
G1 X106.035 Y97.715 E13.28967
G1 X106.817 Y97.778 E13.33101
G1 X107.628 Y97.992 E13.37520
G1 X108.228 Y98.267 E13.41000
G1 X108.760 Y98.636 E13.44410
G1 X109.283 Y99.166 E13.48335
G1 X109.727 Y99.863 E13.52689
G1 X109.981 Y100.563 E13.56615
G1 X110.099 Y101.324 E13.60671
G1 X110.078 Y102.075 E13.64631
G1 X109.928 Y102.843 E13.68753
G1 X107.819 Y110.378 E14.09989
G1 X107.520 Y111.025 E14.13742
G1 X106.899 Y111.712 E14.18620
G1 X106.191 Y112.113 E14.22912
G1 X105.408 Y112.279 E14.27130
G1 X104.600 Y112.280 E14.31389
G1 X103.857 Y112.132 E14.35380
G1 X103.137 Y111.740 E14.39701
G1 X102.558 Y111.149 E14.44059
G1 X102.225 Y110.501 E14.47897
G1 X100.066 Y102.823 E14.89928
G1 X99.922 Y102.082 E14.93904
G1 X99.904 Y101.289 E14.98087
G1 X100.041 Y100.492 E15.02344
G1 X100.264 Y99.880 E15.05779
G1 X100.595 Y99.326 E15.09180
G1 X101.107 Y98.756 E15.13218
G1 X101.361 Y98.986 F12000.000
G1 F2160.000
G1 X101.944 Y98.566 E15.17004
G1 X102.572 Y98.284 E15.20636
G1 X103.275 Y98.112 E15.24447
G1 X106.035 Y98.060 E15.38991
G1 X106.756 Y98.117 E15.42806
G1 X107.489 Y98.308 E15.46794
G1 X108.058 Y98.567 E15.50091
G1 X108.558 Y98.916 E15.53306
G1 X109.030 Y99.399 E15.56861
G1 X109.421 Y100.021 E15.60732
G1 X109.650 Y100.657 E15.64296
G1 X109.755 Y101.349 E15.67981
G1 X109.735 Y102.043 E15.71642
G1 X109.596 Y102.753 E15.75452
G1 X107.487 Y110.284 E16.16667
G1 X107.221 Y110.853 E16.19974
G1 X106.677 Y111.448 E16.24224
G1 X106.049 Y111.799 E16.28012
G1 X105.366 Y111.937 E16.31683
G1 X104.630 Y111.936 E16.35562
G1 X103.978 Y111.809 E16.39063
G1 X103.340 Y111.462 E16.42891
G1 X102.834 Y110.943 E16.46712
G1 X102.539 Y110.357 E16.50169
G1 X100.401 Y102.741 E16.91853
G1 X100.266 Y102.048 E16.95571
G1 X100.247 Y101.321 E16.99405
G1 X100.366 Y100.606 E17.03222
G1 X100.576 Y100.029 E17.06459
G1 X100.888 Y99.508 E17.09661
G1 X101.321 Y99.031 E17.13055
G1 X101.573 Y99.263 F12000.000
G1 F2160.000
G1 X102.118 Y98.863 E17.16617
G1 X102.682 Y98.611 E17.19873
G1 X103.320 Y98.454 E17.23334
G1 X106.034 Y98.405 E17.37637
G1 X106.697 Y98.457 E17.41141
G1 X107.347 Y98.622 E17.44678
G1 X107.888 Y98.867 E17.47805
G1 X108.359 Y99.198 E17.50840
G1 X108.776 Y99.633 E17.54017
G1 X109.111 Y100.174 E17.57368
G1 X109.317 Y100.749 E17.60589
G1 X109.411 Y101.369 E17.63891
G1 X109.392 Y102.008 E17.67260
G1 X107.155 Y110.189 E18.11951
G1 X106.918 Y110.689 E18.14867
G1 X106.457 Y111.182 E18.18425
G1 X105.912 Y111.482 E18.21702
G1 X105.330 Y111.594 E18.24826
G1 X104.664 Y111.593 E18.28336
G1 X104.097 Y111.486 E18.31375
G1 X103.548 Y111.186 E18.34673
G1 X103.111 Y110.737 E18.37973
G1 X102.856 Y110.221 E18.41006
G1 X100.736 Y102.657 E18.82405
G1 X100.609 Y102.011 E18.85870
G1 X100.590 Y101.354 E18.89335
G1 X100.692 Y100.720 E18.92717
G1 X100.887 Y100.177 E18.95760
G1 X101.181 Y99.689 E18.98763
G1 X101.532 Y99.307 E19.01496
G1 X101.734 Y99.346 F12000.000
G1 F2160.000
G1 X101.580 Y99.510 E19.02677
G1 X101.320 Y99.792 F12000.000
G1 F2160.000
G1 X101.041 Y100.259 E19.05546
G1 X100.974 Y100.444 F12000.000
G1 F2160.000
G1 X100.857 Y100.779 E19.07420
G1 X100.780 Y101.986 F12000.000
G1 F2160.000
G1 X100.902 Y102.607 E19.10757
G1 X101.064 Y103.187 F12000.000
G1 F2160.000
G1 X103.020 Y110.164 E19.48939
G1 X103.072 Y110.270 F12000.000
G1 F2160.000
G1 X103.261 Y110.644 E19.51150
G1 X103.470 Y110.858 F12000.000
G1 F2160.000
G1 X103.664 Y111.053 E19.52597
G1 X104.147 Y111.316 F12000.000
G1 F2160.000
G1 X104.554 Y111.397 E19.54785
G1 X104.676 Y111.420 F12000.000
G1 F2160.000
G1 X104.917 Y111.421 E19.56054
G1 X105.306 Y111.421 F12000.000
G1 F2160.000
G1 X105.858 Y111.315 E19.59014
G1 X106.100 Y111.182 F12000.000
G1 F2160.000
G1 X106.355 Y111.039 E19.60556
G1 X106.774 Y110.591 F12000.000
G1 F2160.000
G1 X106.774 Y110.590 E19.60559
G1 E16.60559 F3000.00000
G1 F9600.000
G1 X106.774 Y110.591 E16.60538
G1 E13.60559 F3000.00000
G92 E0
G1 X111.043 Y102.200 F12000.000
G1 X109.227 Y101.735
G1 E6.00000 F3000.00000
G1 F2160.000
G1 X109.237 Y101.372 E6.01910
G1 X109.191 Y101.065 F12000.000
G1 F2160.000
G1 X109.147 Y100.786 E6.03402
G1 X109.050 Y100.514 F12000.000
G1 F2160.000
G1 X108.952 Y100.244 E6.04916
G1 X108.639 Y99.740 F12000.000
G1 F2160.000
G1 X108.639 Y99.739 E6.04917
G1 X108.247 Y99.330 F12000.000
G1 F2160.000
G1 X107.795 Y99.014 E6.07823
G1 X107.604 Y98.927 F12000.000
G1 F2160.000
G1 X107.276 Y98.782 E6.09712
G1 X106.774 Y98.654 F12000.000
G1 F2160.000
G1 X106.662 Y98.627 E6.10320
G1 X106.034 Y98.578 F12000.000
G1 F2160.000
G1 X106.008 Y98.578 E6.10456
G1 E3.10456 F3000.00000
G1 F9600.000
G1 X106.034 Y98.578 E3.09691
G1 E0.10456 F3000.00000
G92 E0
G1 X102.139 Y97.039 F12000.000
G1 X102.745 Y98.773
G1 E6.00000 F3000.00000
G1 F2160.000
G1 X102.443 Y98.907 E6.01738
G1 X102.207 Y99.012 F12000.000
G1 F2160.000
G1 X102.078 Y99.103 E6.02573
G1 E3.02573 F3000.00000
G1 F9600.000
G1 X102.207 Y99.012 E2.97873
G1 E0.02573 F3000.00000
G92 E0
G1 X106.434 Y110.414 F12000.000
G1 E6.00000 F3000.00000
G1 F1080.000
G1 X106.115 Y110.742 E6.02412
G1 X105.713 Y110.961 E6.04825
G1 X105.281 Y111.040 E6.07138
G1 X104.719 Y111.040 E6.10100
G1 X104.287 Y110.961 E6.12414
G1 X103.885 Y110.742 E6.14826
G1 X103.566 Y110.414 E6.17239
G1 X103.374 Y110.020 E6.19552
G1 X101.274 Y102.522 E6.60582
G1 X101.161 Y101.949 E6.63658
G1 X101.145 Y101.452 E6.66280
G1 X101.222 Y100.886 E6.69289
G1 X101.389 Y100.416 E6.71920
G1 X101.644 Y99.997 E6.74502
G1 X101.948 Y99.672 E6.76848
G1 X102.389 Y99.349 E6.79729
G1 X102.863 Y99.136 E6.82464
G1 X103.394 Y99.005 E6.85346
G1 X103.976 Y98.960 E6.88423
G1 X106.024 Y98.960 E6.99219
G1 X106.555 Y99.001 E7.02022
G1 X107.139 Y99.137 E7.05181
G1 X107.613 Y99.350 E7.07918
G1 X108.022 Y99.639 E7.10558
G1 X108.356 Y99.997 E7.13140
G1 X108.611 Y100.416 E7.15722
G1 X108.779 Y100.887 E7.18362
G1 X108.856 Y101.402 E7.21106
G1 X108.839 Y101.949 E7.23988
G1 X108.726 Y102.522 E7.27065
G1 X106.626 Y110.020 E7.68094
G1 X106.461 Y110.360 E7.70092
G1 X106.036 Y110.380 F12000.000
G1 X106.149 Y110.214
G1 F1080.000
G1 X105.904 Y110.464 E7.71937
G1 X105.597 Y110.632 E7.73783
G1 X105.250 Y110.695 E7.75640
G1 X104.750 Y110.695 E7.78274
G1 X104.403 Y110.632 E7.80131
G1 X104.096 Y110.464 E7.81977
G1 X103.851 Y110.214 E7.83822
G1 X103.697 Y109.897 E7.85679
G1 X101.610 Y102.442 E8.26475
G1 X101.504 Y101.910 E8.29330
G1 X101.491 Y101.470 E8.31651
G1 X101.559 Y100.968 E8.34321
G1 X101.702 Y100.564 E8.36577
G1 X101.920 Y100.206 E8.38785
G1 X102.177 Y99.931 E8.40772
G1 X102.563 Y99.649 E8.43291
G1 X102.976 Y99.464 E8.45672
G1 X103.449 Y99.347 E8.48240
G1 X103.989 Y99.305 E8.51096
G1 X106.011 Y99.305 E8.61751
G1 X106.502 Y99.343 E8.64346
G1 X107.028 Y99.465 E8.67192
G1 X107.441 Y99.651 E8.69576
G1 X107.794 Y99.900 E8.71854
G1 X108.080 Y100.206 E8.74062
G1 X108.298 Y100.564 E8.76271
G1 X108.443 Y100.972 E8.78549
G1 X108.510 Y101.423 E8.80954
G1 X108.496 Y101.910 E8.83522
G1 X108.390 Y102.442 E8.86377
G1 X106.303 Y109.897 E9.27173
G1 X106.175 Y110.160 E9.28714
G1 X105.863 Y110.013 F12000.000
G1 F1080.000
G1 X105.693 Y110.187 E9.29992
G1 X105.480 Y110.303 E9.31271
G1 X105.219 Y110.350 E9.32672
G1 X104.781 Y110.350 E9.34978
G1 X104.520 Y110.303 E9.36379
G1 X104.307 Y110.187 E9.37657
G1 X104.137 Y110.013 E9.38936
G1 X104.021 Y109.774 E9.40336
G1 X101.946 Y102.361 E9.80898
G1 X101.848 Y101.871 E9.83533
G1 X101.837 Y101.488 E9.85554
G1 X101.896 Y101.050 E9.87883
G1 X102.015 Y100.713 E9.89764
G1 X102.196 Y100.416 E9.91599
G1 X102.407 Y100.190 E9.93226
G1 X102.738 Y99.949 E9.95384
G1 X103.088 Y99.791 E9.97410
G1 X103.504 Y99.688 E9.99664
G1 X104.002 Y99.650 E10.02299
G1 X105.998 Y99.650 E10.12814
G1 X106.449 Y99.685 E10.15201
G1 X106.917 Y99.794 E10.17733
G1 X107.269 Y99.952 E10.19764
G1 X107.566 Y100.161 E10.21681
G1 X107.804 Y100.416 E10.23515
G1 X107.985 Y100.713 E10.25350
G1 X108.107 Y101.056 E10.27267
G1 X108.165 Y101.443 E10.29331
G1 X108.152 Y101.871 E10.31585
G1 X108.054 Y102.361 E10.34220
G1 X105.979 Y109.774 E10.74782
G1 X105.889 Y109.959 E10.75866
G1 E7.75866 F3000.00000
G1 F9600.000
G1 X105.693 Y110.187 E7.66953
G1 X105.480 Y110.303 E7.59749
G1 X105.219 Y110.350 E7.51859
G1 X104.781 Y110.350 E7.38864
G1 X104.520 Y110.303 E7.30974
G1 X104.307 Y110.187 E7.23770
G1 X104.137 Y110.013 E7.16566
G1 X104.021 Y109.774 E7.08676
G1 X102.043 Y102.709 E4.90866
G1 E4.75866 F3000.00000
G92 E0
G1 X107.631 Y101.503 F12000.000
G1 E6.00000 F3000.00000
G1 F1080.000
G1 X107.541 Y101.207 E6.01627
G1 X107.287 Y100.732 E6.04468
G1 X107.042 Y100.433 E6.06507
G1 X107.165 Y100.300 E6.07460
G1 X107.338 Y100.423 E6.08579
G1 X107.528 Y100.625 E6.10040
G1 X107.671 Y100.862 E6.11500
G1 X107.771 Y101.140 E6.13056
G1 X107.819 Y101.460 E6.14762
G1 X107.689 Y101.490 E6.15460
G1 X106.678 Y101.926 F12000.000
G1 F1080.000
G1 X106.711 Y102.260 E6.17227
G1 X106.678 Y102.594 E6.18995
G1 X106.581 Y102.915 E6.20762
G1 X106.423 Y103.211 E6.22530
G1 X106.210 Y103.470 E6.24297
G1 X105.951 Y103.683 E6.26065
G1 X105.655 Y103.841 E6.27832
G1 X105.334 Y103.938 E6.29600
G1 X105.000 Y103.971 E6.31367
G1 X104.666 Y103.938 E6.33135
G1 X104.345 Y103.841 E6.34902
G1 X104.049 Y103.683 E6.36670
G1 X103.790 Y103.470 E6.38437
G1 X103.577 Y103.211 E6.40205
G1 X103.419 Y102.915 E6.41972
G1 X103.322 Y102.594 E6.43740
G1 X103.289 Y102.260 E6.45507
G1 X103.322 Y101.926 E6.47275
G1 X103.419 Y101.605 E6.49042
G1 X103.577 Y101.309 E6.50810
G1 X103.790 Y101.050 E6.52577
G1 X104.049 Y100.837 E6.54345
G1 X104.347 Y100.678 E6.56121
G1 X104.693 Y100.579 E6.58022
G1 X105.000 Y100.549 E6.59645
G1 X105.334 Y100.582 E6.61412
G1 X105.655 Y100.679 E6.63180
G1 X105.951 Y100.837 E6.64947
G1 X106.210 Y101.050 E6.66715
G1 X106.423 Y101.309 E6.68482
G1 X106.581 Y101.605 E6.70250
G1 X106.661 Y101.869 E6.71701
G1 X106.996 Y102.034 F12000.000
G1 X107.008 Y101.826
G1 F1080.000
G1 X107.058 Y102.260 E6.74002
G1 X107.018 Y102.661 E6.76128
G1 X106.901 Y103.047 E6.78253
G1 X106.711 Y103.403 E6.80379
G1 X106.455 Y103.715 E6.82504
G1 X106.143 Y103.971 E6.84630
G1 X105.787 Y104.161 E6.86755
G1 X105.401 Y104.278 E6.88881
G1 X105.000 Y104.318 E6.91006
G1 X104.599 Y104.278 E6.93132
G1 X104.213 Y104.161 E6.95257
G1 X103.857 Y103.971 E6.97383
G1 X103.545 Y103.715 E6.99508
G1 X103.289 Y103.403 E7.01634
G1 X103.099 Y103.047 E7.03759
G1 X102.982 Y102.661 E7.05885
G1 X102.942 Y102.260 E7.08010
G1 X102.982 Y101.859 E7.10135
G1 X103.099 Y101.473 E7.12261
G1 X103.289 Y101.117 E7.14386
G1 X103.545 Y100.805 E7.16512
G1 X103.857 Y100.549 E7.18637
G1 X104.216 Y100.357 E7.20786
G1 X104.629 Y100.239 E7.23045
G1 X105.000 Y100.202 E7.25012
G1 X105.401 Y100.242 E7.27137
G1 X105.787 Y100.359 E7.29263
G1 X106.143 Y100.549 E7.31388
G1 X106.455 Y100.805 E7.33514
G1 X106.711 Y101.117 E7.35639
G1 X106.901 Y101.473 E7.37765
G1 X106.991 Y101.769 E7.39395
G1 X107.358 Y101.791 F12000.000
G1 F1080.000
G1 X107.404 Y102.260 E7.41878
G1 X107.358 Y102.729 E7.44362
G1 X107.221 Y103.180 E7.46845
G1 X106.999 Y103.596 E7.49329
G1 X106.700 Y103.960 E7.51812
G1 X106.336 Y104.259 E7.54296
G1 X105.920 Y104.481 E7.56779
G1 X105.469 Y104.618 E7.59263
G1 X105.000 Y104.664 E7.61746
G1 X104.531 Y104.618 E7.64230
G1 X104.080 Y104.481 E7.66713
G1 X103.664 Y104.259 E7.69197
G1 X103.300 Y103.960 E7.71680
G1 X103.001 Y103.596 E7.74164
G1 X102.779 Y103.180 E7.76647
G1 X102.642 Y102.729 E7.79131
G1 X102.596 Y102.260 E7.81614
G1 X102.642 Y101.791 E7.84098
G1 X102.779 Y101.340 E7.86581
G1 X103.001 Y100.924 E7.89065
G1 X103.300 Y100.560 E7.91548
G1 X103.664 Y100.261 E7.94031
