; generated by PrusaSlicer 2.2.0+win64 on 2020-12-10 at 14:41:12 UTC

; 

; external perimeters extrusion width = 0.45mm
; perimeters extrusion width = 0.45mm
; infill extrusion width = 0.45mm
; solid infill extrusion width = 0.45mm
; top infill extrusion width = 0.40mm
; support material extrusion width = 0.35mm
; first layer extrusion width = 0.42mm

M201 X9000 Y9000 Z500 E10000 ; sets maximum accelerations, mm/sec^2
M203 X500 Y500 Z12 E120 ; sets maximum feedrates, mm/sec
M204 P1500 R1500 T1500 ; sets acceleration (P, T) and retract acceleration (R), mm/sec^2
M205 X10.00 Y10.00 Z0.20 E2.50 ; sets the jerk limits, mm/sec
M205 S0 T0 ; sets the minimum extruding and travel feed rate, mm/sec
;;; Copy from Cura output
M140 S60 ; set bed temp
M105 ; Read current temp
M190 S60 ; set bed temp and wait
M104 S175 ; set extruder temp
M105 ; Read current temp
M109 S175 ; wait for extruder temp and wait
M82        ; Set E codes absolute (default) - absolute extrusion mode

;;; Copy from Cura config
G21 ;metric values
G90 ;absolute positioning
M82 ;set extruder to absolute mode
M107 ;start with the fan off
G28 X0 Y0 ;move X/Y to min endstops
G28 Z0 ;move Z to min endstops
G1 Z15.0 F200 ;move the platform down 15mm
G92 E0 ;zero the extruded length
G1 F200 E3 ;extrude 3mm of feed stock
G92 E0 ;zero the extruded length again
G1 F200
G0 Y20 F200
M117 Printing...
G5
G21 ; set units to millimeters
G90 ; use absolute coordinates
M82 ; use absolute distances for extrusion
G92 E0
; Filament gcode
M106 S127.5
G1 E-6.00000 F3000.00000
G92 E0
G1 Z0.308 F12000.000
G1 X68.970 Y64.807
G1 E6.00000 F3000.00000
G1 F2160.000
G1 X69.379 Y64.723 E6.01986
G1 X158.570 Y64.723 E10.26389
G1 X175.615 Y64.884 E11.07502
G1 X175.956 Y64.961 E11.09166
G1 X176.254 Y65.145 E11.10830
G1 X176.475 Y65.415 E11.12494
G1 X176.597 Y65.743 E11.14158
G1 X180.332 Y92.612 E12.43241
G1 X180.338 Y99.731 E12.77113
G1 X176.651 Y156.360 E15.47149
G1 X176.561 Y156.719 E15.48908
G1 X176.352 Y157.027 E15.50679
G1 X176.003 Y157.265 E15.52689
G1 X175.591 Y157.348 E15.54686
G1 X69.418 Y157.348 E20.59898
G1 X69.019 Y157.269 E20.61836
G1 X68.680 Y157.047 E20.63762
G1 X68.449 Y156.715 E20.65688
G1 X68.360 Y156.322 E20.67603
G1 X66.706 Y99.557 E23.37829
G1 X66.707 Y92.498 E23.71416
G1 X68.325 Y65.710 E24.99115
G1 X68.414 Y65.351 E25.00875
G1 X68.623 Y65.043 E25.02646
G1 X68.920 Y64.840 E25.04358
G1 X68.877 Y65.290 F12000.000
G1 F2160.000
G1 X69.108 Y65.133 E25.05684
G1 X69.381 Y65.077 E25.07011
G1 X158.569 Y65.077 E29.31402
G1 X175.584 Y65.236 E30.12368
G1 X176.016 Y65.407 E30.14581
G1 X176.249 Y65.810 E30.16794
G1 X179.980 Y92.651 E31.45743
G1 X179.984 Y99.730 E31.79427
G1 X176.298 Y156.334 E34.49341
G1 X176.098 Y156.781 E34.51666
G1 X175.866 Y156.939 E34.53002
G1 X175.591 Y156.994 E34.54336
G1 X69.419 Y156.994 E39.59545
G1 X69.153 Y156.942 E39.60833
G1 X68.925 Y156.792 E39.62130
G1 X68.773 Y156.571 E39.63408
G1 X68.713 Y156.309 E39.64686
G1 X67.060 Y99.557 E42.34850
G1 X67.061 Y92.519 E42.68336
G1 X68.677 Y65.738 E43.96005
G1 X68.853 Y65.344 E43.98054
G1 X69.131 Y65.537 F12000.000
G1 F2160.000
G1 X69.383 Y65.430 E43.99355
G1 X158.569 Y65.430 E48.23734
G1 X175.564 Y65.590 E49.04607
G1 X175.784 Y65.675 E49.05731
G1 X175.902 Y65.878 E49.06850
G1 X179.628 Y92.690 E50.35656
G1 X179.630 Y99.728 E50.69148
G1 X175.945 Y156.309 E53.38953
G1 X175.844 Y156.534 E53.40124
G1 X175.591 Y156.640 E53.41428
G1 X69.421 Y156.640 E58.46628
G1 X69.173 Y156.539 E58.47903
G1 X69.067 Y156.297 E58.49160
G1 X67.414 Y99.557 E61.19265
G1 X67.414 Y92.539 E61.52657
G1 X69.030 Y65.762 E62.80306
G1 X69.106 Y65.592 E62.81191
G1 E59.81191 F3000.00000
G1 F9600.000
G1 X69.383 Y65.430 E59.71695
G1 X78.663 Y65.430 E56.96191
G1 E56.81191 F3000.00000
G92 E0
G1 X68.676 Y136.794 F12000.000
G1 E6.00000 F3000.00000
G1 F2160.000
G1 X68.676 Y129.950 E6.32567
G1 X68.779 Y129.716 E6.33787
G1 X68.988 Y129.506 E6.35194
G1 X69.222 Y129.404 E6.36414
G1 X70.242 Y129.404 E6.41263
G1 X70.445 Y129.471 E6.42284
G1 X70.649 Y129.404 E6.43305
G1 X71.657 Y129.404 E6.48102
G1 X71.861 Y129.471 E6.49123
G1 X72.065 Y129.404 E6.50144
G1 X73.073 Y129.404 E6.54941
G1 X73.277 Y129.471 E6.55962
G1 X73.480 Y129.404 E6.56983
G1 X74.488 Y129.404 E6.61780
G1 X74.692 Y129.471 E6.62801
G1 X74.896 Y129.404 E6.63822
G1 X75.904 Y129.404 E6.68619
G1 X76.108 Y129.471 E6.69640
G1 X76.312 Y129.404 E6.70661
G1 X77.320 Y129.404 E6.75458
G1 X77.523 Y129.471 E6.76479
G1 X77.727 Y129.404 E6.77500
G1 X78.735 Y129.404 E6.82297
G1 X78.939 Y129.471 E6.83318
G1 X79.143 Y129.404 E6.84339
G1 X80.151 Y129.404 E6.89136
G1 X80.355 Y129.471 E6.90157
G1 X80.558 Y129.404 E6.91178
G1 X81.566 Y129.404 E6.95975
G1 X81.770 Y129.471 E6.96996
G1 X81.974 Y129.404 E6.98017
G1 X82.987 Y129.404 E7.02835
G1 X83.095 Y129.434 E7.03369
G1 X83.900 Y129.422 E7.07201
G1 X83.964 Y129.448 E7.07529
G1 X84.221 Y129.705 E7.09259
G1 X84.248 Y129.770 E7.09594
G1 X84.248 Y132.150 E7.20914
G1 X160.690 Y132.150 E10.84657
G1 X160.690 Y129.770 E10.95977
G1 X160.717 Y129.705 E10.96312
G1 X160.974 Y129.448 E10.98042
G1 X161.038 Y129.422 E10.98371
G1 X161.843 Y129.434 E11.02203
G1 X161.952 Y129.404 E11.02736
G1 X162.964 Y129.404 E11.07554
G1 X163.168 Y129.471 E11.08575
G1 X163.372 Y129.404 E11.09597
G1 X164.380 Y129.404 E11.14393
G1 X164.583 Y129.471 E11.15414
G1 X164.787 Y129.404 E11.16436
G1 X165.795 Y129.404 E11.21232
G1 X165.999 Y129.471 E11.22253
G1 X166.203 Y129.404 E11.23275
G1 X167.211 Y129.404 E11.28071
G1 X167.415 Y129.471 E11.29092
G1 X167.618 Y129.404 E11.30114
G1 X168.626 Y129.404 E11.34910
G1 X168.830 Y129.471 E11.35931
G1 X169.034 Y129.404 E11.36953
G1 X170.042 Y129.404 E11.41749
G1 X170.246 Y129.471 E11.42770
G1 X170.450 Y129.404 E11.43792
G1 X171.458 Y129.404 E11.48588
G1 X171.661 Y129.471 E11.49609
G1 X171.865 Y129.404 E11.50631
G1 X172.873 Y129.404 E11.55427
G1 X173.077 Y129.471 E11.56448
G1 X173.281 Y129.404 E11.57470
G1 X174.289 Y129.404 E11.62266
G1 X174.493 Y129.471 E11.63287
G1 X174.696 Y129.404 E11.64309
G1 X175.716 Y129.404 E11.69158
G1 X175.950 Y129.506 E11.70378
G1 X176.159 Y129.716 E11.71785
G1 X176.262 Y129.950 E11.73005
G1 X176.262 Y141.544 E12.28169
G1 X176.299 Y141.669 E12.28790
G1 X176.299 Y148.141 E12.59588
G1 E9.59588 F3000.00000
G1 F9600.000
G1 X176.299 Y141.669 E7.67437
G1 X176.262 Y141.544 E7.63564
G1 X176.262 Y138.546 E6.74588
G1 E6.59588 F3000.00000
G92 E0
G1 X178.391 Y144.290 F12000.000
G1 X178.391 Y152.005
G1 X176.906 Y153.490
G1 X173.506 Y155.190
G1 X167.179 Y155.190
G1 X166.906 Y154.890
G1 X165.506 Y154.890
G1 X164.106 Y153.490
G1 X157.896 Y156.463
G1 E6.00000 F3000.00000
G1 F2160.000
G1 X157.896 Y153.421 E6.14475
G1 X87.116 Y153.421 E9.51274
G1 X87.116 Y156.463 E9.65750
G1 X86.158 Y156.463 F12000.000
G1 F2160.000
G1 X86.011 Y156.317 E9.66735
G1 X85.852 Y156.463 E9.67766
G1 X86.158 Y156.463 F12000.000
G1 F2160.000
G1 X86.658 Y156.463 E9.70148
G1 X86.762 Y156.360 E9.70846
G1 X86.762 Y153.067 E9.86512
G1 X158.250 Y153.067 E13.26679
G1 X158.250 Y156.360 E13.42345
G1 X158.354 Y156.463 E13.43042
G1 X158.854 Y156.463 E13.45425
G1 X159.001 Y156.317 E13.46411
G1 X159.160 Y156.463 E13.47441
G1 X160.171 Y156.463 F12000.000
G1 F2160.000
G1 X160.374 Y156.274 E13.48761
G1 X160.576 Y156.463 E13.50080
G1 X161.587 Y156.463 F12000.000
G1 F2160.000
G1 X161.789 Y156.274 E13.51399
G1 X161.992 Y156.463 E13.52718
G1 X163.002 Y156.463 F12000.000
G1 F2160.000
G1 X163.162 Y156.317 E13.53749
G1 X163.308 Y156.463 E13.54735
G1 X163.809 Y156.463 E13.57117
G1 X163.956 Y156.317 E13.58103
G1 X164.115 Y156.463 E13.59133
G1 X165.126 Y156.463 F12000.000
G1 F2160.000
G1 X165.328 Y156.274 E13.60453
G1 X165.531 Y156.463 E13.61772
G1 X166.541 Y156.463 F12000.000
G1 F2160.000
G1 X166.744 Y156.274 E13.63091
G1 X166.946 Y156.463 E13.64411
G1 X167.957 Y156.463 F12000.000
G1 F2160.000
G1 X168.160 Y156.274 E13.65730
G1 X168.362 Y156.463 E13.67049
G1 X169.373 Y156.463 F12000.000
G1 F2160.000
G1 X169.575 Y156.274 E13.68368
G1 X169.778 Y156.463 E13.69688
G1 X170.788 Y156.463 F12000.000
G1 F2160.000
G1 X170.991 Y156.274 E13.71007
G1 X171.193 Y156.463 E13.72326
G1 X172.204 Y156.463 F12000.000
G1 F2160.000
G1 X172.406 Y156.274 E13.73645
G1 X172.609 Y156.463 E13.74965
G1 X173.620 Y156.463 F12000.000
G1 F2160.000
G1 X173.822 Y156.274 E13.76284
G1 X174.024 Y156.463 E13.77603
G1 X175.035 Y156.463 F12000.000
G1 F2160.000
G1 X175.195 Y156.317 E13.78634
G1 X175.341 Y156.463 E13.79620
G1 X175.556 Y156.463 E13.80641
G1 E10.80641 F3000.00000
G1 F9600.000
G1 X175.341 Y156.463 E10.74268
G1 E7.80641 F3000.00000
G92 E0
G1 X173.506 Y155.190 F12000.000
G1 X176.906 Y153.490
G1 X175.945 Y153.574
G1 E6.00000 F3000.00000
G1 F2160.000
G1 X175.945 Y141.713 E6.56439
G1 X175.908 Y141.623 E6.56901
G1 X175.908 Y130.003 E7.12195
G1 X175.881 Y129.938 E7.12530
G1 X175.728 Y129.784 E7.13563
G1 X175.663 Y129.758 E7.13898
G1 X174.738 Y129.758 E7.18299
G1 X174.673 Y129.784 E7.18634
G1 X174.493 Y129.965 E7.19847
G1 X174.312 Y129.784 E7.21061
G1 X174.247 Y129.758 E7.21396
G1 X173.322 Y129.758 E7.25797
G1 X173.257 Y129.784 E7.26132
G1 X173.077 Y129.965 E7.27345
G1 X172.897 Y129.784 E7.28559
G1 X172.832 Y129.758 E7.28894
G1 X171.907 Y129.758 E7.33294
G1 X171.842 Y129.784 E7.33629
G1 X171.661 Y129.965 E7.34843
G1 X171.481 Y129.784 E7.36056
G1 X171.416 Y129.758 E7.36391
G1 X170.491 Y129.758 E7.40792
G1 X170.426 Y129.784 E7.41127
G1 X170.246 Y129.965 E7.42341
G1 X170.066 Y129.784 E7.43554
G1 X170.000 Y129.758 E7.43889
G1 X169.076 Y129.758 E7.48290
G1 X169.011 Y129.784 E7.48625
G1 X168.830 Y129.965 E7.49839
G1 X168.650 Y129.784 E7.51052
G1 X168.585 Y129.758 E7.51387
G1 X167.660 Y129.758 E7.55788
G1 X167.595 Y129.784 E7.56123
G1 X167.415 Y129.965 E7.57336
G1 X167.234 Y129.784 E7.58550
G1 X167.169 Y129.758 E7.58885
G1 X166.244 Y129.758 E7.63286
G1 X166.179 Y129.784 E7.63621
G1 X165.999 Y129.965 E7.64834
G1 X165.819 Y129.784 E7.66048
G1 X165.754 Y129.758 E7.66383
G1 X164.829 Y129.758 E7.70784
G1 X164.764 Y129.784 E7.71119
G1 X164.583 Y129.965 E7.72332
G1 X164.403 Y129.784 E7.73546
G1 X164.338 Y129.758 E7.73881
G1 X163.413 Y129.758 E7.78282
G1 X163.348 Y129.784 E7.78616
G1 X163.168 Y129.965 E7.79830
G1 X162.987 Y129.784 E7.81044
G1 X162.922 Y129.758 E7.81378
G1 X161.998 Y129.758 E7.85779
G1 X161.933 Y129.784 E7.86114
G1 X161.795 Y129.922 E7.87039
G1 X161.649 Y129.775 E7.88025
G1 X161.148 Y129.775 E7.90407
G1 X161.044 Y129.879 E7.91105
G1 X161.044 Y132.503 E8.03593
G1 X83.894 Y132.503 E11.70703
G1 X83.894 Y129.879 E11.83191
G1 X83.790 Y129.775 E11.83889
G1 X83.289 Y129.775 E11.86271
G1 X83.143 Y129.922 E11.87257
G1 X83.005 Y129.784 E11.88182
G1 X82.940 Y129.758 E11.88517
G1 X82.016 Y129.758 E11.92918
G1 X81.951 Y129.784 E11.93252
G1 X81.770 Y129.965 E11.94466
G1 X81.590 Y129.784 E11.95680
G1 X81.525 Y129.758 E11.96014
G1 X80.600 Y129.758 E12.00415
G1 X80.535 Y129.784 E12.00750
G1 X80.355 Y129.965 E12.01964
G1 X80.174 Y129.784 E12.03177
G1 X80.109 Y129.758 E12.03512
G1 X79.184 Y129.758 E12.07913
G1 X79.119 Y129.784 E12.08248
G1 X78.939 Y129.965 E12.09462
G1 X78.759 Y129.784 E12.10675
G1 X78.694 Y129.758 E12.11010
G1 X77.769 Y129.758 E12.15411
G1 X77.704 Y129.784 E12.15746
G1 X77.523 Y129.965 E12.16960
G1 X77.343 Y129.784 E12.18173
G1 X77.278 Y129.758 E12.18508
G1 X76.353 Y129.758 E12.22909
G1 X76.288 Y129.784 E12.23244
G1 X76.108 Y129.965 E12.24457
G1 X75.927 Y129.784 E12.25671
G1 X75.862 Y129.758 E12.26006
G1 X74.938 Y129.758 E12.30407
G1 X74.872 Y129.784 E12.30742
G1 X74.692 Y129.965 E12.31955
G1 X74.512 Y129.784 E12.33169
G1 X74.447 Y129.758 E12.33504
G1 X73.522 Y129.758 E12.37905
G1 X73.457 Y129.784 E12.38240
G1 X73.277 Y129.965 E12.39453
G1 X73.096 Y129.784 E12.40667
G1 X73.031 Y129.758 E12.41002
G1 X72.106 Y129.758 E12.45402
G1 X72.041 Y129.784 E12.45737
G1 X71.861 Y129.965 E12.46951
G1 X71.681 Y129.784 E12.48164
G1 X71.616 Y129.758 E12.48499
G1 X70.691 Y129.758 E12.52900
G1 X70.626 Y129.784 E12.53235
G1 X70.445 Y129.965 E12.54449
G1 X70.265 Y129.784 E12.55662
G1 X70.200 Y129.758 E12.55997
G1 X69.275 Y129.758 E12.60398
G1 X69.210 Y129.784 E12.60733
G1 X69.057 Y129.938 E12.61766
G1 X69.030 Y130.003 E12.62101
G1 X69.030 Y144.650 E13.31795
G1 X69.067 Y144.687 E13.32045
G1 X69.067 Y150.213 E13.58339
G1 E10.58339 F3000.00000
G1 F9600.000
G1 X69.067 Y144.687 E8.94287
G1 X69.030 Y144.650 E8.92731
G1 X69.030 Y140.628 E7.73339
G1 E7.58339 F3000.00000
G92 E0
G1 X67.638 Y153.020 F12000.000
G1 X71.506 Y154.890
G1 X69.671 Y156.463
G1 E6.00000 F3000.00000
G1 F2160.000
G1 X69.818 Y156.317 E6.00986
G1 X69.977 Y156.463 E6.02016
G1 X70.988 Y156.463 F12000.000
G1 F2160.000
G1 X71.190 Y156.274 E6.03336
G1 X71.393 Y156.463 E6.04655
G1 X72.403 Y156.463 F12000.000
G1 F2160.000
G1 X72.606 Y156.274 E6.05974
G1 X72.808 Y156.463 E6.07293
G1 X73.819 Y156.463 F12000.000
G1 F2160.000
G1 X74.021 Y156.274 E6.08613
G1 X74.224 Y156.463 E6.09932
G1 X75.235 Y156.463 F12000.000
G1 F2160.000
G1 X75.437 Y156.274 E6.11251
G1 X75.639 Y156.463 E6.12570
G1 X76.650 Y156.463 F12000.000
G1 F2160.000
G1 X76.853 Y156.274 E6.13890
G1 X77.055 Y156.463 E6.15209
G1 X78.066 Y156.463 F12000.000
G1 F2160.000
G1 X78.268 Y156.274 E6.16528
G1 X78.471 Y156.463 E6.17848
G1 X79.481 Y156.463 F12000.000
G1 F2160.000
G1 X79.641 Y156.317 E6.18878
G1 X79.787 Y156.463 E6.19864
G1 X80.288 Y156.463 F12000.000
G1 F2160.000
G1 X80.435 Y156.317 E6.20850
G1 X80.594 Y156.463 E6.21880
G1 X81.605 Y156.463 F12000.000
G1 F2160.000
G1 X81.807 Y156.274 E6.23199
G1 X82.010 Y156.463 E6.24519
G1 X83.020 Y156.463 F12000.000
G1 F2160.000
G1 X83.223 Y156.274 E6.25838
G1 X83.425 Y156.463 E6.27157
G1 X84.436 Y156.463 F12000.000
G1 F2160.000
G1 X84.639 Y156.274 E6.28477
G1 X84.841 Y156.463 E6.29796
G1 E3.29796 F3000.00000
G1 F9600.000
G1 X84.639 Y156.274 E3.21565
G1 X84.436 Y156.463 E3.13334
G1 E0.29796 F3000.00000
G92 E0
G1 X81.506 Y152.890 F12000.000
G1 X79.506 Y152.890
G1 X86.725 Y141.357
G1 E6.00000 F3000.00000
G1 F2160.000
G1 X158.213 Y141.357 E9.40167
G1 X158.213 Y144.213 E9.53757
G1 X86.725 Y144.213 E12.93924
G1 X86.725 Y141.417 E13.07228
G1 X87.079 Y141.711 F12000.000
G1 F2160.000
G1 X157.859 Y141.711 E16.44027
G1 X157.859 Y143.860 E16.54249
G1 X87.079 Y143.860 E19.91048
G1 X87.079 Y141.771 E20.00985
G1 E17.00985 F3000.00000
G1 F9600.000
G1 X96.679 Y141.763 E14.15985
G1 E14.00985 F3000.00000
G92 E0
G1 X89.969 Y141.180 F12000.000
G1 X79.469 Y141.180
G1 X77.614 Y143.035
G1 X67.851 Y143.072
G1 X67.618 Y141.180
G1 X67.618 Y133.180
G1 X83.991 Y114.116
G1 E6.00000 F3000.00000
G1 F2160.000
G1 X83.991 Y115.154 E6.04941
G1 X85.142 Y115.154 E6.10417
G1 X85.207 Y115.181 E6.10752
G1 X85.464 Y115.438 E6.12482
G1 X85.491 Y115.503 E6.12817
G1 X85.491 Y119.817 E6.33343
G1 X85.464 Y119.882 E6.33678
G1 X85.207 Y120.139 E6.35408
G1 X85.142 Y120.166 E6.35743
G1 X76.278 Y120.166 E6.77919
G1 X76.213 Y120.139 E6.78254
G1 X75.956 Y119.882 E6.79984
G1 X75.929 Y119.817 E6.80319
G1 X75.929 Y109.453 E7.29632
G1 X75.956 Y109.388 E7.29967
G1 X76.213 Y109.131 E7.31697
G1 X76.278 Y109.104 E7.32032
G1 X85.142 Y109.104 E7.74209
G1 X85.207 Y109.131 E7.74544
G1 X85.464 Y109.388 E7.76274
G1 X85.491 Y109.453 E7.76609
G1 X85.491 Y113.767 E7.97134
G1 X85.464 Y113.832 E7.97469
G1 X85.207 Y114.089 E7.99199
G1 X85.142 Y114.116 E7.99534
G1 X84.051 Y114.116 E8.04725
G1 X83.637 Y113.762 F12000.000
G1 F2160.000
G1 X83.637 Y115.508 E8.13034
G1 X85.034 Y115.508 E8.19678
G1 X85.137 Y115.612 E8.20376
G1 X85.137 Y119.708 E8.39869
G1 X85.034 Y119.812 E8.40566
G1 X76.387 Y119.812 E8.81710
G1 X76.283 Y119.708 E8.82407
G1 X76.283 Y109.562 E9.30689
G1 X76.387 Y109.458 E9.31386
G1 X85.034 Y109.458 E9.72530
G1 X85.137 Y109.562 E9.73227
G1 X85.137 Y113.658 E9.92720
G1 X85.034 Y113.762 E9.93418
G1 X83.697 Y113.762 E9.99777
G1 E6.99777 F3000.00000
G1 F9600.000
G1 X83.637 Y115.508 E6.47909
G1 X85.034 Y115.508 E6.06455
G1 X85.137 Y115.612 E6.02103
G1 X85.137 Y119.708 E4.80485
G1 X85.034 Y119.812 E4.76133
G1 X82.967 Y119.812 E4.14777
G1 E3.99777 F3000.00000
G92 E0
G1 X97.616 Y110.641 F12000.000
G1 E6.00000 F3000.00000
G1 F2160.000
G1 X97.873 Y110.384 E6.01730
G1 X97.938 Y110.357 E6.02065
G1 X116.301 Y110.357 E6.89446
G1 X116.366 Y110.384 E6.89781
G1 X116.623 Y110.641 E6.91511
