; generated by PrusaSlicer 2.2.0+win64 on 2020-12-05 at 14:19:53 UTC

; 

; external perimeters extrusion width = 0.45mm
; perimeters extrusion width = 0.45mm
; infill extrusion width = 0.45mm
; solid infill extrusion width = 0.45mm
; top infill extrusion width = 0.40mm
; first layer extrusion width = 0.42mm

M201 X9000 Y9000 Z500 E10000 ; sets maximum accelerations, mm/sec^2
M203 X500 Y500 Z12 E120 ; sets maximum feedrates, mm/sec
M204 P1500 R1500 T1500 ; sets acceleration (P, T) and retract acceleration (R), mm/sec^2
M205 X10.00 Y10.00 Z0.20 E2.50 ; sets the jerk limits, mm/sec
M205 S0 T0 ; sets the minimum extruding and travel feed rate, mm/sec
;;; Copy from Cura output
M140 S60 ; set bed temp
M105 ; Read current temp
M190 S60 ; set bed temp and wait
M104 S180 ; set extruder temp
M105 ; Read current temp
M109 S180 ; wait for extruder temp and wait
M82        ; Set E codes absolute (default) - absolute extrusion mode

;;; Copy from Cura config
G21 ;metric values
G90 ;absolute positioning
M82 ;set extruder to absolute mode
M107 ;start with the fan off
G28 X0 Y0 ;move X/Y to min endstops
G28 Z0 ;move Z to min endstops
G1 Z15.0 F200 ;move the platform down 15mm
G92 E0 ;zero the extruded length
G1 F200 E3 ;extrude 3mm of feed stock
G92 E0 ;zero the extruded length again
G1 F200
G0 Y20 F200
M117 Printing...
G5
G21 ; set units to millimeters
G90 ; use absolute coordinates
M82 ; use absolute distances for extrusion
G92 E0
; Filament gcode
M106 S127.5
G1 E-6.00000 F3000.00000
G92 E0
G1 Z0.350 F12000.000
G1 X82.267 Y94.184
G1 E6.00000 F3000.00000
G1 F2160.000
G1 X83.380 Y93.352 E6.07323
G1 X112.185 Y76.603 E7.82910
G1 X113.468 Y76.001 E7.90374
G1 X114.717 Y75.555 E7.97362
G1 X116.004 Y75.232 E8.04355
G1 X117.413 Y75.019 E8.11863
G1 X118.793 Y74.951 E8.19148
G1 X120.166 Y75.018 E8.26392
G1 X121.482 Y75.212 E8.33398
G1 X122.910 Y75.570 E8.41158
G1 X124.164 Y76.020 E8.48177
G1 X125.407 Y76.608 E8.55422
G1 X126.588 Y77.316 E8.62680
G1 X127.655 Y78.105 E8.69672
G1 X128.748 Y79.096 E8.77445
G1 X129.641 Y80.084 E8.84465
G1 X130.459 Y81.186 E8.91696
G1 X131.192 Y82.415 E8.99236
G1 X131.758 Y83.616 E9.06237
G1 X132.221 Y84.911 E9.13482
G1 X132.565 Y86.297 E9.21009
G1 X132.758 Y87.609 E9.27996
G1 X132.826 Y88.967 E9.35161
G1 X132.826 Y121.015 E11.04035
G1 X132.758 Y122.390 E11.11289
G1 X132.556 Y123.752 E11.18547
G1 X132.222 Y125.088 E11.25805
G1 X131.758 Y126.385 E11.33063
G1 X131.169 Y127.630 E11.40320
G1 X130.461 Y128.811 E11.47578
G1 X129.641 Y129.918 E11.54836
G1 X128.716 Y130.938 E11.62093
G1 X127.695 Y131.863 E11.69351
G1 X126.589 Y132.684 E11.76609
G1 X125.408 Y133.392 E11.83866
G1 X124.163 Y133.981 E11.91124
G1 X122.866 Y134.445 E11.98382
G1 X121.530 Y134.779 E12.05640
G1 X120.167 Y134.982 E12.12897
G1 X118.792 Y135.049 E12.20155
G1 X117.414 Y134.981 E12.27426
G1 X116.004 Y134.768 E12.34940
G1 X114.718 Y134.445 E12.41927
G1 X113.468 Y133.999 E12.48920
G1 X112.187 Y133.398 E12.56376
G1 X83.381 Y116.648 E14.31966
G1 X82.267 Y115.816 E14.39295
G1 X81.285 Y114.924 E14.46282
G1 X80.393 Y113.942 E14.53275
G1 X79.541 Y112.800 E14.60784
G1 X78.830 Y111.614 E14.68068
G1 X78.224 Y110.323 E14.75582
G1 X77.779 Y109.075 E14.82570
G1 X77.455 Y107.788 E14.89563
G1 X77.242 Y106.379 E14.97071
G1 X77.174 Y105.001 E15.04342
G1 X77.242 Y103.622 E15.11613
G1 X77.455 Y102.212 E15.19127
G1 X77.778 Y100.926 E15.26114
G1 X78.225 Y99.674 E15.33121
G1 X78.831 Y98.385 E15.40629
G1 X79.540 Y97.201 E15.47900
G1 X80.393 Y96.058 E15.55414
G1 X81.284 Y95.076 E15.62402
G1 X82.222 Y94.225 E15.69078
G1 X82.454 Y94.480 F12000.000
G1 F2160.000
G1 X83.584 Y93.631 E15.76525
G1 X112.345 Y76.908 E17.51842
G1 X113.584 Y76.326 E17.59054
G1 X114.818 Y75.885 E17.65960
G1 X116.087 Y75.566 E17.72856
G1 X117.448 Y75.362 E17.80107
G1 X118.794 Y75.296 E17.87209
G1 X120.132 Y75.362 E17.94266
G1 X121.431 Y75.553 E18.01184
G1 X122.797 Y75.896 E18.08608
G1 X124.031 Y76.338 E18.15514
G1 X125.244 Y76.912 E18.22583
G1 X126.396 Y77.602 E18.29662
G1 X127.449 Y78.382 E18.36569
G1 X128.495 Y79.330 E18.44004
G1 X129.374 Y80.302 E18.50910
G1 X130.173 Y81.379 E18.57979
G1 X130.864 Y82.531 E18.65058
G1 X131.425 Y83.716 E18.71965
G1 X131.892 Y85.015 E18.79238
G1 X132.224 Y86.348 E18.86479
G1 X132.415 Y87.645 E18.93385
G1 X132.481 Y88.974 E19.00400
G1 X132.481 Y121.015 E20.69237
G1 X132.415 Y122.357 E20.76322
G1 X132.218 Y123.684 E20.83390
G1 X131.891 Y124.989 E20.90481
G1 X131.439 Y126.252 E20.97549
G1 X130.865 Y127.467 E21.04628
G1 X130.174 Y128.619 E21.11708
G1 X129.374 Y129.698 E21.18787
G1 X128.471 Y130.695 E21.25877
G1 X127.475 Y131.598 E21.32957
G1 X126.396 Y132.398 E21.40036
G1 X125.244 Y133.088 E21.47115
G1 X124.031 Y133.662 E21.54184
G1 X122.766 Y134.115 E21.61263
G1 X121.463 Y134.441 E21.68343
G1 X120.132 Y134.638 E21.75433
G1 X118.790 Y134.704 E21.82512
G1 X117.448 Y134.638 E21.89591
G1 X116.087 Y134.434 E21.96843
G1 X114.816 Y134.115 E22.03750
G1 X113.584 Y133.674 E22.10645
G1 X112.344 Y133.091 E22.17865
G1 X83.584 Y116.369 E23.93174
G1 X82.498 Y115.560 E24.00307
G1 X81.528 Y114.679 E24.07214
G1 X80.648 Y113.710 E24.14109
G1 X79.827 Y112.606 E24.21361
G1 X79.135 Y111.452 E24.28451
G1 X78.549 Y110.207 E24.35703
G1 X78.108 Y108.973 E24.42609
G1 X77.789 Y107.704 E24.49505
G1 X77.585 Y106.343 E24.56757
G1 X77.519 Y104.999 E24.63847
G1 X77.585 Y103.657 E24.70926
G1 X77.789 Y102.296 E24.78178
G1 X78.109 Y101.025 E24.85085
G1 X78.549 Y99.793 E24.91980
G1 X79.135 Y98.548 E24.99232
G1 X79.827 Y97.394 E25.06322
G1 X80.648 Y96.290 E25.13574
G1 X81.528 Y95.321 E25.20470
G1 X82.410 Y94.520 E25.26745
G1 X82.641 Y94.776 F12000.000
G1 F2160.000
G1 X83.786 Y93.910 E25.34304
G1 X112.504 Y77.215 E27.09352
G1 X113.700 Y76.650 E27.16322
G1 X114.918 Y76.215 E27.23136
G1 X116.171 Y75.901 E27.29945
G1 X117.482 Y75.705 E27.36930
G1 X118.793 Y75.641 E27.43846
G1 X120.100 Y75.705 E27.50740
G1 X121.378 Y75.894 E27.57549
G1 X122.681 Y76.221 E27.64628
G1 X123.899 Y76.657 E27.71442
G1 X125.082 Y77.217 E27.78343
G1 X126.204 Y77.889 E27.85237
G1 X127.244 Y78.659 E27.92054
G1 X128.239 Y79.561 E27.99133
G1 X129.107 Y80.520 E28.05947
G1 X129.887 Y81.572 E28.12848
G1 X130.561 Y82.695 E28.19749
G1 X131.113 Y83.863 E28.26558
G1 X131.562 Y85.115 E28.33566
G1 X131.883 Y86.399 E28.40538
G1 X132.072 Y87.678 E28.47352
G1 X132.136 Y88.980 E28.54223
G1 X132.136 Y121.015 E30.23029
G1 X132.072 Y122.323 E30.29932
G1 X131.880 Y123.618 E30.36833
G1 X131.561 Y124.889 E30.43734
G1 X131.120 Y126.122 E30.50635
G1 X130.560 Y127.306 E30.57536
G1 X129.887 Y128.429 E30.64437
G1 X129.107 Y129.481 E30.71338
G1 X128.227 Y130.451 E30.78239
G1 X127.257 Y131.331 E30.85140
G1 X126.205 Y132.111 E30.92041
G1 X125.082 Y132.784 E30.98942
G1 X123.898 Y133.344 E31.05843
G1 X122.665 Y133.785 E31.12744
G1 X121.394 Y134.103 E31.19645
G1 X120.099 Y134.295 E31.26546
G1 X118.791 Y134.359 E31.33447
G1 X117.483 Y134.295 E31.40348
G1 X116.171 Y134.099 E31.47335
G1 X114.917 Y133.785 E31.54150
G1 X113.700 Y133.350 E31.60959
G1 X112.504 Y132.785 E31.67929
G1 X83.786 Y116.090 E33.42974
G1 X82.730 Y115.305 E33.49908
G1 X81.772 Y114.436 E33.56723
G1 X80.904 Y113.479 E33.63532
G1 X80.113 Y112.415 E33.70517
G1 X79.439 Y111.290 E33.77425
G1 X78.874 Y110.091 E33.84413
G1 X78.438 Y108.873 E33.91227
G1 X78.124 Y107.620 E33.98036
G1 X77.928 Y106.309 E34.05021
G1 X77.864 Y105.000 E34.11930
G1 X77.930 Y103.675 E34.18917
G1 X78.120 Y102.396 E34.25731
G1 X78.434 Y101.142 E34.32541
G1 X78.879 Y99.894 E34.39526
G1 X79.440 Y98.709 E34.46434
G1 X80.113 Y97.586 E34.53335
G1 X80.904 Y96.521 E34.60323
G1 X81.773 Y95.563 E34.67137
G1 X82.597 Y94.816 E34.72999
G1 E31.72999 F3000.00000
G1 F9600.000
G1 X83.786 Y93.910 E31.28638
G1 X90.793 Y89.837 E28.87999
G1 E28.72999 F3000.00000
G92 E0
G1 X131.964 Y91.964 F12000.000
G1 E6.00000 F3000.00000
G1 F2160.000
G1 X131.721 Y92.926 E6.05227
G1 X131.273 Y94.174 E6.12218
G1 X130.704 Y95.372 E6.19208
G1 X130.021 Y96.509 E6.26198
G1 X129.229 Y97.574 E6.33188
G1 X128.337 Y98.556 E6.40178
G1 X127.353 Y99.445 E6.47168
G1 X126.287 Y100.234 E6.54158
G1 X125.148 Y100.915 E6.61148
G1 X123.948 Y101.480 E6.68138
G1 X122.699 Y101.925 E6.75128
G1 X121.412 Y102.246 E6.82118
G1 X120.099 Y102.439 E6.89108
G1 X118.774 Y102.503 E6.96098
G1 X117.449 Y102.436 E7.03088
G1 X116.138 Y102.240 E7.10078
G1 X114.851 Y101.916 E7.17069
G1 X113.603 Y101.467 E7.24059
G1 X112.404 Y100.899 E7.31049
G1 X111.267 Y100.215 E7.38039
G1 X110.203 Y99.424 E7.45029
G1 X109.221 Y98.532 E7.52019
G1 X108.332 Y97.548 E7.59009
G1 X107.543 Y96.481 E7.65999
G1 X106.862 Y95.342 E7.72989
G1 X106.297 Y94.143 E7.79979
G1 X105.851 Y92.893 E7.86969
G1 X105.531 Y91.606 E7.93959
G1 X105.338 Y90.294 E8.00949
G1 X105.274 Y88.969 E8.07939
G1 X105.341 Y87.644 E8.14929
G1 X105.537 Y86.332 E8.21919
G1 X105.861 Y85.045 E8.28909
G1 X106.310 Y83.797 E8.35899
G1 X106.878 Y82.599 E8.42890
G1 X107.562 Y81.462 E8.49880
G1 X108.353 Y80.397 E8.56870
G1 X109.245 Y79.415 E8.63860
G1 X109.577 Y79.116 E8.66214
G1 E5.66214 F3000.00000
G1 F9600.000
G1 X109.245 Y79.415 E5.52952
G1 X108.353 Y80.397 E5.13572
G1 X107.562 Y81.462 E4.74191
G1 X106.878 Y82.599 E4.34810
G1 X106.310 Y83.797 E3.95430
G1 X105.861 Y85.045 E3.56049
G1 X105.537 Y86.332 E3.16668
G1 X105.360 Y87.513 E2.81214
G1 E2.66214 F3000.00000
G92 E0
G1 X111.719 Y75.755 F12000.000
G1 X112.587 Y77.366
G1 E6.00000 F3000.00000
G1 F2160.000
G1 X111.480 Y78.029 E6.06798
G1 X110.441 Y78.798 E6.13610
G1 X109.483 Y79.665 E6.20421
G1 X108.614 Y80.623 E6.27233
G1 X107.844 Y81.660 E6.34045
G1 X107.178 Y82.769 E6.40856
G1 X106.625 Y83.937 E6.47668
G1 X106.189 Y85.154 E6.54480
G1 X105.874 Y86.408 E6.61291
G1 X105.683 Y87.686 E6.68103
G1 X105.619 Y88.977 E6.74915
G1 X105.682 Y90.268 E6.81727
G1 X105.870 Y91.547 E6.88538
G1 X106.184 Y92.801 E6.95350
G1 X106.618 Y94.019 E7.02162
G1 X107.170 Y95.187 E7.08973
G1 X107.834 Y96.297 E7.15785
G1 X108.604 Y97.335 E7.22597
G1 X109.471 Y98.294 E7.29408
G1 X110.428 Y99.162 E7.36220
G1 X111.466 Y99.933 E7.43032
G1 X112.575 Y100.598 E7.49844
G1 X113.743 Y101.152 E7.56655
G1 X114.960 Y101.588 E7.63467
G1 X116.213 Y101.903 E7.70279
G1 X117.492 Y102.093 E7.77090
G1 X118.783 Y102.158 E7.83902
G1 X120.074 Y102.095 E7.90714
G1 X121.353 Y101.906 E7.97526
G1 X122.607 Y101.593 E8.04337
G1 X123.824 Y101.158 E8.11149
G1 X124.993 Y100.606 E8.17961
G1 X126.102 Y99.942 E8.24772
G1 X127.141 Y99.173 E8.31584
G1 X128.100 Y98.306 E8.38396
G1 X128.968 Y97.348 E8.45208
G1 X129.739 Y96.311 E8.52019
G1 X130.404 Y95.202 E8.58831
G1 X130.958 Y94.034 E8.65643
G1 X131.394 Y92.817 E8.72454
G1 X131.709 Y91.563 E8.79266
G1 X131.899 Y90.285 E8.86078
G1 X131.963 Y88.994 E8.92890
G1 X131.925 Y88.192 E8.97120
G1 X131.900 Y87.699 F12000.000
G1 F2160.000
G1 X131.713 Y86.432 E9.03867
G1 X131.398 Y85.167 F12000.000
G1 F2160.000
G1 X131.346 Y85.022 E9.04677
G1 X130.957 Y83.937 F12000.000
G1 F2160.000
G1 X130.586 Y83.151 E9.09256
G1 X130.410 Y82.780 F12000.000
G1 F2160.000
G1 X130.080 Y82.229 E9.12639
G1 X129.746 Y81.671 F12000.000
G1 F2160.000
G1 X129.364 Y81.156 E9.16019
G1 X128.976 Y80.633 F12000.000
G1 F2160.000
G1 X128.117 Y79.683 E9.22765
G1 X127.140 Y78.798 F12000.000
G1 F2160.000
G1 X126.482 Y78.309 E9.27086
G1 X126.112 Y78.035 F12000.000
G1 F2160.000
G1 X125.516 Y77.678 E9.30749
G1 X125.004 Y77.371 F12000.000
G1 F2160.000
G1 X124.425 Y77.096 E9.34127
G1 X123.836 Y76.818 F12000.000
G1 F2160.000
G1 X122.631 Y76.386 E9.40873
G1 X121.352 Y76.065 F12000.000
G1 F2160.000
G1 X120.493 Y75.937 E9.45452
G1 X120.087 Y75.877 F12000.000
G1 F2160.000
G1 X119.387 Y75.842 E9.49146
G1 X118.796 Y75.813 F12000.000
G1 F2160.000
G1 X118.280 Y75.838 E9.51870
G1 X117.504 Y75.877 F12000.000
G1 F2160.000
G1 X117.228 Y75.917 E9.53341
G1 X116.213 Y76.069 F12000.000
G1 F2160.000
G1 X115.370 Y76.279 E9.57920
G1 X114.972 Y76.379 F12000.000
G1 F2160.000
G1 X113.766 Y76.810 E9.64667
G1 E6.64667 F3000.00000
G1 F9600.000
G1 X114.972 Y76.379 E6.26656
G1 E3.64667 F3000.00000
G92 E0
G1 X92.550 Y91.550 F12000.000
G1 E6.00000 F3000.00000
G1 F2160.000
G1 X93.862 Y91.746 E6.06990
G1 X95.149 Y92.070 E6.13980
G1 X96.397 Y92.518 E6.20970
G1 X97.596 Y93.087 E6.27960
G1 X98.733 Y93.770 E6.34950
G1 X99.797 Y94.562 E6.41940
G1 X100.779 Y95.454 E6.48930
G1 X101.668 Y96.438 E6.55921
G1 X102.457 Y97.504 E6.62911
G1 X103.138 Y98.643 E6.69901
G1 X103.703 Y99.843 E6.76891
G1 X104.149 Y101.092 E6.83881
G1 X104.469 Y102.380 E6.90871
G1 X104.662 Y103.692 E6.97861
G1 X104.726 Y105.017 E7.04851
G1 X104.659 Y106.342 E7.11841
G1 X104.463 Y107.654 E7.18831
G1 X104.139 Y108.940 E7.25821
G1 X103.690 Y110.188 E7.32811
G1 X103.122 Y111.387 E7.39801
G1 X102.438 Y112.524 E7.46791
G1 X101.647 Y113.588 E7.53781
G1 X100.755 Y114.570 E7.60772
G1 X99.771 Y115.460 E7.67762
G1 X98.704 Y116.248 E7.74752
G1 X97.566 Y116.929 E7.81742
G1 X96.366 Y117.495 E7.88732
G1 X95.116 Y117.940 E7.95722
G1 X93.829 Y118.261 E8.02712
G1 X92.517 Y118.454 E8.09702
G1 X91.192 Y118.517 E8.16692
G1 X89.867 Y118.450 E8.23682
G1 X88.555 Y118.254 E8.30672
G1 X87.314 Y117.942 E8.37414
G1 E5.37414 F3000.00000
G1 F9600.000
G1 X88.555 Y118.254 E4.99433
G1 X89.867 Y118.450 E4.60052
G1 X91.192 Y118.517 E4.20670
G1 X92.517 Y118.454 E3.81289
G1 X93.829 Y118.261 E3.41909
G1 X95.116 Y117.940 E3.02528
G1 X96.366 Y117.495 E2.63147
G1 X96.693 Y117.341 E2.52414
G1 E2.37414 F3000.00000
G92 E0
G1 X86.854 Y90.644 F12000.000
G1 X87.319 Y92.055
G1 E6.00000 F3000.00000
G1 F2160.000
G1 X88.588 Y91.739 E6.06890
G1 X89.901 Y91.546 E6.13881
G1 X91.226 Y91.483 E6.20871
G1 X92.550 Y91.550 E6.27861
G1 X91.217 Y91.828 F12000.000
G1 F2160.000
G1 X89.926 Y91.890 E6.34672
G1 X88.647 Y92.079 E6.41484
G1 X87.393 Y92.393 E6.48296
G1 X86.176 Y92.827 E6.55108
G1 X85.197 Y93.289 E6.60810
G1 X83.887 Y94.051 F12000.000
G1 F2160.000
G1 X83.556 Y94.296 E6.62975
G1 X82.846 Y94.824 F12000.000
G1 F2160.000
G1 X82.202 Y95.407 E6.67552
G1 X81.898 Y95.683 F12000.000
G1 F2160.000
G1 X81.037 Y96.631 E6.74299
G1 X80.259 Y97.678 F12000.000
G1 F2160.000
G1 X79.929 Y98.228 E6.77673
G1 X79.594 Y98.787 F12000.000
G1 F2160.000
G1 X79.343 Y99.316 E6.80761
G1 X79.041 Y99.956 F12000.000
G1 F2160.000
G1 X78.947 Y100.219 E6.82232
G1 X78.602 Y101.185 F12000.000
G1 F2160.000
G1 X78.390 Y102.027 E6.86808
G1 X78.291 Y102.426 F12000.000
G1 F2160.000
G1 X78.102 Y103.692 E6.93555
G1 X78.037 Y104.996 F12000.000
G1 F2160.000
G1 X78.065 Y105.581 E6.96645
G1 X78.100 Y106.287 F12000.000
G1 F2160.000
G1 X78.141 Y106.564 E6.98117
G1 X78.292 Y107.578 F12000.000
G1 F2160.000
G1 X78.502 Y108.420 E7.02692
G1 X78.603 Y108.819 F12000.000
G1 F2160.000
G1 X79.033 Y110.025 E7.09439
G1 X79.590 Y111.205 F12000.000
G1 F2160.000
G1 X79.891 Y111.709 E7.12532
G1 X80.255 Y112.315 F12000.000
G1 F2160.000
G1 X80.421 Y112.540 E7.14006
G1 X81.032 Y113.362 F12000.000
G1 F2160.000
G1 X81.615 Y114.006 E7.18582
G1 X81.892 Y114.311 F12000.000
G1 F2160.000
G1 X82.840 Y115.171 E7.25329
G1 E4.25329 F3000.00000
G1 F9600.000
G1 X81.892 Y114.311 E3.87318
G1 E1.25329 F3000.00000
G92 E0
G1 X84.137 Y118.231 F12000.000
G1 X85.191 Y116.707
G1 E6.00000 F3000.00000
G1 F2160.000
G1 X86.160 Y117.166 E6.05651
G1 X87.377 Y117.603 E6.12463
G1 X88.631 Y117.917 E6.19274
G1 X89.909 Y118.108 E6.26086
G1 X91.200 Y118.172 E6.32898
G1 X92.492 Y118.110 E6.39710
G1 X93.770 Y117.921 E6.46521
G1 X95.024 Y117.607 E6.53333
G1 X96.242 Y117.173 E6.60145
G1 X97.411 Y116.621 E6.66956
G1 X98.520 Y115.957 E6.73768
G1 X99.559 Y115.188 E6.80580
G1 X100.517 Y114.320 E6.87392
G1 X101.386 Y113.363 E6.94203
G1 X102.156 Y112.325 E7.01015
G1 X102.822 Y111.217 E7.07827
G1 X103.375 Y110.049 E7.14638
G1 X103.811 Y108.832 E7.21450
G1 X104.126 Y107.578 E7.28262
G1 X104.317 Y106.299 E7.35074
G1 X104.381 Y105.008 E7.41885
G1 X104.318 Y103.717 E7.48697
G1 X104.130 Y102.438 E7.55509
G1 X103.816 Y101.184 E7.62320
G1 X103.381 Y99.967 E7.69132
G1 X102.830 Y98.798 E7.75944
G1 X102.166 Y97.689 E7.82756
G1 X101.396 Y96.650 E7.89567
G1 X100.529 Y95.692 E7.96379
G1 X99.572 Y94.823 E8.03191
G1 X98.534 Y94.052 E8.10002
G1 X97.425 Y93.387 E8.16814
G1 X96.257 Y92.834 E8.23626
G1 X95.040 Y92.397 E8.30438
G1 X93.787 Y92.082 E8.37249
G1 X92.508 Y91.892 E8.44061
G1 X91.217 Y91.828 E8.50873
G1 E5.50873 F3000.00000
