; generated by PrusaSlicer 2.2.0+win64 on 2020-12-04 at 15:16:55 UTC

; 

; external perimeters extrusion width = 0.45mm
; perimeters extrusion width = 0.45mm
; infill extrusion width = 0.45mm
; solid infill extrusion width = 0.45mm
; top infill extrusion width = 0.40mm
; first layer extrusion width = 0.42mm

M201 X9000 Y9000 Z500 E10000 ; sets maximum accelerations, mm/sec^2
M203 X500 Y500 Z12 E120 ; sets maximum feedrates, mm/sec
M204 P1500 R1500 T1500 ; sets acceleration (P, T) and retract acceleration (R), mm/sec^2
M205 X10.00 Y10.00 Z0.20 E2.50 ; sets the jerk limits, mm/sec
M205 S0 T0 ; sets the minimum extruding and travel feed rate, mm/sec
;;; Copy from Cura output
M140 S60 ; set bed temp
M105 ; Read current temp
M190 S60 ; set bed temp and wait
M104 S175 ; set extruder temp
M105 ; Read current temp
M109 S175 ; wait for extruder temp and wait
M82        ; Set E codes absolute (default) - absolute extrusion mode

;;; Copy from Cura config
G21 ;metric values
G90 ;absolute positioning
M82 ;set extruder to absolute mode
M107 ;start with the fan off
G28 X0 Y0 ;move X/Y to min endstops
G28 Z0 ;move Z to min endstops
G1 Z15.0 F200 ;move the platform down 15mm
G92 E0 ;zero the extruded length
G1 F200 E3 ;extrude 3mm of feed stock
G92 E0 ;zero the extruded length again
G1 F200
G0 Y20 F200
M117 Printing...
G5
G21 ; set units to millimeters
G90 ; use absolute coordinates
M82 ; use absolute distances for extrusion
G92 E0
; Filament gcode
M106 S198.9
G1 E-6.00000 F3000.00000
G92 E0
G1 Z0.350 F12000.000
G1 X98.898 Y99.286
G1 E6.00000 F3000.00000
G1 F2160.000
G1 X99.434 Y99.149 E6.02916
G1 X108.470 Y99.147 E6.50532
G1 X109.007 Y99.257 E6.53418
G1 X109.656 Y99.556 E6.57187
G1 X109.956 Y99.778 E6.59154
G1 X110.398 Y100.408 E6.63209
G1 X110.614 Y101.236 E6.67720
G1 X110.625 Y108.658 E7.06830
G1 X110.422 Y109.535 E7.11574
G1 X110.036 Y110.138 E7.15348
G1 X109.578 Y110.484 E7.18369
G1 X108.916 Y110.778 E7.22188
G1 X108.512 Y110.852 E7.24351
G1 X99.454 Y110.852 E7.72084
G1 X98.995 Y110.757 E7.74549
G1 X98.595 Y110.515 E7.77015
G1 X98.249 Y110.055 E7.80050
G1 X98.121 Y109.490 E7.83101
G1 X98.121 Y100.480 E8.30577
G1 X98.216 Y100.022 E8.33042
G1 X98.458 Y99.622 E8.35507
G1 X98.850 Y99.322 E8.38107
G1 X99.053 Y99.595 F12000.000
G1 F2160.000
G1 X99.463 Y99.493 E8.40333
G1 X108.470 Y99.492 E8.87794
G1 X108.878 Y99.577 E8.89990
G1 X109.727 Y100.035 E8.95074
G1 X110.091 Y100.566 E8.98464
G1 X110.275 Y101.305 E9.02476
G1 X110.281 Y108.629 E9.41071
G1 X110.101 Y109.408 E9.45288
G1 X109.762 Y109.927 E9.48551
G1 X109.425 Y110.175 E9.50760
G1 X108.818 Y110.447 E9.54264
G1 X108.498 Y110.507 E9.55979
G1 X99.472 Y110.507 E10.03540
G1 X99.117 Y110.434 E10.05450
G1 X98.809 Y110.243 E10.07360
G1 X98.556 Y109.897 E10.09621
G1 X98.465 Y109.480 E10.11869
G1 X98.466 Y100.499 E10.59194
G1 X98.539 Y100.144 E10.61105
G1 X98.730 Y99.836 E10.63015
G1 X99.005 Y99.631 E10.64823
G1 X98.995 Y100.057 F12000.000
G1 F2160.000
G1 X99.217 Y99.898 E10.66263
G1 X99.483 Y99.837 E10.67702
G1 X108.469 Y99.837 E11.15052
G1 X108.746 Y99.896 E11.16544
G1 X109.490 Y100.287 E11.20971
G1 X109.778 Y100.711 E11.23672
G1 X109.935 Y101.360 E11.27189
G1 X109.937 Y108.605 E11.65371
G1 X109.781 Y109.281 E11.69024
G1 X109.497 Y109.705 E11.71714
G1 X108.752 Y110.101 E11.76162
G1 X108.486 Y110.163 E11.77602
G1 X99.486 Y110.163 E12.25029
G1 X99.030 Y109.978 E12.27619
G1 X98.868 Y109.749 E12.29101
G1 X98.810 Y109.475 E12.30572
G1 X98.810 Y100.512 E12.77802
G1 X98.973 Y100.112 E12.80077
G1 X99.252 Y100.287 F12000.000
G1 F2160.000
G1 X99.497 Y100.182 E12.81477
G1 X108.469 Y100.182 E13.28755
G1 X109.247 Y100.532 E13.33251
G1 X109.462 Y100.849 E13.35272
G1 X109.592 Y101.404 E13.38273
G1 X109.593 Y108.583 E13.76105
G1 X109.462 Y109.151 E13.79176
G1 X109.242 Y109.474 E13.81236
G1 X108.476 Y109.818 E13.85658
G1 X99.496 Y109.818 E14.32981
G1 X99.260 Y109.721 E14.34325
G1 X99.155 Y109.473 E14.35742
G1 X99.155 Y100.522 E14.82908
G1 X99.229 Y100.342 E14.83935
G1 E11.83935 F3000.00000
G1 F9600.000
G1 X99.497 Y100.182 E11.74689
G1 X108.469 Y100.182 E9.08331
G1 X108.757 Y100.312 E8.98935
G1 E8.83935 F3000.00000
G92 E0
G1 X109.226 Y100.809 F12000.000
G1 E6.00000 F3000.00000
G1 F2160.000
G1 X109.302 Y100.925 E6.00730
G1 X109.405 Y101.361 F12000.000
G1 F2160.000
G1 X109.420 Y101.426 E6.01083
G1 E3.01083 F3000.00000
G1 F9600.000
G1 X109.405 Y101.361 E2.99092
G1 E0.01083 F3000.00000
G92 E0
G1 X109.302 Y109.075 F12000.000
G1 E6.00000 F3000.00000
G1 F2160.000
G1 X109.243 Y109.165 E6.00567
G1 X108.854 Y109.067 F12000.000
G1 F540.000
G1 X108.422 Y109.263 E6.03070
G1 X99.710 Y109.263 E6.48977
G1 X99.710 Y100.737 E6.93907
G1 X108.422 Y100.737 E7.39813
G1 X108.854 Y100.933 E7.42316
G1 X108.946 Y101.063 E7.43155
G1 X109.039 Y101.456 E7.45281
G1 X109.039 Y108.544 E7.82631
G1 X108.946 Y108.937 E7.84758
G1 X108.889 Y109.018 E7.85280
G1 X108.479 Y108.929 F12000.000
G1 X108.625 Y108.792
G1 F540.000
G1 X108.347 Y108.918 E7.86890
G1 X100.055 Y108.918 E8.30586
G1 X100.055 Y101.082 E8.71882
G1 X108.347 Y101.082 E9.15578
G1 X108.625 Y101.208 E9.17188
G1 X108.694 Y101.496 E9.18749
G1 X108.694 Y108.504 E9.55675
G1 X108.639 Y108.734 E9.56921
G1 X108.323 Y108.573 F12000.000
G1 F540.000
G1 X100.400 Y108.573 E9.98671
G1 X100.400 Y101.427 E10.36331
G1 X108.323 Y101.427 E10.78081
G1 X108.349 Y101.537 E10.78677
G1 X108.337 Y108.515 E11.15450
G1 X108.004 Y108.229 F12000.000
G1 F540.000
G1 X100.745 Y108.229 E11.53703
G1 X100.745 Y101.771 E11.87728
G1 X108.004 Y101.771 E12.25981
G1 X108.004 Y108.169 E12.59690
G1 X107.659 Y107.884 F12000.000
G1 F540.000
G1 X101.090 Y107.884 E12.94307
G1 X101.090 Y102.116 E13.24698
G1 X107.659 Y102.116 E13.59316
G1 X107.659 Y107.824 E13.89390
G1 X107.314 Y107.539 F12000.000
G1 F540.000
G1 X101.434 Y107.539 E14.20373
G1 X101.434 Y102.461 E14.47129
G1 X107.314 Y102.461 E14.78112
G1 X107.314 Y107.479 E15.04552
G1 E12.04552 F3000.00000
G1 F9600.000
G1 X101.434 Y107.539 E10.29991
G1 X101.434 Y103.819 E9.19552
G1 E9.04552 F3000.00000
G92 E0
G1 X101.538 Y106.712 F12000.000
G1 E6.00000 F3000.00000
G1 F1620.000
G1 X102.106 Y107.280 E6.04388
G1 X102.612 Y107.280 E6.07147
G1 X101.693 Y106.362 E6.14238
G1 X101.693 Y105.856 E6.16997
G1 X103.117 Y107.280 E6.27990
G1 X103.622 Y107.280 E6.30749
G1 X101.693 Y105.351 E6.45644
G1 X101.693 Y104.846 E6.48403
G1 X104.128 Y107.280 E6.67200
G1 X104.633 Y107.280 E6.69959
G1 X101.693 Y104.340 E6.92657
G1 X101.693 Y103.835 E6.95416
G1 X105.138 Y107.280 E7.22017
G1 X105.644 Y107.280 E7.24776
G1 X101.693 Y103.330 E7.55278
G1 X101.693 Y102.824 E7.58037
G1 X106.149 Y107.280 E7.92441
G1 X106.654 Y107.280 E7.95200
G1 X102.094 Y102.720 E8.30409
G1 X102.599 Y102.720 E8.33168
G1 X107.055 Y107.176 E8.67573
G1 X107.055 Y106.671 E8.70332
G1 X103.105 Y102.720 E9.00835
G1 X103.610 Y102.720 E9.03594
G1 X107.055 Y106.165 E9.30196
G1 X107.055 Y105.660 E9.32955
G1 X104.115 Y102.720 E9.55654
G1 X104.621 Y102.720 E9.58413
G1 X107.055 Y105.154 E9.77211
G1 X107.055 Y104.649 E9.79970
G1 X105.126 Y102.720 E9.94866
G1 X105.632 Y102.720 E9.97625
G1 X107.055 Y104.144 E10.08619
G1 X107.055 Y103.638 E10.11378
G1 X106.137 Y102.720 E10.18470
G1 X106.642 Y102.720 E10.21229
G1 X107.211 Y103.288 E10.25618
M106 S216.75
G1 E7.25618 F3000.00000
G1 F9600.000
G1 X106.642 Y102.720 E7.01754
G1 X106.137 Y102.720 E6.86751
G1 X107.055 Y103.638 E6.48187
G1 X107.055 Y104.144 E6.33184
G1 X105.632 Y102.720 E5.73403
G1 X105.126 Y102.720 E5.58400
G1 X107.055 Y104.649 E4.77402
G1 X107.055 Y105.154 E4.62400
G1 X106.537 Y104.636 E4.40618
G1 E4.25618 F3000.00000
G92 E0
G1 Z0.590 F12000.000
G1 X107.524 Y107.781
G1 E6.00000 F3000.00000
G1 F600.000
G1 X101.717 Y107.781 E6.24241
G1 X101.717 Y102.219 E6.47461
G1 X107.524 Y102.219 E6.71702
G1 X107.524 Y107.721 E6.94672
G1 X107.922 Y108.179 F12000.000
G1 F600.000
G1 X101.319 Y108.179 E7.22240
G1 X101.319 Y101.821 E7.48787
G1 X107.922 Y101.821 E7.76356
G1 X107.922 Y108.119 E8.02653
G1 X108.321 Y108.464 F12000.000
G1 F600.000
G1 X108.306 Y108.578 E8.03134
G1 X100.920 Y108.578 E8.33968
G1 X100.920 Y101.422 E8.63843
G1 X108.306 Y101.422 E8.94679
G1 X108.321 Y101.536 E8.95159
G1 X108.321 Y108.404 E9.23830
G1 X108.645 Y108.837 F12000.000
G1 F600.000
G1 X108.523 Y108.943 E9.24505
G1 X108.362 Y108.976 E9.25190
G1 X100.522 Y108.976 E9.57923
G1 X100.522 Y101.024 E9.91126
G1 X108.362 Y101.024 E10.23859
G1 X108.518 Y101.056 E10.24523
G1 X108.646 Y101.166 E10.25227
G1 X108.690 Y101.283 E10.25751
G1 X108.719 Y101.511 E10.26709
G1 X108.719 Y108.489 E10.55842
G1 X108.666 Y108.780 E10.57079
G1 X108.982 Y109.071 F12000.000
G1 F600.000
G1 X108.706 Y109.312 E10.58608
G1 X108.403 Y109.375 E10.59900
G1 X100.123 Y109.375 E10.94468
G1 X100.123 Y100.625 E11.30998
G1 X108.403 Y100.625 E11.65565
G1 X108.700 Y100.687 E11.66832
G1 X108.983 Y100.931 E11.68389
G1 X109.079 Y101.186 E11.69532
G1 X109.118 Y101.486 E11.70791
G1 X109.118 Y108.514 E12.00136
G1 X109.079 Y108.814 E12.01396
G1 X109.003 Y109.015 E12.02294
G1 E9.02294 F3000.00000
G1 F9600.000
G1 X108.706 Y109.312 E8.89825
G1 X108.403 Y109.375 E8.80632
G1 X100.123 Y109.375 E6.34831
G1 X100.123 Y108.784 E6.17294
G1 E6.02294 F3000.00000
G92 E0
G1 X99.725 Y100.327 F12000.000
G1 E6.00000 F3000.00000
M106 S255
G1 F600.000
G1 X99.725 Y100.227 E6.00549
G1 X108.444 Y100.227 E6.48379
G1 X108.882 Y100.318 E6.50835
G1 X109.310 Y100.687 E6.53935
G1 X109.469 Y101.089 E6.56308
G1 X109.516 Y101.460 E6.58360
G1 X109.516 Y108.540 E6.97195
G1 X109.469 Y108.911 E6.99247
G1 X109.327 Y109.286 E7.01451
G1 X108.890 Y109.681 E7.04680
G1 X108.444 Y109.773 E7.07177
G1 X99.725 Y109.773 E7.55007
G1 X99.725 Y109.673 E7.55556
M106 S216.75
G1 X99.725 Y100.387 E7.94327
G1 E4.94327 F3000.00000
G1 F9600.000
G1 X99.725 Y100.227 E4.89573
G1 X108.444 Y100.227 E2.30727
G1 X108.882 Y100.318 E2.17439
G1 X109.089 Y100.496 E2.09327
G1 E1.94327 F3000.00000
G92 E0
G1 X106.578 Y107.661 F12000.000
G1 E6.00000 F3000.00000
G1 F1800.000
G1 X107.225 Y107.014 E6.03913
G1 X107.225 Y106.437 E6.06382
G1 X106.180 Y107.482 E6.12703
G1 X105.603 Y107.482 E6.15172
G1 X107.225 Y105.860 E6.24984
G1 X107.225 Y105.282 E6.27454
G1 X105.025 Y107.482 E6.40758
G1 X104.448 Y107.482 E6.43228
G1 X107.225 Y104.705 E6.60024
G1 X107.225 Y104.128 E6.62494
G1 X103.871 Y107.482 E6.82782
G1 X103.293 Y107.482 E6.85252
G1 X107.225 Y103.550 E7.09033
G1 X107.225 Y102.973 E7.11502
G1 X102.716 Y107.482 E7.38775
G1 X102.139 Y107.482 E7.41244
G1 X107.102 Y102.518 E7.71270
G1 X106.525 Y102.518 E7.73739
G1 X102.016 Y107.027 E8.01011
G1 X102.016 Y106.449 E8.03481
G1 X105.948 Y102.518 E8.27261
G1 X105.370 Y102.518 E8.29730
G1 X102.016 Y105.872 E8.50018
G1 X102.016 Y105.295 E8.52488
G1 X104.793 Y102.518 E8.69284
G1 X104.216 Y102.518 E8.71753
G1 X102.016 Y104.717 E8.85057
G1 X102.016 Y104.140 E8.87526
G1 X103.638 Y102.518 E8.97338
G1 X103.061 Y102.518 E8.99807
G1 X102.016 Y103.563 E9.06127
G1 X102.016 Y102.985 E9.08596
G1 X102.663 Y102.339 E9.12508
M106 S214.2
G1 E6.12508 F3000.00000
G1 F9600.000
G1 X102.016 Y102.985 E5.85354
G1 X102.016 Y103.563 E5.68214
G1 X103.061 Y102.518 E5.24349
G1 X103.638 Y102.518 E5.07209
G1 X102.016 Y104.140 E4.39105
G1 X102.016 Y104.717 E4.21966
G1 X104.216 Y102.518 E3.29623
G1 X104.287 Y102.518 E3.27508
G1 E3.12508 F3000.00000
G92 E0
G1 Z0.830 F12000.000
G1 X101.717 Y101.927
G1 E6.00000 F3000.00000
G1 F600.000
G1 X107.775 Y101.927 E6.25290
G1 X107.775 Y108.073 E6.50949
G1 X101.717 Y108.073 E6.76239
G1 X101.717 Y101.987 E7.01649
G1 X101.319 Y101.528 F12000.000
G1 F600.000
G1 X108.174 Y101.529 E7.30267
G1 X108.174 Y108.472 E7.59253
G1 X101.319 Y108.472 E7.87870
G1 X101.319 Y101.588 E8.16608
G1 X100.920 Y101.130 F12000.000
G1 F600.000
G1 X108.325 Y101.130 E8.47521
G1 X108.442 Y101.155 E8.48019
G1 X108.490 Y101.186 E8.48258
G1 X108.558 Y101.320 E8.48884
G1 X108.572 Y101.511 E8.49686
G1 X108.572 Y108.489 E8.78818
G1 X108.558 Y108.680 E8.79620
G1 X108.490 Y108.814 E8.80245
G1 X108.442 Y108.845 E8.80484
G1 X108.321 Y108.870 E8.80997
G1 X100.920 Y108.870 E9.11896
G1 X100.920 Y101.190 E9.43961
G1 X100.522 Y100.731 F12000.000
G1 F600.000
G1 X108.366 Y100.732 E9.76709
G1 X108.596 Y100.780 E9.77692
G1 X108.782 Y100.901 E9.78620
G1 X108.917 Y101.121 E9.79694
G1 X108.952 Y101.253 E9.80266
G1 X108.971 Y101.496 E9.81285
G1 X108.971 Y108.504 E10.10542
G1 X108.952 Y108.747 E10.11560
G1 X108.917 Y108.879 E10.12132
G1 X108.782 Y109.099 E10.13206
G1 X108.596 Y109.220 E10.14133
G1 X108.362 Y109.269 E10.15132
G1 X100.522 Y109.269 E10.47865
G1 X100.522 Y100.791 E10.83257
G1 X100.123 Y100.333 F12000.000
G1 F600.000
G1 X108.407 Y100.333 E11.17840
G1 X108.751 Y100.405 E11.19309
G1 X109.063 Y100.609 E11.20866
G1 X109.287 Y100.962 E11.22610
G1 X109.347 Y101.186 E11.23581
G1 X109.369 Y101.481 E11.24815
G1 X109.369 Y108.519 E11.54197
G1 X109.347 Y108.814 E11.55431
G1 X109.287 Y109.038 E11.56402
G1 X109.063 Y109.391 E11.58147
G1 X108.751 Y109.595 E11.59703
G1 X108.403 Y109.667 E11.61187
G1 X100.123 Y109.667 E11.95755
G1 X100.123 Y100.393 E12.34475
G1 X99.725 Y100.333 F12000.000
G1 F600.000
G1 X99.725 Y99.934 E12.36139
G1 X108.448 Y99.935 E12.72556
G1 X108.906 Y100.030 E12.74510
G1 X109.332 Y100.308 E12.76634
G1 X109.416 Y100.410 E12.77183
G1 X109.657 Y100.803 E12.79111
G1 X109.741 Y101.120 E12.80479
G1 X109.768 Y101.466 E12.81930
G1 X109.768 Y108.534 E13.11436
G1 X109.741 Y108.880 E13.12887
G1 X109.657 Y109.197 E13.14255
G1 X109.416 Y109.590 E13.16183
G1 X109.332 Y109.692 E13.16732
G1 X108.906 Y109.970 E13.18856
G1 X108.444 Y110.066 E13.20825
G1 X99.725 Y110.066 E13.57228
G1 X99.725 Y100.393 E13.97611
G1 X100.012 Y100.056 F12000.000
G1 X107.655 Y102.893
G1 F1800.000
G1 X106.989 Y102.226 E14.01732
G1 X106.399 Y102.226 E14.04313
G1 X107.476 Y103.303 E14.10974
G1 X107.476 Y103.894 E14.13555
G1 X105.809 Y102.226 E14.23867
G1 X105.218 Y102.226 E14.26448
G1 X107.476 Y104.484 E14.40410
G1 X107.476 Y105.074 E14.42991
G1 X104.628 Y102.226 E14.60603
G1 X104.038 Y102.226 E14.63185
G1 X107.476 Y105.664 E14.84447
G1 X107.476 Y106.255 E14.87028
G1 X103.448 Y102.226 E15.11941
G1 X102.857 Y102.226 E15.14522
G1 X107.476 Y106.845 E15.43085
G1 X107.476 Y107.435 E15.45666
G1 X102.267 Y102.226 E15.77879
G1 X102.016 Y102.226 E15.78975
G1 X102.016 Y102.566 E15.80460
G1 X107.225 Y107.774 E16.12670
G1 X106.635 Y107.774 E16.15251
G1 X102.016 Y103.156 E16.43811
G1 X102.016 Y103.746 E16.46392
G1 X106.045 Y107.774 E16.71302
G1 X105.454 Y107.774 E16.73883
G1 X102.016 Y104.336 E16.95143
G1 X102.016 Y104.926 E16.97724
G1 X104.864 Y107.774 E17.15335
G1 X104.274 Y107.774 E17.17915
G1 X102.016 Y105.517 E17.31876
G1 X102.016 Y106.107 E17.34457
G1 X103.684 Y107.774 E17.44767
G1 X103.093 Y107.774 E17.47348
G1 X102.016 Y106.697 E17.54008
G1 X102.016 Y107.287 E17.56589
G1 X102.682 Y107.954 E17.60709
M106 S211.65
G1 E14.60709 F3000.00000
G1 F9600.000
G1 X102.016 Y107.287 E14.32741
G1 X102.016 Y106.697 E14.15218
G1 X103.093 Y107.774 E13.69999
G1 X103.684 Y107.774 E13.52476
G1 X102.016 Y106.107 E12.82475
G1 X102.016 Y105.517 E12.64953
G1 X104.142 Y107.642 E11.75709
G1 E11.60709 F3000.00000
G92 E0
G1 Z1.070 F12000.000
G1 X101.717 Y101.730
G1 E6.00000 F3000.00000
G1 F600.000
G1 X107.959 Y101.730 E6.26059
G1 X107.959 Y108.270 E6.53365
G1 X101.717 Y108.270 E6.79424
G1 X101.717 Y101.790 E7.06479
G1 X101.319 Y101.331 F12000.000
G1 F600.000
G1 X108.342 Y101.331 E7.35801
G1 X108.358 Y101.538 E7.36666
G1 X108.358 Y108.462 E7.65574
G1 X108.342 Y108.669 E7.66439
G1 X101.319 Y108.669 E7.95761
G1 X101.319 Y101.391 E8.26143
G1 X100.920 Y100.933 F12000.000
G1 F600.000
G1 X108.347 Y100.933 E8.57149
G1 X108.526 Y100.963 E8.57909
G1 X108.594 Y101.000 E8.58230
G1 X108.662 Y101.082 E8.58674
G1 X108.717 Y101.224 E8.59312
G1 X108.756 Y101.523 E8.60569
G1 X108.756 Y108.477 E8.89603
G1 X108.714 Y108.790 E8.90919
G1 X108.671 Y108.907 E8.91442
G1 X108.594 Y109.000 E8.91946
G1 X108.526 Y109.037 E8.92267
G1 X108.347 Y109.067 E8.93027
G1 X100.920 Y109.067 E9.24033
G1 X100.920 Y100.993 E9.57743
G1 X100.522 Y100.534 F12000.000
G1 F600.000
G1 X108.381 Y100.534 E9.90553
G1 X108.657 Y100.582 E9.91725
G1 X108.852 Y100.686 E9.92644
G1 X109.011 Y100.878 E9.93686
G1 X109.099 Y101.109 E9.94720
