; generated by PrusaSlicer 2.2.0+win64 on 2020-12-07 at 13:55:28 UTC

; 

; external perimeters extrusion width = 0.45mm
; perimeters extrusion width = 0.45mm
; infill extrusion width = 0.45mm
; solid infill extrusion width = 0.45mm
; top infill extrusion width = 0.40mm
; first layer extrusion width = 0.42mm

M201 X9000 Y9000 Z500 E10000 ; sets maximum accelerations, mm/sec^2
M203 X500 Y500 Z12 E120 ; sets maximum feedrates, mm/sec
M204 P1500 R1500 T1500 ; sets acceleration (P, T) and retract acceleration (R), mm/sec^2
M205 X10.00 Y10.00 Z0.20 E2.50 ; sets the jerk limits, mm/sec
M205 S0 T0 ; sets the minimum extruding and travel feed rate, mm/sec
;;; Copy from Cura output
M140 S60 ; set bed temp
M105 ; Read current temp
M190 S60 ; set bed temp and wait
M104 S175 ; set extruder temp
M105 ; Read current temp
M109 S175 ; wait for extruder temp and wait
M82        ; Set E codes absolute (default) - absolute extrusion mode

;;; Copy from Cura config
G21 ;metric values
G90 ;absolute positioning
M82 ;set extruder to absolute mode
M107 ;start with the fan off
G28 X0 Y0 ;move X/Y to min endstops
G28 Z0 ;move Z to min endstops
G1 Z15.0 F200 ;move the platform down 15mm
G92 E0 ;zero the extruded length
G1 F200 E3 ;extrude 3mm of feed stock
G92 E0 ;zero the extruded length again
G1 F200
G0 Y20 F200
M117 Printing...
G5
G21 ; set units to millimeters
G90 ; use absolute coordinates
M82 ; use absolute distances for extrusion
G92 E0
; Filament gcode
M106 S127.5
G1 E-6.00000 F3000.00000
G92 E0
G1 Z0.350 F12000.000
G1 X104.191 Y62.282
G1 E6.00000 F3000.00000
G1 F2160.000
G1 X116.527 Y62.182 E6.65006
G1 X117.323 Y62.262 E6.69223
G1 X118.141 Y62.522 E6.73745
G1 X141.410 Y74.794 E8.12369
G1 X142.022 Y75.127 E8.16040
G1 X142.565 Y75.567 E8.19719
G1 X143.126 Y76.228 E8.24293
G1 X143.505 Y76.934 E8.28514
G1 X143.731 Y77.671 E8.32576
G1 X148.632 Y100.853 E9.57432
G1 X149.045 Y105.072 E9.79773
G1 X148.666 Y108.973 E10.00427
G1 X143.728 Y132.345 E11.26304
G1 X143.508 Y133.059 E11.30243
G1 X143.179 Y133.686 E11.33975
G1 X142.581 Y134.419 E11.38956
G1 X142.024 Y134.871 E11.42741
G1 X141.415 Y135.203 E11.46393
G1 X118.013 Y147.532 E12.85778
G1 X117.308 Y147.741 E12.89651
G1 X116.541 Y147.818 E12.93714
G1 X104.321 Y147.745 E13.58111
G1 X78.751 Y137.636 E15.02998
G1 X78.045 Y137.259 E15.07216
G1 X77.407 Y136.727 E15.11594
G1 X76.926 Y136.134 E15.15617
G1 X64.441 Y116.597 E16.37793
G1 X62.596 Y113.144 E16.58423
G1 X61.329 Y108.930 E16.81611
G1 X60.955 Y105.072 E17.02040
G1 X61.364 Y100.878 E17.24242
G1 X62.527 Y97.020 E17.45475
G1 X64.512 Y93.298 E17.67704
G1 X76.999 Y73.851 E18.89488
G1 X77.502 Y73.237 E18.93671
G1 X78.096 Y72.746 E18.97733
G1 X78.824 Y72.355 E19.02085
G1 X104.136 Y62.304 E20.45598
G1 X104.262 Y62.623 F12000.000
G1 F2160.000
G1 X116.528 Y62.527 E21.10233
G1 X117.251 Y62.599 E21.14063
G1 X117.986 Y62.830 E21.18121
G1 X141.249 Y75.099 E22.56714
G1 X141.829 Y75.413 E22.60189
G1 X142.341 Y75.829 E22.63666
G1 X142.842 Y76.424 E22.67766
G1 X143.187 Y77.067 E22.71610
G1 X143.395 Y77.745 E22.75346
G1 X148.292 Y100.910 E24.00112
G1 X148.701 Y105.074 E24.22157
G1 X148.324 Y108.925 E24.42549
G1 X143.393 Y132.263 E25.68242
G1 X143.189 Y132.929 E25.71914
G1 X142.879 Y133.516 E25.75412
G1 X142.355 Y134.159 E25.79781
G1 X141.831 Y134.586 E25.83344
G1 X117.901 Y147.206 E27.25906
G1 X117.243 Y147.403 E27.29525
G1 X116.535 Y147.473 E27.33272
G1 X104.369 Y147.404 E27.97385
G1 X78.882 Y137.317 E29.41823
G1 X78.238 Y136.973 E29.45668
G1 X77.661 Y136.495 E29.49619
G1 X77.215 Y135.946 E29.53344
G1 X64.733 Y116.413 E30.75498
G1 X62.911 Y113.005 E30.95859
G1 X61.672 Y108.894 E31.18482
G1 X61.299 Y105.074 E31.38712
G1 X61.705 Y100.927 E31.60670
G1 X62.846 Y97.152 E31.81449
G1 X64.808 Y93.476 E32.03406
G1 X77.287 Y74.041 E33.25112
G1 X77.747 Y73.479 E33.28936
G1 X78.294 Y73.028 E33.32672
G1 X78.953 Y72.675 E33.36613
G1 X104.206 Y62.645 E34.79800
G1 X104.333 Y62.963 F12000.000
G1 F2160.000
G1 X104.375 Y62.947 E34.80037
G1 X116.526 Y62.872 E35.44070
G1 X117.180 Y62.936 E35.47533
G1 X117.830 Y63.138 E35.51117
G1 X141.088 Y75.405 E36.89679
G1 X141.637 Y75.700 E36.92964
G1 X142.120 Y76.094 E36.96251
G1 X142.558 Y76.620 E36.99858
G1 X142.869 Y77.201 E37.03328
G1 X143.058 Y77.821 E37.06745
G1 X147.952 Y100.968 E38.31413
G1 X148.356 Y105.074 E38.53154
G1 X147.983 Y108.877 E38.73289
G1 X143.057 Y132.182 E39.98813
G1 X142.870 Y132.798 E40.02206
G1 X142.577 Y133.349 E40.05493
G1 X142.128 Y133.899 E40.09236
G1 X141.638 Y134.300 E40.12569
G1 X117.786 Y146.881 E41.54670
G1 X117.177 Y147.064 E41.58024
G1 X116.530 Y147.128 E41.61449
G1 X104.417 Y147.062 E42.25280
G1 X79.012 Y136.997 E43.69273
G1 X78.431 Y136.687 E43.72745
G1 X77.915 Y136.261 E43.76269
G1 X77.506 Y135.760 E43.79679
G1 X65.025 Y116.230 E45.01815
G1 X63.226 Y112.864 E45.21926
G1 X62.015 Y108.861 E45.43964
G1 X61.644 Y105.075 E45.64010
G1 X62.047 Y100.975 E45.85717
G1 X63.164 Y97.285 E46.06035
G1 X65.105 Y93.651 E46.27742
G1 X77.575 Y74.230 E47.49361
G1 X77.992 Y73.722 E47.52823
G1 X78.492 Y73.310 E47.56241
G1 X79.081 Y72.995 E47.59757
G1 X104.277 Y62.985 E49.02625
G1 E46.02625 F3000.00000
G1 F9600.000
G1 X104.375 Y62.947 E45.99511
G1 X113.870 Y62.888 E43.17625
G1 E43.02625 F3000.00000
G92 E0
G1 X66.867 Y91.227 F12000.000
G1 E6.00000 F3000.00000
G1 F2160.000
G1 X67.513 Y90.439 E6.05366
G1 X67.578 Y90.407 E6.05751
G1 X67.953 Y90.388 E6.07730
G1 X68.016 Y90.410 E6.08080
G1 X68.412 Y90.752 E6.10838
G1 X70.660 Y88.907 E6.26163
G1 X70.399 Y88.419 E6.29077
G1 X70.393 Y88.351 E6.29439
G1 X70.495 Y88.012 E6.31306
G1 X70.539 Y87.959 E6.31667
G1 X74.187 Y86.009 E6.53461
G1 X74.259 Y86.004 E6.53846
G1 X74.613 Y86.130 E6.55825
G1 X74.663 Y86.174 E6.56175
G1 X74.898 Y86.642 E6.58933
G1 X77.681 Y85.798 E6.74258
G1 X77.626 Y85.248 E6.77172
G1 X77.646 Y85.182 E6.77534
G1 X77.871 Y84.908 E6.79401
G1 X77.932 Y84.876 E6.79762
G1 X82.048 Y84.470 E7.01556
G1 X82.117 Y84.493 E7.01941
G1 X82.395 Y84.745 E7.03920
G1 X82.424 Y84.805 E7.04270
G1 X82.462 Y85.327 E7.07028
G1 X85.357 Y85.612 E7.22353
G1 X85.517 Y85.083 E7.25267
G1 X85.561 Y85.030 E7.25629
G1 X85.873 Y84.863 E7.27496
G1 X85.941 Y84.856 E7.27857
G1 X89.899 Y86.057 E7.49651
G1 X89.955 Y86.104 E7.50036
G1 X90.115 Y86.444 E7.52015
G1 X90.119 Y86.510 E7.52365
G1 X89.955 Y87.007 E7.55123
G1 X92.519 Y88.378 E7.70448
G1 X92.870 Y87.951 E7.73362
G1 X92.931 Y87.918 E7.73724
G1 X93.283 Y87.884 E7.75591
G1 X93.349 Y87.903 E7.75952
G1 X96.546 Y90.527 E7.97747
G1 X96.579 Y90.592 E7.98131
G1 X96.597 Y90.967 E8.00110
G1 X96.576 Y91.030 E8.00460
G1 X96.234 Y91.426 E8.03218
G1 X98.078 Y93.675 E8.18543
G1 X98.566 Y93.414 E8.21458
G1 X98.634 Y93.407 E8.21819
G1 X98.974 Y93.510 E8.23686
G1 X99.027 Y93.553 E8.24048
G1 X100.976 Y97.201 E8.45842
G1 X100.982 Y97.274 E8.46227
G1 X100.855 Y97.627 E8.48205
G1 X100.811 Y97.677 E8.48556
G1 X100.343 Y97.912 E8.51314
G1 X101.188 Y100.695 E8.66639
G1 X101.738 Y100.641 E8.69553
G1 X101.804 Y100.661 E8.69914
G1 X102.077 Y100.886 E8.71781
G1 X102.110 Y100.946 E8.72143
G1 X102.515 Y105.062 E8.93937
G1 X102.492 Y105.131 E8.94322
G1 X102.240 Y105.410 E8.96300
G1 X102.180 Y105.439 E8.96651
G1 X101.658 Y105.477 E8.99409
G1 X101.373 Y108.371 E9.14734
G1 X101.902 Y108.532 E9.17648
G1 X101.956 Y108.575 E9.18009
G1 X102.123 Y108.888 E9.19876
G1 X102.129 Y108.956 E9.20238
G1 X100.929 Y112.914 E9.42032
G1 X100.881 Y112.969 E9.42417
G1 X100.542 Y113.130 E9.44395
G1 X100.475 Y113.134 E9.44746
G1 X99.978 Y112.969 E9.47504
G1 X98.607 Y115.534 E9.62829
G1 X99.035 Y115.885 E9.65743
G1 X99.067 Y115.945 E9.66104
G1 X99.102 Y116.298 E9.67971
G1 X99.082 Y116.363 E9.68333
G1 X96.458 Y119.561 E9.90127
G1 X96.393 Y119.593 E9.90512
G1 X96.018 Y119.612 E9.92491
G1 X95.955 Y119.590 E9.92841
G1 X95.559 Y119.248 E9.95599
G1 X93.311 Y121.093 E10.10924
G1 X93.572 Y121.581 E10.13838
G1 X93.578 Y121.649 E10.14200
G1 X93.476 Y121.988 E10.16067
G1 X93.432 Y122.041 E10.16428
G1 X89.784 Y123.991 E10.38222
G1 X89.712 Y123.996 E10.38607
G1 X89.358 Y123.870 E10.40586
G1 X89.308 Y123.826 E10.40936
G1 X89.073 Y123.358 E10.43694
G1 X86.290 Y124.202 E10.59019
G1 X86.345 Y124.752 E10.61933
G1 X86.325 Y124.818 E10.62295
G1 X86.100 Y125.092 E10.64162
G1 X86.039 Y125.124 E10.64523
G1 X81.923 Y125.530 E10.86318
G1 X81.854 Y125.507 E10.86702
G1 X81.576 Y125.255 E10.88681
G1 X81.547 Y125.195 E10.89031
G1 X81.509 Y124.673 E10.91789
G1 X78.614 Y124.388 E11.07114
G1 X78.454 Y124.917 E11.10028
G1 X78.410 Y124.970 E11.10390
G1 X78.098 Y125.137 E11.12257
G1 X78.030 Y125.144 E11.12618
G1 X74.072 Y123.943 E11.34413
G1 X74.016 Y123.895 E11.34797
G1 X73.856 Y123.556 E11.36776
G1 X73.852 Y123.490 E11.37126
G1 X74.016 Y122.993 E11.39884
G1 X71.452 Y121.622 E11.55209
G1 X71.101 Y122.049 E11.58124
G1 X71.040 Y122.082 E11.58485
G1 X70.688 Y122.116 E11.60352
G1 X70.622 Y122.097 E11.60714
G1 X67.425 Y119.473 E11.82508
G1 X67.392 Y119.408 E11.82893
G1 X67.374 Y119.032 E11.84871
G1 X67.395 Y118.970 E11.85222
G1 X67.737 Y118.574 E11.87980
G1 X65.892 Y116.325 E12.03305
G1 X65.444 Y116.565 E12.05984
G1 E9.05984 F3000.00000
G1 F9600.000
G1 X65.892 Y116.325 E8.90888
G1 X67.737 Y118.574 E8.04550
G1 X67.395 Y118.970 E7.89012
G1 X67.374 Y119.032 E7.87038
G1 X67.392 Y119.408 E7.75891
G1 X67.425 Y119.473 E7.73723
G1 X70.622 Y122.097 E6.50939
G1 X70.688 Y122.116 E6.48902
G1 X71.040 Y122.082 E6.38383
G1 X71.101 Y122.049 E6.36347
G1 X71.429 Y121.649 E6.20984
G1 E6.05984 F3000.00000
G92 E0
G1 X60.201 Y116.029 F12000.000
G1 X63.232 Y112.287
G1 E6.00000 F3000.00000
G1 F2160.000
G1 X63.628 Y112.088 E6.02336
G1 X62.783 Y109.305 E6.17661
G1 X62.343 Y109.348 E6.19993
G1 E3.19993 F3000.00000
G1 F9600.000
G1 X62.783 Y109.305 E3.06855
G1 X63.628 Y112.088 E2.20517
G1 X63.232 Y112.287 E2.07358
G1 E0.19993 F3000.00000
G92 E0
G1 X59.982 Y104.983 F12000.000
G1 X61.869 Y104.556
G1 E6.00000 F3000.00000
G1 F2160.000
G1 X62.313 Y104.523 E6.02346
G1 X62.598 Y101.629 E6.17671
G1 X62.169 Y101.499 E6.20033
G1 E3.20033 F3000.00000
G1 F9600.000
G1 X62.598 Y101.629 E3.06726
G1 X62.313 Y104.523 E2.20388
G1 X61.869 Y104.556 E2.07170
G1 E0.20033 F3000.00000
G92 E0
G1 X59.454 Y97.726 F12000.000
G1 X63.570 Y96.891
G1 E6.00000 F3000.00000
G1 F2160.000
G1 X63.993 Y97.031 E6.02346
G1 X65.364 Y94.466 E6.17671
G1 X65.017 Y94.182 E6.20033
G1 X65.225 Y93.793 F12000.000
G1 F2160.000
G1 X65.237 Y93.916 E6.20682
G1 X65.801 Y94.379 E6.24530
G1 X64.160 Y97.450 E6.42877
G1 X63.484 Y97.226 E6.46626
G1 X63.359 Y97.285 E6.47355
G1 E3.47355 F3000.00000
G1 F9600.000
G1 X63.484 Y97.226 E3.43251
G1 X64.160 Y97.450 E3.22128
G1 X65.801 Y94.379 E2.18764
G1 X65.237 Y93.916 E1.97083
G1 X65.225 Y93.793 E1.93430
G1 E0.47355 F3000.00000
G92 E0
G1 X60.408 Y100.695 F12000.000
G1 X62.212 Y101.060
G1 E6.00000 F3000.00000
G1 F2160.000
G1 X62.270 Y101.169 E6.00648
G1 X62.969 Y101.381 E6.04497
G1 X62.627 Y104.846 E6.22844
G1 X61.918 Y104.898 E6.26593
G1 X61.825 Y105.000 E6.27322
G1 E3.27322 F3000.00000
G1 F9600.000
G1 X61.918 Y104.898 E3.23218
G1 X62.627 Y104.846 E3.02094
G1 X62.969 Y101.381 E1.98731
G1 X62.270 Y101.169 E1.77050
G1 X62.212 Y101.060 E1.73397
G1 E0.27322 F3000.00000
G92 E0
G1 X60.402 Y109.276 F12000.000
G1 X62.218 Y108.934
G1 E6.00000 F3000.00000
G1 F2160.000
G1 X62.304 Y109.005 E6.00590
G1 X63.031 Y108.934 E6.04439
G1 X64.042 Y112.266 E6.22786
G1 X63.406 Y112.585 E6.26535
G1 X63.360 Y112.713 E6.27251
G1 E3.27251 F3000.00000
G1 F9600.000
G1 X63.406 Y112.585 E3.23218
G1 X64.042 Y112.266 E3.02095
G1 X63.031 Y108.934 E1.98731
G1 X62.304 Y109.005 E1.77050
G1 X62.218 Y108.934 E1.73724
G1 E0.27251 F3000.00000
G92 E0
G1 X63.681 Y117.210 F12000.000
G1 X65.206 Y116.193
G1 E6.00000 F3000.00000
G1 F2160.000
G1 X65.335 Y116.232 E6.00712
G1 X65.980 Y115.888 E6.04560
G1 X68.188 Y118.579 E6.22907
G1 X67.723 Y119.118 E6.26657
G1 X67.731 Y119.278 E6.27501
G1 X70.759 Y121.763 E6.48143
G1 X70.901 Y121.749 E6.48896
G1 X71.365 Y121.184 E6.52744
G1 X74.435 Y122.826 E6.71091
G1 X74.211 Y123.501 E6.74841
G1 X74.280 Y123.646 E6.75685
G1 X78.028 Y124.783 E6.96327
G1 X78.154 Y124.716 E6.97080
G1 X78.366 Y124.017 E7.00928
G1 X81.831 Y124.358 E7.19275
G1 X81.883 Y125.068 E7.23025
G1 X82.002 Y125.175 E7.23869
G1 X85.900 Y124.791 E7.44511
G1 X85.991 Y124.681 E7.45264
G1 X85.919 Y123.954 E7.49113
G1 X89.251 Y122.944 E7.67459
G1 X89.571 Y123.579 E7.71209
G1 X89.722 Y123.633 E7.72054
G1 X93.176 Y121.787 E7.92695
G1 X93.218 Y121.650 E7.93448
G1 X92.873 Y121.006 E7.97297
G1 X95.565 Y118.797 E8.15644
G1 X96.103 Y119.262 E8.19393
G1 X96.263 Y119.254 E8.20238
G1 X98.748 Y116.226 E8.40880
G1 X98.734 Y116.084 E8.41632
G1 X98.170 Y115.621 E8.45481
G1 X99.811 Y112.550 E8.63828
G1 X100.487 Y112.774 E8.67577
G1 X100.631 Y112.706 E8.68422
G1 X101.769 Y108.957 E8.89064
G1 X101.701 Y108.831 E8.89816
G1 X101.002 Y108.619 E8.93665
G1 X101.344 Y105.154 E9.12012
G1 X102.053 Y105.102 E9.15761
G1 X102.161 Y104.983 E9.16606
G1 X101.777 Y101.085 E9.37248
G1 X101.666 Y100.995 E9.38000
G1 X100.940 Y101.066 E9.41849
G1 X99.929 Y97.734 E9.60196
G1 X100.565 Y97.415 E9.63945
G1 X100.619 Y97.264 E9.64790
G1 X98.772 Y93.809 E9.85432
G1 X98.636 Y93.768 E9.86184
G1 X97.991 Y94.112 E9.90033
G1 X95.783 Y91.421 E10.08380
G1 X96.248 Y90.882 E10.12129
G1 X96.240 Y90.722 E10.12974
G1 X93.212 Y88.237 E10.33616
G1 X93.070 Y88.251 E10.34368
G1 X92.606 Y88.816 E10.38217
G1 X89.536 Y87.174 E10.56564
G1 X89.760 Y86.499 E10.60313
G1 X89.691 Y86.354 E10.61158
G1 X85.942 Y85.217 E10.81800
G1 X85.816 Y85.284 E10.82553
G1 X85.604 Y85.983 E10.86401
G1 X82.140 Y85.642 E11.04748
G1 X82.088 Y84.932 E11.08497
G1 X81.969 Y84.825 E11.09342
G1 X78.071 Y85.209 E11.29984
G1 X77.980 Y85.319 E11.30737
G1 X78.052 Y86.046 E11.34585
G1 X74.720 Y87.056 E11.52932
G1 X74.400 Y86.421 E11.56681
G1 X74.249 Y86.367 E11.57526
G1 X70.795 Y88.213 E11.78168
G1 X70.753 Y88.350 E11.78921
G1 X71.098 Y88.994 E11.82769
G1 X68.406 Y91.203 E12.01116
G1 X67.868 Y90.738 E12.04865
G1 X67.708 Y90.745 E12.05710
G1 X65.263 Y93.725 E12.26020
G1 E9.26020 F3000.00000
G1 F9600.000
G1 X67.708 Y90.745 E8.11599
G1 X67.868 Y90.738 E8.06841
G1 X68.406 Y91.203 E7.85717
G1 X71.098 Y88.994 E6.82354
G1 X70.753 Y88.350 E6.60672
G1 X70.795 Y88.213 E6.56431
G1 X71.253 Y87.969 E6.41020
G1 E6.26020 F3000.00000
G92 E0
G1 X76.888 Y75.620 F12000.000
G1 E6.00000 F3000.00000
G1 F2160.000
G1 X76.841 Y76.053 E6.02296
G1 X76.902 Y76.740 E6.05929
G1 X77.095 Y77.401 E6.09562
G1 X77.414 Y78.012 E6.13194
G1 X77.847 Y78.550 E6.16827
G1 X78.375 Y78.992 E6.20459
G1 X78.980 Y79.323 E6.24092
G1 X79.638 Y79.529 E6.27725
G1 X80.323 Y79.604 E6.31357
G1 X81.010 Y79.543 E6.34990
G1 X81.671 Y79.349 E6.38623
G1 X82.282 Y79.030 E6.42255
G1 X82.820 Y78.598 E6.45888
G1 X83.262 Y78.069 E6.49521
G1 X83.593 Y77.464 E6.53153
G1 X83.799 Y76.806 E6.56786
G1 X83.874 Y76.121 E6.60419
G1 X83.813 Y75.434 E6.64051
G1 X83.619 Y74.773 E6.67684
G1 X83.300 Y74.162 E6.71317
G1 X82.868 Y73.625 E6.74949
G1 X82.339 Y73.182 E6.78582
G1 X81.734 Y72.851 E6.82215
G1 X81.076 Y72.645 E6.85847
G1 X80.568 Y72.590 E6.88540
G1 X80.373 Y72.915 F12000.000
G1 F2160.000
G1 X80.992 Y72.980 E6.91816
G1 X81.586 Y73.163 E6.95093
G1 X82.133 Y73.459 E6.98369
G1 X82.611 Y73.856 E7.01645
G1 X83.003 Y74.338 E7.04922
G1 X83.293 Y74.888 E7.08198
G1 X83.471 Y75.484 E7.11474
G1 X83.529 Y76.103 E7.14751
G1 X83.465 Y76.722 E7.18027
G1 X83.281 Y77.316 E7.21303
G1 X82.985 Y77.863 E7.24580
G1 X82.588 Y78.341 E7.27856
G1 X82.106 Y78.733 E7.31132
G1 X81.556 Y79.023 E7.34409
G1 X80.960 Y79.201 E7.37685
G1 X80.341 Y79.259 E7.40961
G1 X79.723 Y79.195 E7.44238
G1 X79.129 Y79.011 E7.47514
G1 X78.582 Y78.715 E7.50790
G1 X78.103 Y78.318 E7.54067
G1 X77.711 Y77.836 E7.57343
G1 X77.421 Y77.286 E7.60619
G1 X77.243 Y76.690 E7.63896
G1 X77.185 Y76.071 E7.67172
G1 X77.250 Y75.453 E7.70448
G1 X77.433 Y74.859 E7.73725
G1 X77.725 Y74.320 E7.76952
G1 X77.936 Y74.062 F12000.000
G1 F2160.000
G1 X78.120 Y73.840 E7.78478
G1 X78.325 Y73.671 F12000.000
G1 F2160.000
G1 X78.599 Y73.449 E7.80333
G1 X78.978 Y73.246 F12000.000
G1 F2160.000
G1 X79.158 Y73.151 E7.81408
G1 X79.754 Y72.973 E7.84684
G1 X80.373 Y72.915 E7.87960
G1 E4.87960 F3000.00000
G1 F9600.000
G1 X79.754 Y72.973 E4.69502
