; generated by PrusaSlicer 2.2.0+win64 on 2021-06-19 at 06:59:00 UTC

; 

; external perimeters extrusion width = 0.45mm
; perimeters extrusion width = 0.45mm
; infill extrusion width = 0.45mm
; solid infill extrusion width = 0.45mm
; top infill extrusion width = 0.40mm
; first layer extrusion width = 0.42mm

M201 X9000 Y9000 Z500 E10000 ; sets maximum accelerations, mm/sec^2
M203 X500 Y500 Z12 E120 ; sets maximum feedrates, mm/sec
M204 P1500 R1500 T1500 ; sets acceleration (P, T) and retract acceleration (R), mm/sec^2
M205 X10.00 Y10.00 Z0.20 E2.50 ; sets the jerk limits, mm/sec
M205 S0 T0 ; sets the minimum extruding and travel feed rate, mm/sec
;;; Copy from Cura output
M140 S60 ; set bed temp
M105 ; Read current temp
M190 S60 ; set bed temp and wait
M104 S180 ; set extruder temp
M105 ; Read current temp
M109 S180 ; wait for extruder temp and wait
M82        ; Set E codes absolute (default) - absolute extrusion mode

;;; Copy from Cura config
G21 ;metric values
G90 ;absolute positioning
M82 ;set extruder to absolute mode
M107 ;start with the fan off
G28 X0 Y0 ;move X/Y to min endstops
G28 Z0 ;move Z to min endstops
G1 Z15.0 F200 ;move the platform down 15mm
G92 E0 ;zero the extruded length
G1 F200 E3 ;extrude 3mm of feed stock
G92 E0 ;zero the extruded length again
G1 F200
G0 Y20 F200
M117 Printing...
G5
G21 ; set units to millimeters
G90 ; use absolute coordinates
M82 ; use absolute distances for extrusion
G92 E0
; Filament gcode
M106 S127.5
G1 E-6.00000 F3000.00000
G92 E0
G1 Z0.210 F12000.000
G1 X73.051 Y76.912
G1 E6.00000 F3000.00000
G1 F2160.000
G1 X73.950 Y76.186 E6.03972
G1 X75.086 Y75.582 E6.08393
G1 X76.303 Y75.215 E6.12763
G1 X77.587 Y75.089 E6.17195
G1 X78.861 Y75.214 E6.21596
G1 X80.083 Y75.584 E6.25987
G1 X137.343 Y99.308 E8.39019
G1 X138.371 Y99.867 E8.43039
G1 X139.365 Y100.687 E8.47471
G1 X140.172 Y101.673 E8.51851
G1 X140.787 Y102.831 E8.56356
G1 X141.151 Y104.039 E8.60694
G1 X141.276 Y105.335 E8.65168
G1 X141.146 Y106.615 E8.69589
G1 X140.721 Y107.946 E8.74392
G1 X140.163 Y108.972 E8.78408
G1 X139.351 Y109.959 E8.82799
G1 X125.603 Y122.961 E9.47840
G1 X124.536 Y123.803 E9.52513
G1 X123.523 Y124.336 E9.56446
G1 X122.407 Y124.682 E9.60463
G1 X120.885 Y124.830 E9.65719
G1 X99.670 Y122.743 E10.38990
G1 X98.207 Y122.549 E10.44061
G1 X96.714 Y122.218 E10.49319
G1 X95.258 Y121.758 E10.54566
G1 X93.793 Y121.147 E10.60024
G1 X92.496 Y120.470 E10.65050
G1 X91.264 Y119.687 E10.70069
G1 X90.047 Y118.760 E10.75326
G1 X73.694 Y105.640 E11.47388
G1 X72.776 Y104.555 E11.52272
G1 X72.136 Y103.337 E11.57004
G1 X71.791 Y102.182 E11.61145
G1 X71.667 Y100.968 E11.65339
G1 X71.021 Y81.689 E12.31642
G1 X71.145 Y80.379 E12.36166
G1 X71.514 Y79.153 E12.40567
G1 X72.059 Y78.115 E12.44594
G1 X73.013 Y76.958 E12.49749
G1 X73.289 Y77.202 F12000.000
G1 F2160.000
G1 X74.151 Y76.502 E12.53565
G1 X75.224 Y75.931 E12.57743
G1 X76.378 Y75.582 E12.61885
G1 X77.585 Y75.464 E12.66054
G1 X78.789 Y75.582 E12.70214
G1 X79.943 Y75.932 E12.74356
G1 X137.165 Y99.638 E14.87247
G1 X138.158 Y100.175 E14.91127
G1 X139.096 Y100.948 E14.95305
G1 X139.860 Y101.880 E14.99447
G1 X140.436 Y102.962 E15.03660
G1 X140.783 Y104.111 E15.07785
G1 X140.901 Y105.326 E15.11980
G1 X140.780 Y106.533 E15.16149
G1 X140.391 Y107.769 E15.20604
G1 X139.854 Y108.759 E15.24476
G1 X139.086 Y109.694 E15.28636
G1 X125.352 Y122.683 E15.93608
G1 X124.359 Y123.473 E15.97971
G1 X123.379 Y123.991 E16.01780
G1 X122.304 Y124.322 E16.05644
G1 X120.916 Y124.457 E16.10437
G1 X99.714 Y122.371 E16.83664
G1 X98.273 Y122.180 E16.88661
G1 X96.812 Y121.856 E16.93805
G1 X95.389 Y121.407 E16.98931
G1 X93.972 Y120.817 E17.04210
G1 X92.643 Y120.121 E17.09366
G1 X91.424 Y119.343 E17.14335
G1 X90.276 Y118.463 E17.19308
G1 X74.704 Y105.983 E17.87898
G1 X73.853 Y105.278 E17.91696
G1 X73.141 Y104.419 E17.95533
G1 X72.493 Y103.222 E18.00210
G1 X72.159 Y102.110 E18.04200
G1 X72.042 Y100.950 E18.08207
G1 X71.396 Y81.681 E18.74476
G1 X71.511 Y80.460 E18.78692
G1 X71.863 Y79.291 E18.82888
G1 X72.386 Y78.299 E18.86742
G1 X73.251 Y77.248 E18.91420
G1 X73.526 Y77.493 F12000.000
G1 F2160.000
G1 X74.356 Y76.816 E18.95102
G1 X75.361 Y76.280 E18.99018
G1 X76.450 Y75.950 E19.02927
G1 X77.584 Y75.839 E19.06844
G1 X78.716 Y75.950 E19.10753
G1 X79.802 Y76.279 E19.14654
G1 X136.991 Y99.970 E21.27418
G1 X137.946 Y100.485 E21.31148
G1 X138.826 Y101.208 E21.35064
G1 X139.547 Y102.087 E21.38973
G1 X140.087 Y103.098 E21.42912
G1 X140.415 Y104.183 E21.46806
G1 X140.526 Y105.321 E21.50737
G1 X140.413 Y106.455 E21.54653
G1 X140.059 Y107.593 E21.58752
G1 X139.545 Y108.548 E21.62477
G1 X138.821 Y109.428 E21.66394
G1 X125.100 Y122.405 E22.31308
G1 X124.180 Y123.143 E22.35361
G1 X123.236 Y123.644 E22.39035
G1 X122.204 Y123.960 E22.42746
G1 X120.947 Y124.083 E22.47084
G1 X99.760 Y121.999 E23.20260
G1 X98.339 Y121.811 E23.25186
G1 X96.910 Y121.494 E23.30216
G1 X95.517 Y121.055 E23.35239
G1 X94.146 Y120.485 E23.40342
G1 X92.844 Y119.804 E23.45390
G1 X91.640 Y119.037 E23.50298
G1 X90.504 Y118.166 E23.55218
G1 X74.941 Y105.693 E24.23769
G1 X74.117 Y105.012 E24.27445
G1 X73.435 Y104.186 E24.31126
G1 X72.847 Y103.100 E24.35370
G1 X72.527 Y102.038 E24.39184
G1 X72.416 Y100.936 E24.42991
G1 X71.770 Y81.670 E25.09248
G1 X71.879 Y80.535 E25.13167
G1 X72.211 Y79.431 E25.17127
G1 X72.714 Y78.481 E25.20823
G1 X73.488 Y77.539 E25.25013
G1 X73.765 Y77.781 F12000.000
G1 F2160.000
G1 X74.562 Y77.129 E25.28554
G1 X75.503 Y76.627 E25.32218
G1 X76.521 Y76.318 E25.35876
G1 X77.583 Y76.214 E25.39545
G1 X78.643 Y76.318 E25.43204
G1 X79.661 Y76.627 E25.46862
G1 X136.819 Y100.303 E27.59511
G1 X137.736 Y100.795 E27.63084
G1 X138.559 Y101.471 E27.66748
G1 X139.236 Y102.296 E27.70412
G1 X139.738 Y103.237 E27.74081
G1 X140.047 Y104.254 E27.77734
G1 X140.151 Y105.317 E27.81403
G1 X140.047 Y106.377 E27.85067
G1 X139.726 Y107.421 E27.88818
G1 X139.234 Y108.337 E27.92394
G1 X138.557 Y109.162 E27.96063
G1 X124.846 Y122.130 E28.60928
G1 X124.002 Y122.813 E28.64661
G1 X123.094 Y123.297 E28.68196
G1 X122.102 Y123.600 E28.71761
G1 X120.980 Y123.709 E28.75636
G1 X99.807 Y121.627 E29.48763
G1 X98.403 Y121.442 E29.53628
G1 X97.009 Y121.132 E29.58539
G1 X95.646 Y120.703 E29.63449
G1 X94.317 Y120.152 E29.68395
G1 X93.046 Y119.488 E29.73324
G1 X91.855 Y118.729 E29.78179
G1 X90.734 Y117.870 E29.83031
G1 X75.178 Y105.403 E30.51551
G1 X74.383 Y104.748 E30.55091
G1 X73.728 Y103.952 E30.58636
G1 X73.201 Y102.974 E30.62454
G1 X72.895 Y101.964 E30.66081
G1 X72.791 Y100.918 E30.69693
G1 X72.145 Y81.660 E31.35923
G1 X72.247 Y80.603 E31.39576
G1 X72.558 Y79.572 E31.43276
G1 X73.043 Y78.660 E31.46825
G1 X73.727 Y77.828 E31.50528
G1 E28.50528 F3000.00000
G1 F9600.000
G1 X74.562 Y77.129 E28.18196
G1 X75.503 Y76.627 E27.86551
G1 X76.521 Y76.318 E27.54951
G1 X77.583 Y76.214 E27.23262
G1 X78.643 Y76.318 E26.91662
G1 X79.661 Y76.627 E26.60062
G1 X82.603 Y77.845 E25.65528
G1 E25.50528 F3000.00000
G92 E0
G1 X72.406 Y83.832 F12000.000
G1 E6.00000 F3000.00000
G1 F2160.000
G1 X72.886 Y84.745 E6.03546
G1 X73.580 Y85.601 E6.07334
G1 X74.458 Y86.327 E6.11251
G1 X75.431 Y86.847 E6.15041
G1 X76.486 Y87.167 E6.18833
G1 X77.582 Y87.275 E6.22616
G1 X78.811 Y87.156 E6.26860
G1 X85.441 Y100.417 E6.77822
G1 X85.245 Y101.045 E6.80081
G1 X84.939 Y102.423 E6.84935
G1 X84.749 Y103.856 E6.89901
G1 X84.685 Y105.299 E6.94868
G1 X84.748 Y106.759 E6.99890
G1 X84.937 Y108.192 E7.04857
G1 X85.249 Y109.602 E7.09823
G1 X85.706 Y111.034 E7.14987
G1 X86.237 Y112.315 E7.19755
G1 X86.904 Y113.597 E7.24720
G1 X87.680 Y114.815 E7.29686
G1 X88.411 Y115.767 E7.33811
G1 E4.33811 F3000.00000
G1 F9600.000
G1 X87.680 Y114.815 E3.98182
G1 X86.904 Y113.597 E3.55289
G1 X86.237 Y112.315 E3.12403
G1 X85.706 Y111.034 E2.71221
G1 X85.249 Y109.602 E2.26621
G1 X84.937 Y108.192 E1.83727
G1 X84.783 Y107.026 E1.48811
G1 E1.33811 F3000.00000
G92 E0
G1 X102.816 Y123.249 F12000.000
G1 X103.095 Y121.762
G1 E6.00000 F3000.00000
G1 F2160.000
G1 X104.139 Y121.623 E6.03621
G1 X105.550 Y121.309 E6.08587
G1 X106.927 Y120.873 E6.13553
G1 X108.247 Y120.326 E6.18464
G1 X109.514 Y119.667 E6.23373
G1 X110.733 Y118.892 E6.28339
G1 X111.881 Y118.013 E6.33305
G1 X112.958 Y117.027 E6.38328
G1 X113.945 Y115.949 E6.43350
G1 X114.823 Y114.802 E6.48316
G1 X115.582 Y113.611 E6.53171
G1 X115.887 Y113.028 E6.55430
G1 X129.953 Y108.340 E7.06390
G1 X130.763 Y109.318 E7.10758
G1 X131.620 Y110.012 E7.14545
G1 X132.561 Y110.511 E7.18206
G1 X133.616 Y110.831 E7.21997
G1 X134.676 Y110.939 E7.25661
G1 X135.849 Y110.824 E7.29710
G1 X136.870 Y110.499 E7.33395
G1 E4.33395 F3000.00000
G1 F9600.000
G1 X135.849 Y110.824 E4.01571
G1 X134.676 Y110.939 E3.66598
G1 X133.616 Y110.831 E3.34948
G1 X132.561 Y110.511 E3.02208
G1 X131.620 Y110.012 E2.70585
G1 X130.763 Y109.318 E2.37878
G1 X129.953 Y108.340 E2.00149
G1 X128.299 Y108.891 E1.48395
G1 E1.33395 F3000.00000
G92 E0
G1 X134.714 Y98.243 F12000.000
G1 X134.888 Y99.706
G1 E6.00000 F3000.00000
G1 F2160.000
G1 X134.751 Y99.692 E6.00473
G1 X133.653 Y99.792 E6.04261
G1 X132.562 Y100.120 E6.08177
G1 X131.559 Y100.660 E6.12092
G1 X130.618 Y101.432 E6.16275
G1 X130.583 Y101.503 E6.16548
G1 X130.563 Y101.909 E6.17945
G1 X130.168 Y102.007 E6.19343
G1 X130.106 Y102.056 E6.19616
G1 X129.733 Y102.753 E6.22332
G1 X117.600 Y102.753 E6.64035
G1 X117.555 Y102.424 E6.65177
G1 X117.245 Y101.029 E6.70088
G1 X116.811 Y99.651 E6.75054
G1 X116.265 Y98.331 E6.79964
G1 X115.590 Y97.035 E6.84987
G1 X114.823 Y95.829 E6.89897
G1 X113.945 Y94.682 E6.94863
G1 X112.958 Y93.604 E6.99885
G1 X111.893 Y92.628 E7.04851
G1 X110.760 Y91.758 E7.09762
G1 X109.528 Y90.972 E7.14784
G1 X108.247 Y90.305 E7.19750
G1 X106.912 Y89.752 E7.24716
G1 X105.534 Y89.318 E7.29682
G1 X104.139 Y89.008 E7.34593
G1 X102.707 Y88.818 E7.39559
G1 X101.247 Y88.753 E7.44581
G1 X99.820 Y88.815 E7.49491
G1 X98.387 Y89.002 E7.54458
G1 X96.961 Y89.318 E7.59480
G1 X95.583 Y89.752 E7.64446
G1 X94.263 Y90.298 E7.69356
G1 X92.966 Y90.972 E7.74379
G1 X91.761 Y91.739 E7.79290
G1 X91.496 Y91.940 E7.80433
G1 X82.916 Y83.361 E8.22136
G1 X83.146 Y82.605 E8.24852
G1 X83.136 Y82.526 E8.25124
G1 X82.927 Y82.177 E8.26522
G1 X83.200 Y81.876 E8.27919
G1 X83.225 Y81.801 E8.28191
G1 X83.099 Y80.555 E8.32496
G1 X82.779 Y79.500 E8.36286
G1 X82.279 Y78.557 E8.39952
G1 X81.585 Y77.700 E8.43742
G1 X81.406 Y77.552 E8.44542
G1 E5.44542 F3000.00000
G1 F9600.000
G1 X81.585 Y77.700 E5.37638
G1 X82.279 Y78.557 E5.04898
G1 X82.779 Y79.500 E4.73238
G1 X83.099 Y80.555 E4.40500
G1 X83.225 Y81.801 E4.03319
G1 X83.200 Y81.876 E4.00971
G1 X82.927 Y82.177 E3.88901
G1 X83.136 Y82.526 E3.76831
G1 X83.146 Y82.605 E3.74474
G1 X82.916 Y83.361 E3.51016
G1 X85.095 Y85.540 E2.59542
G1 E2.44542 F3000.00000
G92 E0
G1 X80.289 Y75.117 F12000.000
G1 X79.545 Y76.787
G1 E6.00000 F3000.00000
G1 F2160.000
G1 X80.484 Y77.277 E6.03639
G1 X81.307 Y77.952 E6.07297
G1 X81.957 Y78.750 E6.10833
G1 X82.439 Y79.659 E6.14370
G1 X82.734 Y80.645 E6.17908
G1 X82.840 Y81.715 E6.21606
G1 X82.728 Y81.838 E6.22177
G1 X81.219 Y81.838 E6.27363
G1 X81.186 Y82.177 E6.28531
G1 X82.666 Y82.471 E6.33716
G1 X82.751 Y82.614 E6.34288
G1 X82.492 Y83.467 E6.37354
G1 X91.463 Y92.438 E6.80960
G1 X91.969 Y92.051 E6.83149
G1 X93.160 Y91.293 E6.88003
G1 X94.413 Y90.641 E6.92857
G1 X95.718 Y90.102 E6.97711
G1 X97.065 Y89.678 E7.02565
G1 X98.444 Y89.373 E7.07418
G1 X99.844 Y89.189 E7.12272
G1 X101.255 Y89.128 E7.17126
G1 X102.666 Y89.191 E7.21980
G1 X104.066 Y89.376 E7.26833
G1 X105.444 Y89.682 E7.31687
G1 X106.791 Y90.107 E7.36541
G1 X108.095 Y90.648 E7.41395
G1 X109.348 Y91.301 E7.46249
G1 X110.538 Y92.060 E7.51102
G1 X111.658 Y92.921 E7.55956
G1 X112.699 Y93.875 E7.60810
G1 X113.652 Y94.917 E7.65664
G1 X114.512 Y96.038 E7.70518
G1 X115.270 Y97.229 E7.75371
G1 X115.921 Y98.482 E7.80225
G1 X116.461 Y99.787 E7.85079
G1 X116.885 Y101.134 E7.89933
G1 X117.187 Y102.497 E7.94731
G1 X117.271 Y103.128 E7.96920
G1 X129.958 Y103.128 E8.40526
G1 X130.378 Y102.341 E8.43593
G1 X130.540 Y102.301 E8.44164
G1 X131.794 Y103.139 E8.49350
G1 X132.010 Y102.876 E8.50518
G1 X130.943 Y101.810 E8.55703
G1 X130.951 Y101.644 E8.56275
G1 X131.782 Y100.961 E8.59971
G1 X132.722 Y100.459 E8.63633
G1 X133.707 Y100.164 E8.67169
G1 X134.732 Y100.066 E8.70705
G1 X135.755 Y100.171 E8.74242
G1 X136.738 Y100.473 E8.77776
G1 X137.623 Y100.947 F12000.000
G1 F2160.000
G1 X138.000 Y101.255 E8.79450
G1 X138.389 Y101.574 F12000.000
G1 F2160.000
G1 X138.963 Y102.259 E8.82518
G1 X139.073 Y102.393 F12000.000
G1 F2160.000
G1 X139.303 Y102.820 E8.84185
G1 X139.559 Y103.300 F12000.000
G1 F2160.000
G1 X139.863 Y104.300 E8.87779
G1 X139.916 Y104.844 F12000.000
G1 F2160.000
G1 X139.962 Y105.325 E8.89439
G1 X139.911 Y105.847 F12000.000
G1 F2160.000
G1 X139.860 Y106.348 E8.91170
G1 X139.531 Y107.388 F12000.000
G1 F2160.000
G1 X139.073 Y108.239 E8.94493
G1 X138.723 Y108.665 F12000.000
G1 F2160.000
G1 X138.413 Y109.040 E8.96166
G1 X137.645 Y109.670 E8.99579
G1 X136.773 Y110.140 E9.02985
G1 X135.755 Y110.460 E9.06653
G1 X134.696 Y110.565 E9.10311
G1 X133.672 Y110.460 E9.13847
G1 X132.688 Y110.158 E9.17385
G1 X131.813 Y109.690 E9.20798
G1 X131.015 Y109.040 E9.24336
G1 X130.359 Y108.246 E9.27876
G1 X130.156 Y107.877 E9.29323
G1 X115.625 Y112.721 E9.81970
G1 X115.262 Y113.416 E9.84666
G1 X114.512 Y114.594 E9.89464
G1 X113.653 Y115.714 E9.94318
G1 X112.687 Y116.767 E9.99228
G1 X111.646 Y117.721 E10.04081
G1 X110.525 Y118.580 E10.08935
G1 X109.334 Y119.338 E10.13789
G1 X108.096 Y119.983 E10.18587
G1 X106.791 Y120.524 E10.23441
G1 X105.444 Y120.949 E10.28295
G1 X104.066 Y121.256 E10.33149
G1 X102.666 Y121.441 E10.38002
G1 X101.239 Y121.503 E10.42912
G1 X99.828 Y121.441 E10.47765
G1 X99.785 Y121.435 F12000.000
G1 F2160.000
G1 X98.432 Y121.256 E10.52454
G1 X97.739 Y121.102 F12000.000
G1 F2160.000
G1 X97.054 Y120.950 E10.54867
G1 X96.376 Y120.736 F12000.000
G1 F2160.000
G1 X95.707 Y120.525 E10.57279
G1 E7.57279 F3000.00000
G1 F9600.000
G1 X96.376 Y120.736 E7.36452
G1 E4.57279 F3000.00000
G92 E0
G1 X92.246 Y120.906 F12000.000
G1 X93.140 Y119.326
G1 E6.00000 F3000.00000
G1 F2160.000
G1 X91.959 Y118.573 E6.04813
G1 X91.597 Y118.295 F12000.000
G1 F2160.000
G1 X90.836 Y117.711 E6.08113
G1 X89.807 Y116.767 E6.12910
G1 X88.842 Y115.714 E6.17820
G1 X87.983 Y114.594 E6.22674
G1 X87.224 Y113.402 E6.27528
G1 X86.580 Y112.164 E6.32326
G1 X86.060 Y110.912 E6.36985
G1 X85.613 Y109.513 E6.42034
G1 X85.307 Y108.134 E6.46886
G1 X85.122 Y106.734 E6.51740
G1 X85.060 Y105.307 E6.56650
G1 X85.122 Y103.897 E6.61503
G1 X85.307 Y102.497 E6.66357
G1 X85.609 Y101.134 E6.71155
G1 X85.844 Y100.385 E6.73852
G1 X78.995 Y86.685 E7.26498
G1 X78.590 Y86.803 E7.27946
G1 X77.564 Y86.900 E7.31487
G1 X76.576 Y86.803 E7.34900
G1 X75.590 Y86.507 E7.38437
G1 X74.651 Y86.005 E7.42097
G1 X73.858 Y85.350 E7.45633
G1 X73.208 Y84.552 E7.49170
G1 X72.726 Y83.643 E7.52707
G1 X72.431 Y82.657 E7.56245
G1 X72.333 Y81.669 E7.59658
G1 X72.380 Y81.178 E7.61353
G1 X72.432 Y80.641 F12000.000
G1 F2160.000
G1 X72.479 Y80.483 E7.61920
G1 X72.730 Y79.651 F12000.000
G1 F2160.000
G1 X73.200 Y78.765 E7.65370
G1 X73.898 Y77.915 F12000.000
G1 F2160.000
G1 X74.674 Y77.282 E7.68814
G1 X75.137 Y77.035 F12000.000
G1 F2160.000
G1 X75.583 Y76.799 E7.70547
G1 X76.062 Y76.653 F12000.000
G1 F2160.000
G1 X76.567 Y76.502 E7.72357
G1 X77.111 Y76.448 F12000.000
G1 F2160.000
G1 X77.592 Y76.403 E7.74017
G1 X78.598 Y76.502 F12000.000
G1 F2160.000
G1 X79.081 Y76.647 E7.75752
G1 E4.75752 F3000.00000
G1 F9600.000
G1 X78.598 Y76.502 E4.60766
G1 E1.75752 F3000.00000
G92 E0
G1 X127.786 Y90.884 F12000.000
G1 X130.008 Y97.982
G1 X130.214 Y99.904
G1 X129.952 Y100.296
G1 X130.728 Y101.598
G1 X132.209 Y103.260
G1 E6.00000 F3000.00000
G1 F2160.000
G1 X132.547 Y103.277 E6.01163
G1 X133.067 Y102.850 E6.03473
G1 X133.579 Y102.576 E6.05471
G1 X134.135 Y102.408 E6.07468
G1 X134.714 Y102.351 E6.09466
G1 X135.292 Y102.408 E6.11464
G1 X135.849 Y102.576 E6.13462
G1 X136.361 Y102.850 E6.15459
G1 X136.810 Y103.219 E6.17457
G1 X137.179 Y103.668 E6.19455
G1 X137.453 Y104.181 E6.21453
G1 X137.622 Y104.737 E6.23451
G1 X137.679 Y105.316 E6.25448
G1 X137.622 Y105.894 E6.27446
G1 X137.453 Y106.450 E6.29444
