; generated by PrusaSlicer 2.2.0+win64 on 2020-12-08 at 11:07:15 UTC

; 

; external perimeters extrusion width = 0.45mm
; perimeters extrusion width = 0.45mm
; infill extrusion width = 0.45mm
; solid infill extrusion width = 0.45mm
; top infill extrusion width = 0.40mm
; first layer extrusion width = 0.42mm

M201 X9000 Y9000 Z500 E10000 ; sets maximum accelerations, mm/sec^2
M203 X500 Y500 Z12 E120 ; sets maximum feedrates, mm/sec
M204 P1500 R1500 T1500 ; sets acceleration (P, T) and retract acceleration (R), mm/sec^2
M205 X10.00 Y10.00 Z0.20 E2.50 ; sets the jerk limits, mm/sec
M205 S0 T0 ; sets the minimum extruding and travel feed rate, mm/sec
;;; Copy from Cura output
M140 S60 ; set bed temp
M105 ; Read current temp
M190 S60 ; set bed temp and wait
M104 S175 ; set extruder temp
M105 ; Read current temp
M109 S175 ; wait for extruder temp and wait
M82        ; Set E codes absolute (default) - absolute extrusion mode

;;; Copy from Cura config
G21 ;metric values
G90 ;absolute positioning
M82 ;set extruder to absolute mode
M107 ;start with the fan off
G28 X0 Y0 ;move X/Y to min endstops
G28 Z0 ;move Z to min endstops
G1 Z15.0 F200 ;move the platform down 15mm
G92 E0 ;zero the extruded length
G1 F200 E3 ;extrude 3mm of feed stock
G92 E0 ;zero the extruded length again
G1 F200
G0 Y20 F200
M117 Printing...
G5
G21 ; set units to millimeters
G90 ; use absolute coordinates
M82 ; use absolute distances for extrusion
G92 E0
; Filament gcode
M106 S127.5
G1 E-6.00000 F3000.00000
G92 E0
G1 Z0.308 F12000.000
G1 X53.323 Y38.258
G1 E6.00000 F3000.00000
G1 F2160.000
G1 X53.991 Y38.085 E6.03282
G1 X156.002 Y38.085 E10.88688
G1 X156.538 Y38.192 E10.91287
G1 X156.993 Y38.493 E10.93886
G1 X157.301 Y38.945 E10.96486
G1 X157.414 Y39.479 E10.99085
G1 X157.407 Y127.648 E15.18624
G1 X142.183 Y171.276 E17.38498
G1 X141.675 Y171.743 E17.41779
G1 X141.007 Y171.915 E17.45061
G1 X68.993 Y171.915 E20.87731
G1 X68.590 Y171.854 E20.89668
G1 X68.222 Y171.682 E20.91606
G1 X67.885 Y171.373 E20.93778
G1 X67.665 Y170.973 E20.95951
G1 X52.595 Y127.664 E23.14151
G1 X52.585 Y39.498 E27.33677
G1 X52.645 Y39.095 E27.35615
G1 X52.818 Y38.724 E27.37566
G1 X53.279 Y38.299 E27.40549
G1 X53.114 Y38.917 F12000.000
G1 F2160.000
G1 X53.495 Y38.568 E27.43007
G1 X53.996 Y38.439 E27.45465
G1 X156.002 Y38.439 E32.30847
G1 X156.406 Y38.520 E32.32809
G1 X156.747 Y38.747 E32.34759
G1 X156.977 Y39.087 E32.36709
G1 X157.061 Y39.488 E32.38659
G1 X157.055 Y127.613 E36.57989
G1 X141.886 Y171.083 E38.77069
G1 X141.505 Y171.432 E38.79528
G1 X141.004 Y171.561 E38.81986
G1 X68.996 Y171.561 E42.24626
G1 X68.415 Y171.386 E42.27517
G1 X68.163 Y171.154 E42.29145
G1 X67.998 Y170.854 E42.30773
G1 X52.946 Y127.623 E44.48594
G1 X52.939 Y39.498 E48.67922
G1 X53.097 Y38.974 E48.70527
G1 X53.411 Y39.111 F12000.000
G1 F2160.000
G1 X53.664 Y38.878 E48.72162
G1 X53.999 Y38.793 E48.73807
G1 X156.001 Y38.793 E53.59170
G1 X156.270 Y38.847 E53.60477
G1 X156.497 Y38.998 E53.61774
G1 X156.651 Y39.226 E53.63081
G1 X156.707 Y39.495 E53.64388
G1 X156.703 Y127.578 E57.83518
G1 X141.590 Y170.888 E60.01791
G1 X141.335 Y171.122 E60.03436
G1 X141.000 Y171.207 E60.05081
G1 X68.997 Y171.207 E63.47699
G1 X68.609 Y171.089 E63.49630
G1 X68.331 Y170.733 E63.51778
G1 X53.298 Y127.582 E65.69209
G1 X53.293 Y39.501 E69.88333
G1 X53.393 Y39.168 E69.89988
G1 X53.706 Y39.305 F12000.000
G1 F2160.000
G1 X54.001 Y39.147 E69.91581
G1 X156.000 Y39.147 E74.76931
G1 X156.249 Y39.251 E74.78213
G1 X156.353 Y39.499 E74.79495
G1 X156.351 Y127.541 E78.98428
G1 X141.294 Y170.694 E81.15909
G1 X140.999 Y170.853 E81.17503
G1 X68.999 Y170.853 E84.60105
G1 X68.803 Y170.794 E84.61078
G1 X68.665 Y170.616 E84.62152
G1 X53.649 Y127.542 E86.79210
G1 X53.647 Y39.501 E90.98140
G1 X53.689 Y39.363 E90.98826
G1 E87.98826 F3000.00000
G1 F9600.000
G1 X54.001 Y39.147 E87.87558
G1 X63.221 Y39.147 E85.13826
G1 E84.98826 F3000.00000
G92 E0
G1 X61.030 Y39.324 F12000.000
G1 E6.00000 F3000.00000
G1 F2160.000
G1 X61.030 Y71.970 E7.55342
G1 X88.670 Y71.970 E8.86865
G1 X88.670 Y47.319 E10.04163
G1 X88.697 Y47.254 E10.04498
G1 X88.954 Y46.997 E10.06228
G1 X89.019 Y46.970 E10.06563
G1 X120.983 Y46.970 E11.58657
G1 X121.048 Y46.997 E11.58992
G1 X121.305 Y47.254 E11.60722
G1 X121.332 Y47.319 E11.61057
G1 X121.332 Y71.970 E12.78355
G1 X148.968 Y71.970 E14.09859
G1 X148.968 Y39.324 E15.65201
G1 E12.65201 F3000.00000
G1 F9600.000
G1 X148.968 Y48.924 E9.80201
G1 E9.65201 F3000.00000
G92 E0
G1 X157.999 Y129.501 F12000.000
G1 X155.992 Y128.032
G1 E6.00000 F3000.00000
G1 F2160.000
G1 X141.530 Y128.032 E6.68816
G1 X141.530 Y169.481 E8.66048
G1 E5.66048 F3000.00000
G1 F9600.000
G1 X141.530 Y159.881 E2.81048
G1 E2.66048 F3000.00000
G92 E0
G1 X110.806 Y172.499 F12000.000
G1 X111.866 Y170.676
G1 E6.00000 F3000.00000
G1 F2160.000
G1 X111.772 Y170.300 E6.01844
G1 X111.822 Y170.189 E6.02424
G1 X112.551 Y169.801 E6.06354
G1 X114.612 Y168.112 E6.19032
G1 X116.299 Y166.053 E6.31700
G1 X117.556 Y163.701 E6.44389
G1 X118.330 Y161.151 E6.57070
G1 X118.592 Y158.499 E6.69749
G1 X118.330 Y155.849 E6.82419
G1 X117.556 Y153.299 E6.95099
G1 X116.299 Y150.949 E7.07780
G1 X114.612 Y148.890 E7.20449
G1 X112.551 Y147.198 E7.33136
G1 X110.201 Y145.942 E7.45815
G1 X107.651 Y145.170 E7.58492
G1 X104.999 Y144.908 E7.71173
G1 X102.347 Y145.170 E7.83853
G1 X99.799 Y145.942 E7.96521
G1 X97.450 Y147.198 E8.09200
G1 X95.390 Y148.890 E8.21881
G1 X93.699 Y150.949 E8.34562
G1 X92.444 Y153.299 E8.47237
G1 X91.668 Y155.849 E8.59920
G1 X91.408 Y158.499 E8.72590
G1 X91.668 Y161.151 E8.85268
G1 X92.444 Y163.701 E8.97951
G1 X93.699 Y166.053 E9.10635
G1 X95.390 Y168.112 E9.23315
G1 X97.449 Y169.801 E9.35987
G1 X98.178 Y170.189 E9.39917
G1 X98.228 Y170.300 E9.40497
G1 X98.134 Y170.676 E9.42341
G1 E6.42341 F3000.00000
G1 F9600.000
G1 X98.228 Y170.300 E6.30835
G1 X98.178 Y170.189 E6.27217
G1 X97.449 Y169.801 E6.02700
G1 X95.390 Y168.112 E5.23638
G1 X93.699 Y166.053 E4.44529
G1 X92.444 Y163.701 E3.65393
G1 X92.365 Y163.441 E3.57341
G1 E3.42341 F3000.00000
G92 E0
G1 X97.631 Y170.499 F12000.000
G1 X99.194 Y172.499
G1 X68.468 Y169.514
G1 E6.00000 F3000.00000
G1 F2160.000
G1 X68.468 Y128.032 E7.97386
G1 X54.008 Y128.032 E8.66194
G1 X53.861 Y127.611 F12000.000
G1 F2160.000
G1 X53.928 Y127.678 E8.66642
G1 X68.822 Y127.678 E9.37515
G1 X68.822 Y170.529 E11.41416
G1 E8.41416 F3000.00000
G1 F9600.000
G1 X68.822 Y160.929 E5.56416
G1 E5.41416 F3000.00000
G92 E0
G1 X99.194 Y172.499 F12000.000
G1 X97.769 Y170.676
G1 E6.00000 F3000.00000
G1 F2160.000
G1 X97.836 Y170.408 E6.01316
G1 X97.252 Y170.097 E6.04466
G1 X95.139 Y168.363 E6.17471
G1 X93.403 Y166.250 E6.30483
G1 X92.115 Y163.837 E6.43499
G1 X91.319 Y161.220 E6.56514
G1 X91.053 Y158.499 E6.69524
G1 X91.319 Y155.780 E6.82525
G1 X92.115 Y153.163 E6.95540
G1 X93.403 Y150.752 E7.08546
G1 X95.139 Y148.639 E7.21559
G1 X97.252 Y146.903 E7.34572
G1 X99.663 Y145.613 E7.47583
G1 X102.278 Y144.821 E7.60582
G1 X104.999 Y144.553 E7.73594
G1 X107.720 Y144.821 E7.86606
G1 X110.337 Y145.613 E7.99615
G1 X112.748 Y146.903 E8.12626
G1 X114.863 Y148.639 E8.25646
G1 X116.595 Y150.752 E8.38646
G1 X117.885 Y153.163 E8.51658
G1 X118.679 Y155.780 E8.64670
G1 X118.947 Y158.499 E8.77672
G1 X118.679 Y161.220 E8.90683
G1 X117.885 Y163.837 E9.03695
G1 X116.595 Y166.250 E9.16715
G1 X114.863 Y168.363 E9.29715
G1 X112.748 Y170.097 E9.42728
G1 X112.164 Y170.408 E9.45878
G1 X112.231 Y170.676 E9.47194
G1 E6.47194 F3000.00000
G1 F9600.000
G1 X112.164 Y170.408 E6.38984
G1 X112.748 Y170.097 E6.19332
G1 X114.863 Y168.363 E5.38147
G1 X116.595 Y166.250 E4.57040
G1 X117.885 Y163.837 E3.75807
G1 X118.018 Y163.398 E3.62194
G1 E3.47194 F3000.00000
G92 E0
G1 X112.369 Y170.499 F12000.000
G1 X110.806 Y172.499
G1 X141.176 Y170.496
G1 E6.00000 F3000.00000
G1 F2160.000
G1 X141.176 Y127.678 E8.03743
G1 X156.072 Y127.678 E8.74625
G1 X156.138 Y127.612 E8.75070
G1 E5.75070 F3000.00000
G1 F9600.000
G1 X156.072 Y127.678 E5.72294
G1 X146.566 Y127.678 E2.90070
G1 E2.75070 F3000.00000
G92 E0
G1 X147.499 Y37.501 F12000.000
G1 X149.426 Y39.324
G1 E6.00000 F3000.00000
G1 F2160.000
G1 X149.322 Y39.428 E6.00698
G1 X149.322 Y72.324 E7.57230
G1 X120.978 Y72.324 E8.92102
G1 X120.978 Y47.428 E10.10568
G1 X120.874 Y47.324 E10.11265
G1 X89.128 Y47.324 E11.62327
G1 X89.024 Y47.428 E11.63025
G1 X89.024 Y72.324 E12.81491
G1 X60.676 Y72.324 E14.16381
G1 X60.676 Y39.428 E15.72914
G1 X60.572 Y39.324 E15.73612
G1 E12.73612 F3000.00000
G1 F9600.000
G1 X60.676 Y39.428 E12.69260
G1 X60.676 Y48.881 E9.88612
G1 E9.73612 F3000.00000
G92 E0
G1 X155.789 Y127.291 F12000.000
G1 E6.00000 F3000.00000
G1 F2160.000
G1 X140.789 Y127.291 E6.71375
G1 X140.789 Y170.289 E8.75976
G1 X113.125 Y170.289 E10.07613
G1 X115.138 Y168.638 E10.20003
G1 X116.918 Y166.466 E10.33367
G1 X118.244 Y163.986 E10.46749
G1 X119.060 Y161.296 E10.60123
G1 X119.336 Y158.499 E10.73497
G1 X119.060 Y155.704 E10.86863
G1 X118.244 Y153.014 E11.00237
G1 X116.918 Y150.536 E11.13611
G1 X115.138 Y148.364 E11.26974
G1 X112.964 Y146.580 E11.40356
G1 X110.486 Y145.254 E11.53731
G1 X107.796 Y144.440 E11.67102
G1 X104.999 Y144.164 E11.80476
G1 X102.202 Y144.440 E11.93851
G1 X99.514 Y145.254 E12.07213
G1 X97.036 Y146.580 E12.20588
G1 X94.864 Y148.364 E12.33963
G1 X93.080 Y150.536 E12.47338
G1 X91.756 Y153.014 E12.60707
G1 X90.938 Y155.704 E12.74084
G1 X90.664 Y158.499 E12.87448
G1 X90.938 Y161.296 E13.00822
G1 X91.756 Y163.986 E13.14199
G1 X93.080 Y166.466 E13.27577
G1 X94.864 Y168.638 E13.40953
G1 X96.876 Y170.289 E13.53335
G1 X69.209 Y170.289 E14.84983
G1 X69.209 Y127.291 E16.89583
G1 X54.211 Y127.291 E17.60949
G1 X54.211 Y39.711 E21.77687
G1 X60.289 Y39.711 E22.06608
G1 X60.289 Y72.711 E23.63634
G1 X89.411 Y72.711 E25.02207
G1 X89.411 Y47.711 E26.21166
G1 X120.591 Y47.711 E27.69532
G1 X120.591 Y72.711 E28.88491
G1 X149.709 Y72.711 E30.27046
G1 X149.709 Y39.711 E31.84072
G1 X155.789 Y39.711 E32.13003
G1 X155.789 Y127.231 E36.29455
G1 X155.438 Y127.099 F12000.000
G1 E33.29455 F3000.00000
G1 F9600.000
G1 X146.189 Y127.269 E30.44455
G1 E30.29455 F3000.00000
G92 E0
G1 X155.234 Y51.966 F12000.000
G1 E6.00000 F3000.00000
G1 F540.000
G1 X155.215 Y51.781 E6.00887
G1 X155.065 Y51.278 E6.03385
G1 X154.816 Y50.818 E6.05875
G1 X154.486 Y50.414 E6.08354
G1 X154.082 Y50.084 E6.10835
G1 X153.621 Y49.836 E6.13326
G1 X153.122 Y49.683 E6.15810
G1 X152.601 Y49.632 E6.18301
G1 X152.080 Y49.683 E6.20790
G1 X151.579 Y49.836 E6.23284
G1 X151.118 Y50.084 E6.25775
G1 X150.715 Y50.414 E6.28252
G1 X150.382 Y50.818 E6.30748
G1 X150.224 Y51.115 E6.32348
G1 X150.063 Y51.075 E6.33138
G1 X150.063 Y40.065 E6.85530
G1 X155.435 Y40.065 E7.11093
G1 X155.435 Y51.956 E7.67676
G1 X155.294 Y51.963 E7.68350
G1 E4.68350 F3000.00000
G1 F9600.000
G1 X155.215 Y51.781 E4.62448
G1 X155.065 Y51.278 E4.46868
G1 X154.816 Y50.818 E4.31329
G1 X154.486 Y50.414 E4.15861
G1 X154.082 Y50.084 E4.00383
G1 X153.621 Y49.836 E3.84846
G1 X153.122 Y49.683 E3.69343
G1 X152.601 Y49.632 E3.53804
G1 X152.080 Y49.683 E3.38273
G1 X151.579 Y49.836 E3.22714
G1 X151.118 Y50.084 E3.07174
G1 X150.715 Y50.414 E2.91719
G1 X150.382 Y50.818 E2.76146
G1 X150.224 Y51.115 E2.66163
G1 X150.063 Y51.075 E2.61235
G1 X150.063 Y48.452 E1.83350
G1 E1.68350 F3000.00000
G92 E0
G1 X152.976 Y44.560 F12000.000
G1 E6.00000 F3000.00000
G1 F540.000
G1 X152.751 Y44.586 E6.01076
G1 X152.537 Y44.564 E6.02100
G1 X152.334 Y44.502 E6.03109
G1 X152.149 Y44.403 E6.04109
G1 X151.982 Y44.269 E6.05126
G1 X151.848 Y44.104 E6.06137
G1 X151.746 Y43.916 E6.07154
G1 X151.684 Y43.712 E6.08171
G1 X151.664 Y43.501 E6.09179
G1 X151.684 Y43.288 E6.10196
G1 X151.746 Y43.084 E6.11213
G1 X151.848 Y42.896 E6.12230
G1 X151.982 Y42.731 E6.13241
G1 X152.148 Y42.598 E6.14253
G1 X152.335 Y42.495 E6.15267
G1 X152.546 Y42.435 E6.16310
G1 X152.751 Y42.414 E6.17294
G1 X152.962 Y42.436 E6.18302
G1 X153.165 Y42.496 E6.19310
G1 X153.354 Y42.598 E6.20333
G1 X153.517 Y42.731 E6.21336
G1 X153.655 Y42.896 E6.22354
G1 X153.754 Y43.085 E6.23371
G1 X153.816 Y43.288 E6.24384
G1 X153.836 Y43.501 E6.25401
G1 X153.816 Y43.712 E6.26408
G1 X153.754 Y43.915 E6.27420
G1 X153.655 Y44.104 E6.28437
G1 X153.517 Y44.269 E6.29456
G1 X153.354 Y44.403 E6.30463
G1 X153.165 Y44.502 E6.31476
G1 X153.033 Y44.542 E6.32134
G1 X152.906 Y44.775 F12000.000
G1 X152.751 Y44.942
G1 F540.000
G1 X152.466 Y44.912 E6.33497
G1 X152.198 Y44.830 E6.34832
G1 X151.953 Y44.699 E6.36156
G1 X151.732 Y44.521 E6.37506
G1 X151.552 Y44.302 E6.38853
G1 X151.418 Y44.053 E6.40200
G1 X151.335 Y43.781 E6.41555
G1 X151.309 Y43.501 E6.42891
G1 X151.335 Y43.220 E6.44237
G1 X151.418 Y42.947 E6.45594
G1 X151.552 Y42.698 E6.46941
G1 X151.732 Y42.479 E6.48288
G1 X151.950 Y42.302 E6.49624
G1 X152.200 Y42.166 E6.50977
G1 X152.478 Y42.087 E6.52354
G1 X152.751 Y42.058 E6.53662
G1 X153.031 Y42.088 E6.54999
G1 X153.300 Y42.166 E6.56336
G1 X153.552 Y42.302 E6.57697
G1 X153.768 Y42.479 E6.59022
G1 X153.950 Y42.698 E6.60379
G1 X154.083 Y42.950 E6.61733
G1 X154.165 Y43.220 E6.63076
G1 X154.191 Y43.501 E6.64423
G1 X154.165 Y43.781 E6.65758
G1 X154.083 Y44.050 E6.67100
G1 X153.950 Y44.302 E6.68454
G1 X153.768 Y44.521 E6.69811
G1 X153.550 Y44.699 E6.71150
G1 X153.300 Y44.831 E6.72492
G1 X153.034 Y44.912 E6.73817
G1 X152.811 Y44.936 E6.74884
G1 E3.74884 F3000.00000
G1 F9600.000
G1 X152.466 Y44.912 E3.64630
G1 X152.198 Y44.830 E3.56301
G1 X151.953 Y44.699 E3.48043
G1 X151.732 Y44.521 E3.39616
G1 X151.552 Y44.302 E3.31213
G1 X151.418 Y44.053 E3.22812
G1 X151.335 Y43.781 E3.14355
G1 X151.309 Y43.501 E3.06022
G1 X151.335 Y43.220 E2.97621
G1 X151.418 Y42.947 E2.89155
G1 X151.552 Y42.698 E2.80755
G1 X151.732 Y42.479 E2.72351
G1 X151.950 Y42.302 E2.64011
G1 X152.200 Y42.166 E2.55573
G1 X152.478 Y42.087 E2.46981
G1 X152.751 Y42.058 E2.38823
G1 X153.031 Y42.088 E2.30481
G1 X153.300 Y42.166 E2.22139
G1 X153.552 Y42.302 E2.13644
G1 X153.768 Y42.479 E2.05379
G1 X153.950 Y42.698 E1.96914
G1 X154.083 Y42.950 E1.88465
G1 X154.165 Y43.220 E1.80086
G1 X154.191 Y43.501 E1.71684
G1 X154.165 Y43.781 E1.63352
G1 X154.083 Y44.050 E1.54981
G1 X153.950 Y44.302 E1.46533
G1 X153.768 Y44.521 E1.38067
G1 X153.550 Y44.699 E1.29715
G1 X153.300 Y44.831 E1.21343
G1 X153.034 Y44.912 E1.13071
G1 X152.811 Y44.936 E1.06416
G1 E0.74884 F3000.00000
G92 E0
G1 X152.601 Y49.988 F12000.000
G1 E6.00000 F3000.00000
G1 F540.000
G1 X153.052 Y50.032 E6.02158
G1 X153.484 Y50.164 E6.04307
G1 X153.884 Y50.380 E6.06470
G1 X154.234 Y50.666 E6.08620
G1 X154.520 Y51.016 E6.10770
G1 X154.736 Y51.414 E6.12926
G1 X154.866 Y51.850 E6.15091
G1 X154.911 Y52.288 E6.17187
G1 X154.911 Y58.316 E6.45869
G1 X154.866 Y58.751 E6.47948
G1 X154.736 Y59.184 E6.50101
G1 X154.520 Y59.582 E6.52256
G1 X154.234 Y59.934 E6.54413
G1 X153.884 Y60.220 E6.56566
G1 X153.484 Y60.436 E6.58727
G1 X153.052 Y60.568 E6.60876
G1 X152.601 Y60.612 E6.63035
G1 X152.150 Y60.568 E6.65191
G1 X151.716 Y60.436 E6.67350
G1 X151.316 Y60.220 E6.69513
G1 X150.966 Y59.934 E6.71663
G1 X150.677 Y59.582 E6.73830
G1 X150.466 Y59.183 E6.75976
G1 X150.334 Y58.750 E6.78131
G1 X150.291 Y58.315 E6.80210
G1 X150.291 Y52.289 E7.08887
G1 X150.334 Y51.850 E7.10986
G1 X150.466 Y51.415 E7.13150
G1 X150.677 Y51.016 E7.15298
G1 X150.966 Y50.665 E7.17458
G1 X151.316 Y50.380 E7.19607
G1 X151.716 Y50.164 E7.21769
G1 X152.150 Y50.032 E7.23928
G1 X152.541 Y49.994 E7.25800
G1 X152.801 Y49.641 F12000.000
G1 E4.25800 F3000.00000
G1 F9600.000
G1 X153.052 Y50.032 E4.10587
G1 X153.484 Y50.164 E3.97175
G1 X153.884 Y50.380 E3.83684
G1 X154.234 Y50.666 E3.70270
G1 X154.520 Y51.016 E3.56852
G1 X154.736 Y51.414 E3.43399
G1 X154.866 Y51.850 E3.29895
G1 X154.911 Y52.288 E3.16821
G1 X154.911 Y58.217 E1.40800
G1 E1.25800 F3000.00000
G92 E0
G1 X152.601 Y49.194 F12000.000
G1 X154.999 Y60.246
G1 X155.234 Y58.633
G1 E6.00000 F3000.00000
G1 F2700.000
G1 X155.435 Y58.644 E6.00959
G1 X155.435 Y126.937 E9.25923
G1 X140.435 Y126.937 E9.97299
G1 X140.435 Y169.935 E12.01899
G1 X114.114 Y169.935 E13.27142
G1 X115.390 Y168.890 E13.34989
G1 X117.214 Y166.664 E13.48684
G1 X118.572 Y164.122 E13.62398
G1 X119.409 Y161.366 E13.76103
G1 X119.666 Y158.755 E13.88583
G1 X119.858 Y158.755 E13.89497
G1 X119.885 Y159.019 E13.90761
